; generated by Slic3r 1.3.1-dev (Build 18ddd3a36dc69d81fb9b7440498bff9e1dde8b7e) on 2024-04-25 at 14:03:51

; external perimeters extrusion width = 0.55mm (3.04mm^3/s)
; perimeters extrusion width = 0.70mm (7.88mm^3/s)
; infill extrusion width = 0.63mm (9.31mm^3/s)
; solid infill extrusion width = 0.70mm (2.63mm^3/s)
; top infill extrusion width = 0.70mm (1.97mm^3/s)

M107
G92 E0
M104 S200 ; set temperature
G28 ; home all axes
G1 Z5 F5000 ; lift nozzle

; Filament gcode

M109 S200 ; set temperature and wait for it to be reached
G21 ; set units to millimeters
G90 ; use absolute coordinates
M82 ; use absolute distances for extrusion
G92 E0
G1 Z0.350 F7800.000
G1 E-2.00000 F2400.00000
G92 E0
G1 X88.751 Y88.314 F7800.000
G1 E2.00000 F2400.00000
G1 F1800.000
G1 X89.075 Y88.021 E2.01351
G1 X89.571 Y87.616 E2.03331
G1 X89.924 Y87.358 E2.04685
G1 X90.485 Y86.990 E2.06761
G1 X91.279 Y86.558 E2.09558
G1 X92.125 Y86.176 E2.12431
G1 X92.750 Y85.948 E2.14487
G1 X93.585 Y85.711 E2.17175
G1 X94.186 Y85.587 E2.19073
G1 X94.707 Y85.507 E2.20703
G1 X95.259 Y85.454 E2.22418
G1 X96.000 Y85.425 E2.24714
G1 X104.000 Y85.425 E2.49467
G1 X104.741 Y85.454 E2.51762
G1 X105.293 Y85.507 E2.53477
G1 X106.259 Y85.675 E2.56512
G1 X107.250 Y85.948 E2.59693
G1 X107.738 Y86.122 E2.61296
G1 X108.185 Y86.307 E2.62792
G1 X108.721 Y86.558 E2.64623
G1 X109.327 Y86.880 E2.66746
G1 X110.076 Y87.357 E2.69495
G1 X110.429 Y87.616 E2.70849
G1 X110.925 Y88.021 E2.72829
G1 X111.249 Y88.314 E2.74180
G1 X111.687 Y88.752 E2.76096
G1 X111.980 Y89.076 E2.77447
G1 X112.384 Y89.571 E2.79428
G1 X112.643 Y89.924 E2.80782
G1 X113.010 Y90.486 E2.82857
G1 X113.442 Y91.280 E2.85654
G1 X113.825 Y92.126 E2.88527
G1 X114.053 Y92.750 E2.90583
G1 X114.290 Y93.586 E2.93271
G1 X114.414 Y94.187 E2.95169
G1 X114.494 Y94.707 E2.96800
G1 X114.546 Y95.259 E2.98515
G1 X114.576 Y96.000 E3.00810
G1 X114.576 Y104.001 E3.25563
G1 X114.546 Y104.742 E3.27859
G1 X114.494 Y105.294 E3.29574
G1 X114.326 Y106.260 E3.32608
G1 X114.053 Y107.251 E3.35789
G1 X113.879 Y107.739 E3.37392
G1 X113.693 Y108.186 E3.38889
G1 X113.442 Y108.721 E3.40719
G1 X113.120 Y109.327 E3.42842
G1 X112.643 Y110.077 E3.45591
G1 X112.384 Y110.430 E3.46945
G1 X111.980 Y110.925 E3.48925
G1 X111.687 Y111.249 E3.50276
G1 X111.249 Y111.687 E3.52193
G1 X110.925 Y111.980 E3.53544
G1 X110.429 Y112.385 E3.55524
G1 X110.076 Y112.643 E3.56878
G1 X109.515 Y113.011 E3.58953
G1 X108.717 Y113.444 E3.61763
G1 X107.870 Y113.827 E3.64637
G1 X107.251 Y114.053 E3.66679
G1 X106.415 Y114.289 E3.69367
G1 X105.810 Y114.414 E3.71276
G1 X105.293 Y114.493 E3.72895
G1 X104.740 Y114.546 E3.74615
G1 X104.000 Y114.575 E3.76906
G1 X96.000 Y114.575 E4.01659
G1 X95.260 Y114.546 E4.03950
G1 X94.707 Y114.493 E4.05669
G1 X93.741 Y114.326 E4.08704
G1 X92.749 Y114.053 E4.11885
G1 X91.815 Y113.694 E4.14983
G1 X91.283 Y113.444 E4.16800
G1 X90.673 Y113.121 E4.18936
G1 X89.924 Y112.643 E4.21685
G1 X89.571 Y112.385 E4.23039
G1 X89.075 Y111.980 E4.25019
G1 X88.751 Y111.687 E4.26370
G1 X88.313 Y111.249 E4.28287
G1 X88.020 Y110.925 E4.29638
G1 X87.616 Y110.430 E4.31618
G1 X87.357 Y110.077 E4.32972
G1 X86.990 Y109.515 E4.35047
G1 X86.556 Y108.718 E4.37856
G1 X86.174 Y107.871 E4.40731
G1 X85.948 Y107.251 E4.42773
G1 X85.711 Y106.415 E4.45461
G1 X85.586 Y105.811 E4.47370
G1 X85.507 Y105.294 E4.48989
G1 X85.454 Y104.740 E4.50709
G1 X85.425 Y104.001 E4.53000
G1 X85.425 Y96.001 E4.77753
G1 X85.454 Y95.261 E4.80043
G1 X85.507 Y94.707 E4.81763
G1 X85.675 Y93.741 E4.84798
G1 X85.948 Y92.750 E4.87979
G1 X86.307 Y91.815 E4.91077
G1 X86.556 Y91.283 E4.92895
G1 X86.880 Y90.674 E4.95030
G1 X87.357 Y89.924 E4.97779
G1 X87.616 Y89.571 E4.99133
G1 X88.020 Y89.076 E5.01113
G1 X88.698 Y88.367 E5.04147
G1 E3.04147 F2400.00000
G92 E0
G1 X103.933 Y102.000 F7800.000
G1 E2.00000 F2400.00000
G1 F1800.000
G1 X104.676 Y102.744 E2.03254
G1 X105.012 Y104.000 E2.07278
G1 X104.676 Y105.257 E2.11302
G1 X103.756 Y106.177 E2.15327
G1 X102.500 Y106.513 E2.19351
G1 X101.244 Y106.177 E2.23375
G1 X100.324 Y105.257 E2.27400
G1 X100.144 Y104.584 E2.29554
G1 X99.856 Y104.584 E2.30445
G1 X99.676 Y105.257 E2.32599
G1 X98.756 Y106.177 E2.36624
G1 X97.500 Y106.513 E2.40648
G1 X96.244 Y106.177 E2.44672
G1 X95.324 Y105.257 E2.48697
G1 X94.988 Y104.000 E2.52721
G1 X95.324 Y102.744 E2.56745
G1 X96.067 Y102.000 E2.59999
G1 X95.324 Y101.257 E2.63253
G1 X94.988 Y100.000 E2.67277
G1 X95.324 Y98.744 E2.71301
G1 X96.067 Y98.000 E2.74554
G1 X95.324 Y97.257 E2.77808
G1 X94.988 Y96.000 E2.81832
G1 X95.324 Y94.744 E2.85856
G1 X96.244 Y93.824 E2.89881
G1 X97.500 Y93.488 E2.93905
G1 X98.756 Y93.824 E2.97929
G1 X99.676 Y94.744 E3.01954
G1 X99.856 Y95.417 E3.04109
G1 X100.144 Y95.417 E3.04999
G1 X100.324 Y94.744 E3.07153
G1 X101.244 Y93.824 E3.11179
G1 X102.500 Y93.488 E3.15202
G1 X103.756 Y93.824 E3.19226
G1 X104.676 Y94.744 E3.23252
G1 X105.012 Y96.000 E3.27276
G1 X104.676 Y97.257 E3.31300
G1 X103.933 Y98.000 E3.34553
G1 X104.676 Y98.744 E3.37807
G1 X105.012 Y100.000 E3.41831
G1 X104.676 Y101.257 E3.45855
G1 X103.986 Y101.947 E3.48877
G1 E1.48877 F2400.00000
G92 E0
G1 X97.535 Y101.857 F7800.000
G1 E2.00000 F2400.00000
G1 F1800.000
G1 X97.535 Y102.144 E2.00891
G1 X98.433 Y102.385 E2.03769
G1 X99.116 Y103.067 E2.06756
G1 X99.365 Y104.000 E2.09745
G1 X99.116 Y104.934 E2.12733
G1 X98.433 Y105.616 E2.15721
G1 X97.500 Y105.866 E2.18709
G1 X96.567 Y105.616 E2.21698
G1 X95.884 Y104.934 E2.24686
G1 X95.635 Y104.000 E2.27674
G1 X95.884 Y103.067 E2.30663
G1 X96.567 Y102.385 E2.33650
G1 X97.465 Y102.144 E2.36528
G1 X97.465 Y101.857 E2.37419
G1 X96.567 Y101.616 E2.40297
G1 X95.884 Y100.934 E2.43285
G1 X95.635 Y100.000 E2.46273
G1 X95.884 Y99.067 E2.49262
G1 X96.567 Y98.385 E2.52249
G1 X97.465 Y98.144 E2.55127
G1 X97.465 Y97.857 E2.56018
G1 X96.567 Y97.616 E2.58896
G1 X95.884 Y96.934 E2.61884
G1 X95.635 Y96.000 E2.64872
G1 X95.884 Y95.067 E2.67861
G1 X96.567 Y94.385 E2.70848
G1 X97.500 Y94.135 E2.73837
G1 X98.433 Y94.385 E2.76825
G1 X99.116 Y95.067 E2.79813
G1 X99.365 Y96.000 E2.82801
G1 X99.116 Y96.934 E2.85790
G1 X98.433 Y97.616 E2.88778
G1 X97.535 Y97.857 E2.91655
G1 X97.535 Y98.144 E2.92546
G1 X98.433 Y98.385 E2.95424
G1 X99.116 Y99.067 E2.98412
G1 X99.365 Y100.000 E3.01400
G1 X99.116 Y100.934 E3.04389
G1 X98.433 Y101.616 E3.07377
G1 X97.607 Y101.837 E3.10022
G1 X97.720 Y102.077 F7800.000
G1 E1.10022 F2400.00000
G92 E0
G1 X102.465 Y102.144 F7800.000
G1 E2.00000 F2400.00000
G1 F1800.000
G1 X102.465 Y101.857 E2.00891
G1 X101.567 Y101.616 E2.03769
G1 X100.884 Y100.934 E2.06756
G1 X100.635 Y100.000 E2.09745
G1 X100.884 Y99.067 E2.12733
G1 X101.567 Y98.385 E2.15721
G1 X102.465 Y98.144 E2.18599
G1 X102.465 Y97.857 E2.19490
G1 X101.567 Y97.616 E2.22368
G1 X100.884 Y96.934 E2.25355
G1 X100.635 Y96.000 E2.28344
G1 X100.884 Y95.067 E2.31332
G1 X101.567 Y94.385 E2.34320
G1 X102.500 Y94.135 E2.37308
G1 X103.433 Y94.385 E2.40297
G1 X104.116 Y95.067 E2.43285
G1 X104.365 Y96.000 E2.46273
G1 X104.116 Y96.934 E2.49262
G1 X103.433 Y97.616 E2.52249
G1 X102.535 Y97.857 E2.55127
G1 X102.535 Y98.144 E2.56018
G1 X103.433 Y98.385 E2.58896
G1 X104.116 Y99.067 E2.61884
G1 X104.365 Y100.000 E2.64872
G1 X104.116 Y100.934 E2.67861
G1 X103.433 Y101.616 E2.70848
G1 X102.535 Y101.857 E2.73726
G1 X102.535 Y102.144 E2.74617
G1 X103.433 Y102.385 E2.77495
G1 X104.116 Y103.067 E2.80483
G1 X104.365 Y104.000 E2.83471
G1 X104.116 Y104.934 E2.86459
G1 X103.433 Y105.616 E2.89447
G1 X102.500 Y105.866 E2.92436
G1 X101.567 Y105.616 E2.95424
G1 X100.884 Y104.934 E2.98412
G1 X100.635 Y104.000 E3.01400
G1 X100.884 Y103.067 E3.04389
G1 X101.567 Y102.385 E3.07377
G1 X102.393 Y102.164 E3.10022
G1 X102.280 Y101.924 F7800.000
G1 E1.10022 F2400.00000
G92 E0
G1 X100.000 Y94.184 F7800.000
G1 E2.00000 F2400.00000
G1 F1800.000
G1 X99.494 Y93.678 E2.02213
G1 X100.506 Y93.678 E2.05343
G1 X100.053 Y94.131 E2.07324
G1 E0.07324 F2400.00000
G92 E0
G1 X94.796 Y94.299 F7800.000
G1 E2.00000 F2400.00000
G1 F1800.000
G1 X94.341 Y96.000 E2.05450
G1 X94.763 Y97.580 E2.10510
G1 X95.184 Y98.000 E2.12349
G1 X94.763 Y98.421 E2.14188
G1 X94.341 Y100.000 E2.19247
G1 X94.763 Y101.580 E2.24307
G1 X95.184 Y102.000 E2.26146
G1 X94.763 Y102.421 E2.27985
G1 X94.341 Y104.000 E2.33044
G1 X94.796 Y105.702 E2.38494
G1 X94.557 Y105.848 E2.39361
G1 X94.344 Y105.656 E2.40247
G1 X94.065 Y105.317 E2.41607
G1 X93.890 Y104.991 E2.42751
G1 X93.790 Y104.759 E2.43532
G1 X93.721 Y104.535 E2.44259
G1 X93.662 Y104.206 E2.45291
G1 X93.652 Y104.010 E2.45901
G1 X93.678 Y103.604 E2.47157
G1 X93.678 Y96.397 E2.69459
G1 X93.652 Y95.991 E2.70715
G1 X93.662 Y95.795 E2.71325
G1 X93.721 Y95.466 E2.72357
G1 X93.790 Y95.242 E2.73084
G1 X93.890 Y95.010 E2.73865
G1 X94.065 Y94.684 E2.75009
G1 X94.344 Y94.345 E2.76369
G1 X94.557 Y94.153 E2.77255
G1 X94.732 Y94.260 E2.77890
G1 E0.77890 F2400.00000
G92 E0
G1 X105.206 Y94.308 F7800.000
G1 E2.00000 F2400.00000
G1 F1800.000
G1 X105.452 Y94.163 E2.00881
G1 X105.757 Y94.457 E2.02192
G1 X105.937 Y94.688 E2.03098
G1 X106.090 Y94.968 E2.04087
G1 X106.253 Y95.365 E2.05414
G1 X106.337 Y95.777 E2.06715
G1 X106.348 Y95.979 E2.07341
G1 X106.308 Y96.481 E2.08900
G1 X106.308 Y103.573 E2.30844
G1 X106.346 Y104.045 E2.32309
G1 X106.326 Y104.303 E2.33107
G1 X106.260 Y104.611 E2.34083
G1 X106.100 Y105.010 E2.35412
G1 X105.935 Y105.316 E2.36490
G1 X105.656 Y105.656 E2.37851
G1 X105.443 Y105.848 E2.38737
G1 X105.204 Y105.702 E2.39604
G1 X105.659 Y104.000 E2.45054
G1 X105.237 Y102.421 E2.50114
G1 X104.816 Y102.000 E2.51953
G1 X105.237 Y101.580 E2.53792
G1 X105.659 Y100.000 E2.58851
G1 X105.237 Y98.421 E2.63911
G1 X104.816 Y98.000 E2.65750
G1 X105.237 Y97.580 E2.67589
G1 X105.659 Y96.000 E2.72648
G1 X105.226 Y94.380 E2.77838
G1 E0.77838 F2400.00000
G92 E0
G1 X100.000 Y105.817 F7800.000
G1 E2.00000 F2400.00000
G1 F1800.000
G1 X100.492 Y106.309 E2.02152
G1 X99.508 Y106.309 E2.05195
G1 X99.947 Y105.870 E2.07115
G1 X100.000 Y106.934 F7800.000
G1 F1800.000
G1 X96.501 Y106.934 E2.17941
G1 X95.987 Y106.974 E2.19536
G1 X95.723 Y106.960 E2.20355
G1 X95.318 Y106.888 E2.21627
G1 X95.025 Y106.798 E2.22577
G1 X94.737 Y106.673 E2.23547
G1 X94.349 Y106.465 E2.24909
G1 X94.124 Y106.299 E2.25774
G1 X93.902 Y106.099 E2.26700
G1 X93.701 Y105.877 E2.27626
G1 X93.536 Y105.651 E2.28491
G1 X93.327 Y105.264 E2.29853
G1 X93.203 Y104.976 E2.30823
G1 X93.112 Y104.682 E2.31774
G1 X93.040 Y104.278 E2.33046
G1 X93.026 Y104.006 E2.33887
G1 X93.053 Y103.585 E2.35192
G1 X93.053 Y96.416 E2.57373
G1 X93.026 Y95.995 E2.58679
G1 X93.040 Y95.723 E2.59520
G1 X93.112 Y95.319 E2.60792
G1 X93.203 Y95.025 E2.61743
G1 X93.327 Y94.737 E2.62713
G1 X93.536 Y94.350 E2.64074
G1 X93.701 Y94.124 E2.64940
G1 X93.902 Y93.902 E2.65866
G1 X94.124 Y93.702 E2.66792
G1 X94.350 Y93.536 E2.67658
G1 X94.737 Y93.327 E2.69020
G1 X95.025 Y93.203 E2.69990
G1 X95.323 Y93.111 E2.70955
G1 X95.635 Y93.052 E2.71937
G1 X96.003 Y93.027 E2.73078
G1 X96.420 Y93.053 E2.74372
G1 X104.287 Y93.041 E2.98713
G1 X104.546 Y93.081 E2.99524
G1 X104.970 Y93.203 E3.00889
G1 X105.531 Y93.465 E3.02806
G1 X105.864 Y93.693 E3.04056
G1 X106.207 Y94.022 E3.05523
G1 X106.466 Y94.352 E3.06822
G1 X106.758 Y94.923 E3.08807
G1 X106.851 Y95.181 E3.09654
G1 X106.917 Y95.440 E3.10483
G1 X106.960 Y95.713 E3.11337
G1 X106.974 Y95.987 E3.12188
G1 X106.933 Y96.506 E3.13797
G1 X106.933 Y103.528 E3.35524
G1 X106.958 Y103.701 E3.36065
G1 X106.971 Y104.057 E3.37169
G1 X106.948 Y104.376 E3.38157
G1 X106.855 Y104.805 E3.39515
G1 X106.667 Y105.275 E3.41082
G1 X106.464 Y105.651 E3.42403
G1 X106.299 Y105.877 E3.43269
G1 X106.098 Y106.099 E3.44195
G1 X105.876 Y106.299 E3.45121
G1 X105.651 Y106.465 E3.45986
G1 X105.263 Y106.673 E3.47348
G1 X104.975 Y106.798 E3.48318
G1 X104.682 Y106.888 E3.49269
G1 X104.277 Y106.960 E3.50541
G1 X104.013 Y106.974 E3.51359
G1 X103.499 Y106.934 E3.52955
G1 X100.075 Y106.934 E3.63548
G1 E1.63548 F2400.00000
G92 E0
G1 X99.856 Y99.417 F7800.000
G1 E2.00000 F2400.00000
G1 F1800.000
G1 X99.676 Y98.744 E2.02154
G1 X98.933 Y98.000 E2.05408
G1 X99.676 Y97.257 E2.08662
G1 X99.856 Y96.584 E2.10816
G1 X100.144 Y96.584 E2.11706
G1 X100.324 Y97.257 E2.13861
G1 X101.067 Y98.000 E2.17114
G1 X100.324 Y98.744 E2.20368
G1 X100.144 Y99.417 E2.22522
G1 X99.931 Y99.417 E2.23181
G1 X100.144 Y100.584 F7800.000
G1 F1800.000
G1 X100.324 Y101.257 E2.25335
G1 X101.067 Y102.000 E2.28589
G1 X100.324 Y102.744 E2.31843
G1 X100.144 Y103.417 E2.33997
G1 X99.856 Y103.417 E2.34887
G1 X99.676 Y102.744 E2.37042
G1 X98.933 Y102.000 E2.40295
G1 X99.676 Y101.257 E2.43549
G1 X99.856 Y100.584 E2.45703
G1 X100.069 Y100.584 E2.46362
G1 E0.46362 F2400.00000
G92 E0
G1 X100.144 Y107.559 F7800.000
G1 E2.00000 F2400.00000
G1 F1800.000
G1 X96.526 Y107.559 E2.11195
G1 X95.995 Y107.600 E2.12841
G1 X95.652 Y107.582 E2.13905
G1 X95.171 Y107.497 E2.15417
G1 X94.808 Y107.385 E2.16591
G1 X94.464 Y107.236 E2.17750
G1 X94.015 Y106.994 E2.19330
G1 X93.728 Y106.784 E2.20429
G1 X93.460 Y106.541 E2.21551
G1 X93.216 Y106.272 E2.22673
G1 X93.006 Y105.986 E2.23772
G1 X92.764 Y105.536 E2.25352
G1 X92.616 Y105.192 E2.26511
G1 X92.504 Y104.830 E2.27685
G1 X92.418 Y104.349 E2.29196
G1 X92.401 Y104.002 E2.30268
G1 X92.428 Y103.565 E2.31624
G1 X92.428 Y96.436 E2.53684
G1 X92.401 Y95.999 E2.55039
G1 X92.418 Y95.652 E2.56111
G1 X92.504 Y95.171 E2.57623
G1 X92.616 Y94.809 E2.58797
G1 X92.764 Y94.465 E2.59956
G1 X93.006 Y94.015 E2.61536
G1 X93.216 Y93.729 E2.62635
G1 X93.460 Y93.460 E2.63757
G1 X93.728 Y93.217 E2.64879
G1 X94.015 Y93.007 E2.65978
G1 X94.465 Y92.764 E2.67559
G1 X94.808 Y92.616 E2.68718
G1 X95.173 Y92.503 E2.69897
G1 X95.555 Y92.431 E2.71102
G1 X96.001 Y92.400 E2.72484
G1 X96.440 Y92.428 E2.73846
G1 X103.557 Y92.428 E2.95866
G1 X104.074 Y92.404 E2.97469
G1 X104.352 Y92.418 E2.98328
G1 X104.681 Y92.469 E2.99359
G1 X105.190 Y92.616 E3.00997
G1 X105.822 Y92.910 E3.03155
G1 X105.980 Y93.003 E3.03723
G1 X106.267 Y93.214 E3.04825
G1 X106.656 Y93.587 E3.06491
G1 X106.994 Y94.016 E3.08182
G1 X107.207 Y94.406 E3.09556
G1 X107.336 Y94.685 E3.10507
G1 X107.449 Y94.996 E3.11533
G1 X107.530 Y95.314 E3.12549
G1 X107.582 Y95.649 E3.13595
G1 X107.600 Y95.996 E3.14671
G1 X107.558 Y96.530 E3.16329
G1 X107.558 Y103.482 E3.37841
G1 X107.582 Y103.644 E3.38347
G1 X107.597 Y104.069 E3.39662
G1 X107.569 Y104.449 E3.40840
G1 X107.450 Y104.999 E3.42582
G1 X107.234 Y105.540 E3.44385
G1 X106.994 Y105.986 E3.45950
G1 X106.784 Y106.272 E3.47050
G1 X106.540 Y106.541 E3.48172
G1 X106.272 Y106.784 E3.49294
G1 X105.985 Y106.994 E3.50392
G1 X105.536 Y107.236 E3.51973
G1 X105.192 Y107.385 E3.53131
G1 X104.829 Y107.497 E3.54306
G1 X104.348 Y107.582 E3.55817
G1 X104.005 Y107.600 E3.56881
G1 X103.474 Y107.559 E3.58527
G1 X100.219 Y107.559 E3.68600
G1 X99.895 Y107.125 F7800.000
G1 Z0.550 F7800.000
G1 E1.68600 F2400.00000
G92 E0
G1 X100.151 Y104.156 F7800.000
G1 E2.00000 F2400.00000
G1 F3600.000
G1 X99.849 Y104.156 E2.00563
G1 X99.571 Y105.196 E2.02564
G1 X98.695 Y106.071 E2.04865
G1 X97.500 Y106.391 E2.07166
G1 X96.305 Y106.071 E2.09467
G1 X95.429 Y105.196 E2.11768
G1 X95.110 Y104.000 E2.14068
G1 X95.429 Y102.805 E2.16369
G1 X96.234 Y102.000 E2.18484
G1 X95.429 Y101.196 E2.20599
G1 X95.110 Y100.000 E2.22900
G1 X95.429 Y98.805 E2.25201
G1 X96.234 Y98.000 E2.27316
G1 X95.429 Y97.196 E2.29431
G1 X95.110 Y96.000 E2.31732
G1 X95.429 Y94.805 E2.34032
G1 X96.305 Y93.930 E2.36333
G1 X97.500 Y93.610 E2.38634
G1 X98.695 Y93.930 E2.40935
G1 X99.571 Y94.805 E2.43236
G1 X99.849 Y95.845 E2.45237
G1 X100.151 Y95.845 E2.45800
G1 X100.429 Y94.805 E2.47802
G1 X101.305 Y93.930 E2.50103
G1 X102.500 Y93.610 E2.52403
G1 X103.695 Y93.930 E2.54704
G1 X104.571 Y94.805 E2.57005
G1 X104.890 Y96.000 E2.59305
G1 X104.571 Y97.196 E2.61606
G1 X103.766 Y98.000 E2.63721
G1 X104.571 Y98.805 E2.65837
G1 X104.890 Y100.000 E2.68137
G1 X104.571 Y101.196 E2.70438
G1 X103.766 Y102.000 E2.72553
G1 X104.571 Y102.805 E2.74668
G1 X104.890 Y104.000 E2.76969
G1 X104.571 Y105.196 E2.79270
G1 X103.695 Y106.071 E2.81571
G1 X102.500 Y106.391 E2.83871
G1 X101.305 Y106.071 E2.86172
G1 X100.429 Y105.196 E2.88473
G1 X100.171 Y104.228 E2.90335
G1 X100.714 Y104.006 F7800.000
G1 F900.000
G1 X100.951 Y103.106 E2.91670
