; generated by PrusaSlicer 2.6.1+win64 on 2024-04-25 at 13:11:39 UTC

; 

; external perimeters extrusion width = 0.45mm
; perimeters extrusion width = 0.45mm
; infill extrusion width = 0.45mm
; solid infill extrusion width = 0.45mm
; top infill extrusion width = 0.42mm
; first layer extrusion width = 0.50mm

M73 P0 R13
M201 X4000 Y4000 Z200 E2500 ; sets maximum accelerations, mm/sec^2
M203 X300 Y300 Z40 E100 ; sets maximum feedrates, mm / sec
M204 P4000 R1200 T4000 ; sets acceleration (P, T) and retract acceleration (R), mm/sec^2
M205 X8.00 Y8.00 Z2.00 E10.00 ; sets the jerk limits, mm/sec
M205 S0 T0 ; sets the minimum extruding and travel feed rate, mm/sec
;TYPE:Custom
M17 ; enable steppers
M862.1 P0.4 ; nozzle diameter check
M862.3 P "MK4" ; printer model check
M862.5 P2 ; g-code level check
M862.6 P"Input shaper" ; FW feature check
M115 U5.1.2+13478

M555 X92.125 Y88.1251 W32 H19.7504

G90 ; use absolute coordinates
M83 ; extruder relative mode

M140 S85 ; set bed temp
M104 T0 S175 ; set extruder temp for bed leveling
M109 T0 R175 ; wait for temp

M84 E ; turn off E motor

G28 ; home all without mesh bed level

G1 X42 Y-4 Z5 F4800

M302 S160 ; lower cold extrusion limit to 160C


G1 E-2 F2400 ; retraction


M84 E ; turn off E motor

G29 P9 X10 Y-4 W32 H4



G0 Z40 F10000

M190 S85 ; wait for bed temp

M107

;
; MBL
;
M84 E ; turn off E motor
G29 P1 ; invalidate mbl & probe print area
G29 P1 X0 Y0 W50 H20 C ; probe near purge place
G29 P3.2 ; interpolate mbl probes
G29 P3.13 ; extrapolate mbl outside probe area
G29 A ; activate mbl

; prepare for purge
M104 S240
G0 X0 Y-4 Z15 F4800 ; move away and ready for the purge
M109 S240

G92 E0
M569 S0 E ; set spreadcycle mode for extruder

;
; Extrude purge line
;
G92 E0 ; reset extruder position
G1 E2 F2400 ; deretraction after the initial one before nozzle cleaning
G0 E7 X15 Z0.2 F500 ; purge
G0 X25 E4 F500 ; purge
G0 X35 E4 F650 ; purge
G0 X45 E4 F800 ; purge
G0 X48 Z0.05 F8000 ; wipe, move close to the bed
G0 X51 Z0.2 F8000 ; wipe, move quickly away from the bed

G92 E0
M221 S100 ; set flow to 100%
G21 ; set units to millimeters
G90 ; use absolute coordinates
M83 ; use relative distances for extrusion
M900 K0.07 ; Filament gcode


M572 S0.055 ; Filament gcode


M142 S36 ; set heatbreak target temp
M107
;LAYER_CHANGE
;Z:0.2
;HEIGHT:0.2
;BEFORE_LAYER_CHANGE
G92 E0.0
;0.2
M201 X4000 Y4000
M74 W0

G1 E-.8 F2100
G1 Z.2 F720
;AFTER_LAYER_CHANGE
;0.2
; printing object Object Group 5 id:0 copy 0
G1 Z.4
M204 T4000
G1 X100 Y100.068 F18000
G1 Z.2 F720
G1 E.8 F2100
M204 P500
;TYPE:Perimeter
;WIDTH:0.670152
G1 F2400
M73 P1 R13
G1 X100.026 Y100.13 E.00351
;WIDTH:0.640623
G1 X100.052 Y100.193 E.00339
;WIDTH:0.611093
G1 X100.179 Y100.545 E.01768
;WIDTH:0.574062
G1 X100.305 Y100.898 E.01655
;WIDTH:0.537031
G1 X100.432 Y101.251 E.01541
;WIDTH:0.499999
G1 X100.56 Y101.393 E.00727
G1 X101.228 Y102.001 E.03433
G1 X100.432 Y102.75 E.04154
G1 X100.338 Y102.957 E.00864
;WIDTH:0.542539
G1 X100.254 Y103.201 E.01072
;WIDTH:0.585078
G1 X100.169 Y103.445 E.01165
;WIDTH:0.627617
G1 X100.085 Y103.689 E.01255
;WIDTH:0.670156
G1 X100 Y103.933 E.01348
G1 X99.974 Y103.871 E.00351
;WIDTH:0.640626
G1 X99.948 Y103.808 E.00339
;WIDTH:0.611096
G1 X99.821 Y103.456 E.01768
;WIDTH:0.574064
G1 X99.695 Y103.103 E.01655
;WIDTH:0.537032
G1 X99.568 Y102.75 E.01541
;WIDTH:0.499999
G1 X99.44 Y102.608 E.00727
G1 X98.773 Y102.001 E.03428
G1 X99.568 Y101.251 E.04154
G1 X99.662 Y101.044 E.00864
;WIDTH:0.542538
G1 X99.746 Y100.8 E.01072
;WIDTH:0.585076
G1 X99.831 Y100.556 E.01165
;WIDTH:0.627614
G1 X99.915 Y100.312 E.01255
;WIDTH:0.670152
G1 X99.98 Y100.124 E.01037
M204 P4000
G1 E-.16 F2100
;WIPE_START
G1 F14400
G1 X100.026 Y100.13 E-.00643
G1 X100.052 Y100.193 E-.00944
G1 X100.179 Y100.545 E-.05184
G1 X100.305 Y100.898 E-.05193
G1 X100.432 Y101.251 E-.05197
G1 X100.56 Y101.393 E-.02649
G1 X101.228 Y102.001 E-.12514
G1 X100.432 Y102.75 E-.15142
G1 X100.338 Y102.957 E-.0315
G1 X100.254 Y103.201 E-.03575
G1 X100.169 Y103.445 E-.0358
G1 X100.085 Y103.689 E-.03575
G1 X100.022 Y103.87 E-.02654
;WIPE_END
G1 Z.4 F720
G1 X101.228 Y98.001 F18000
G1 Z.2 F720
G1 E.8 F2100
M204 P500
;WIDTH:0.499999
G1 F2400
G1 X100.432 Y98.75 E.04154
G1 X100.338 Y98.957 E.00864
;WIDTH:0.542538
G1 X100.254 Y99.201 E.01072
;WIDTH:0.585076
G1 X100.169 Y99.445 E.01165
;WIDTH:0.627614
G1 X100.085 Y99.689 E.01255
;WIDTH:0.670152
G1 X100 Y99.933 E.01348
G1 X99.974 Y99.871 E.00351
;WIDTH:0.640623
G1 X99.948 Y99.808 E.00339
;WIDTH:0.611093
G1 X99.821 Y99.456 E.01768
;WIDTH:0.574062
G1 X99.695 Y99.103 E.01655
;WIDTH:0.537031
G1 X99.568 Y98.75 E.01541
;WIDTH:0.499999
G1 X99.44 Y98.608 E.00727
G1 X98.773 Y98.001 E.03428
G1 X99.568 Y97.251 E.04154
G1 X99.662 Y97.044 E.00864
;WIDTH:0.542539
G1 X99.746 Y96.8 E.01072
;WIDTH:0.585078
G1 X99.831 Y96.556 E.01165
;WIDTH:0.627617
G1 X99.915 Y96.312 E.01255
;WIDTH:0.670156
G1 X100 Y96.068 E.01348
G1 X100.026 Y96.13 E.00351
;WIDTH:0.640626
G1 X100.052 Y96.193 E.00339
;WIDTH:0.611095
G1 X100.179 Y96.545 E.01768
;WIDTH:0.574063
G1 X100.305 Y96.898 E.01655
;WIDTH:0.537031
G1 X100.432 Y97.251 E.01541
;WIDTH:0.499999
G1 X100.56 Y97.394 E.00729
G1 X101.184 Y97.961 E.03204
M204 P4000
G1 E-.16 F2100
;WIPE_START
G1 F14400
G1 X100.432 Y98.75 E-.15101
G1 X100.338 Y98.957 E-.0315
G1 X100.254 Y99.201 E-.03575
G1 X100.169 Y99.445 E-.0358
G1 X100.085 Y99.689 E-.03575
G1 X100 Y99.933 E-.0358
G1 X99.974 Y99.871 E-.00931
G1 X99.948 Y99.808 E-.00944
G1 X99.821 Y99.456 E-.05184
G1 X99.695 Y99.103 E-.05193
G1 X99.568 Y98.75 E-.05197
G1 X99.44 Y98.608 E-.02649
G1 X98.835 Y98.057 E-.11341
;WIPE_END
G1 Z.4 F720
G1 X96.228 Y98.001 F18000
G1 Z.2 F720
G1 E.8 F2100
M204 P500
G1 F2400
G1 X95.536 Y97.372 E.03554
G1 X95.437 Y97.257 E.00577
G1 X95.338 Y97.044 E.00893
G1 X95.106 Y96.178 E.03407
G1 X95.093 Y95.878 E.01141
G1 X95.105 Y95.823 E.00214
G1 X95.337 Y94.956 E.03411
G1 X95.515 Y94.649 E.01349
G1 X96.152 Y94.012 E.03424
G1 X96.529 Y93.818 E.01611
;WIDTH:0.5313
G1 X97.319 Y93.591 E.03338
;WIDTH:0.548823
G1 X97.683 Y93.582 E.01532
G1 X98.544 Y93.838 E.03779
;WIDTH:0.499999
G1 X98.851 Y94.015 E.01347
G1 X99.485 Y94.649 E.03408
G1 X99.663 Y94.957 E.01352
;WIDTH:0.537144
G1 X99.758 Y95.241 E.01231
;WIDTH:0.574289
G1 X99.853 Y95.525 E.01323
;WIDTH:0.611434
G1 X99.948 Y95.809 E.01416
;WIDTH:0.640795
G1 X99.974 Y95.871 E.00334
;WIDTH:0.670156
G1 X100 Y95.933 E.00351
G1 X100.084 Y95.689 E.01346
;WIDTH:0.627617
G1 X100.169 Y95.445 E.01256
;WIDTH:0.585078
G1 X100.253 Y95.201 E.01163
;WIDTH:0.542539
G1 X100.337 Y94.957 E.01072
;WIDTH:0.499999
G1 X100.515 Y94.649 E.01352
G1 X101.149 Y94.015 E.03408
G1 X101.456 Y93.838 E.01347
;WIDTH:0.5313
G1 X102.319 Y93.591 E.03645
;WIDTH:0.548823
G1 X102.683 Y93.582 E.01532
G1 X103.471 Y93.818 E.0346
;WIDTH:0.499999
G1 X103.729 Y93.918 E.01052
G1 X104.26 Y94.423 E.02785
G1 X104.593 Y94.789 E.01881
G1 X104.779 Y95.39 E.02391
G1 X104.914 Y95.928 E.02108
G1 X104.873 Y96.26 E.01271
G1 X104.662 Y97.044 E.03086
G1 X104.523 Y97.31 E.01141
G1 X103.773 Y98.001 E.03876
G1 X104.465 Y98.63 E.03554
G1 X104.562 Y98.742 E.00563
G1 X104.662 Y98.957 E.00901
G1 X104.894 Y99.823 E.03407
G1 X104.908 Y100.119 E.01126
G1 X104.662 Y101.044 E.03638
G1 X104.523 Y101.31 E.01141
G1 X103.773 Y102.001 E.03876
G1 X104.465 Y102.63 E.03554
G1 X104.562 Y102.742 E.00563
G1 X104.662 Y102.957 E.00901
G1 X104.894 Y103.823 E.03407
G1 X104.904 Y104.136 E.0119
G1 X104.636 Y105.125 E.03894
G1 X104.485 Y105.352 E.01036
G1 X103.851 Y105.986 E.03408
G1 X103.544 Y106.163 E.01347
;WIDTH:0.525786
G1 X102.68 Y106.408 E.03606
;WIDTH:0.541701
G1 X102.318 Y106.415 E.01502
G1 X101.456 Y106.163 E.03725
;WIDTH:0.499999
G1 X101.149 Y105.986 E.01347
G1 X100.515 Y105.352 E.03408
G1 X100.337 Y105.044 E.01352
;WIDTH:0.537144
G1 X100.242 Y104.76 E.01231
;WIDTH:0.574289
G1 X100.147 Y104.476 E.01323
;WIDTH:0.611434
G1 X100.052 Y104.192 E.01416
;WIDTH:0.640795
G1 X100.026 Y104.13 E.00334
;WIDTH:0.670156
G1 X100 Y104.068 E.00351
G1 X99.916 Y104.312 E.01346
;WIDTH:0.627617
G1 X99.831 Y104.556 E.01256
;WIDTH:0.585078
G1 X99.747 Y104.8 E.01163
;WIDTH:0.542539
G1 X99.663 Y105.044 E.01072
;WIDTH:0.499999
G1 X99.485 Y105.352 E.01352
G1 X98.851 Y105.986 E.03408
G1 X98.544 Y106.163 E.01347
;WIDTH:0.525785
G1 X97.68 Y106.408 E.03606
;WIDTH:0.541701
G1 X97.318 Y106.415 E.01502
G1 X96.621 Y106.208 E.03016
;WIDTH:0.499999
G1 X96.267 Y106.08 E.01431
G1 X95.755 Y105.592 E.02688
G1 X95.457 Y105.286 E.01623
G1 X95.337 Y105.044 E.01027
G1 X95.105 Y104.178 E.03407
G1 X95.094 Y103.874 E.01156
G1 X95.338 Y102.957 E.03606
G1 X95.477 Y102.691 E.01141
G1 X96.228 Y102.001 E.03876
G1 X95.536 Y101.372 E.03554
G1 X95.437 Y101.257 E.00577
G1 X95.338 Y101.044 E.00893
G1 X95.106 Y100.178 E.03407
G1 X95.082 Y100.001 E.00679
G1 X95.338 Y98.957 E.04085
G1 X95.477 Y98.691 E.01141
G1 X96.18 Y98.037 E.03649
M204 P4000
G1 E-.16 F2100
;WIPE_START
G1 F14400
G1 X95.536 Y97.372 E-.12825
G1 X95.437 Y97.257 E-.02102
G1 X95.338 Y97.044 E-.03254
G1 X95.106 Y96.178 E-.12421
G1 X95.093 Y95.878 E-.0416
G1 X95.105 Y95.823 E-.0078
G1 X95.337 Y94.956 E-.12434
G1 X95.515 Y94.649 E-.04916
G1 X96.082 Y94.082 E-.11108
;WIPE_END
G1 Z.4 F720
G1 X98.366 Y97.698 F18000
G1 Z.2 F720
G1 E.8 F2100
M204 P500
;TYPE:External perimeter
;WIDTH:0.501048
G1 F2400
G1 X97.52 Y97.772 E.03235
G1 X96.634 Y97.698 E.03387
;WIDTH:0.499999
G1 X96.499 Y97.638 E.00561
G1 X95.845 Y97.035 E.03381
G1 X95.779 Y96.926 E.00484
G1 X95.546 Y96.057 E.03419
G1 X95.547 Y95.941 E.00441
G1 X95.779 Y95.075 E.03407
G1 X95.885 Y94.925 E.00698
G1 X96.473 Y94.337 E.0316
G1 X96.647 Y94.26 E.00723
G1 X97.441 Y94.047 E.03124
G1 X97.559 Y94.047 E.00448
G1 X98.426 Y94.279 E.03411
G1 X98.528 Y94.338 E.00448
G1 X99.162 Y94.972 E.03408
G1 X99.221 Y95.075 E.00451
G1 X99.453 Y95.941 E.03407
G1 X99.453 Y96.06 E.00452
G1 X99.221 Y96.926 E.03407
G1 X99.13 Y97.058 E.00609
G1 X98.501 Y97.638 E.03252
G1 X98.421 Y97.673 E.00332
M204 P4000
G1 X98.274 Y98.087 F18000
G1 E-.16 F2100
;WIPE_START
G1 F14400
G1 X97.52 Y97.772 E-.12558
G1 X96.634 Y97.698 E-.12318
G1 X96.499 Y97.638 E-.02047
G1 X95.845 Y97.035 E-.12324
G1 X95.779 Y96.926 E-.01765
G1 X95.546 Y96.057 E-.12465
G1 X95.547 Y95.941 E-.01607
G1 X95.714 Y95.319 E-.08916
;WIPE_END
G1 Z.4 F720
G1 X96.635 Y98.304 F18000
G1 Z.2 F720
G1 E.8 F2100
M204 P500
;WIDTH:0.501047
G1 F2400
G1 X97.48 Y98.229 E.03232
G1 X98.366 Y98.303 E.03387
;WIDTH:0.499999
G1 X98.501 Y98.363 E.00561
G1 X99.155 Y98.966 E.03381
G1 X99.221 Y99.075 E.00484
G1 X99.453 Y99.941 E.03407
G1 X99.453 Y100.06 E.00452
G1 X99.221 Y100.926 E.03407
G1 X99.13 Y101.058 E.00609
G1 X98.501 Y101.638 E.03252
G1 X98.366 Y101.698 E.00561
;WIDTH:0.501048
G1 X97.52 Y101.772 E.03235
G1 X96.634 Y101.698 E.03387
;WIDTH:0.499999
G1 X96.499 Y101.638 E.00561
G1 X95.845 Y101.035 E.03381
G1 X95.779 Y100.926 E.00484
G1 X95.547 Y100.06 E.03407
G1 X95.547 Y99.941 E.00452
G1 X95.779 Y99.075 E.03407
G1 X95.845 Y98.966 E.00484
G1 X96.5 Y98.363 E.03384
G1 X96.58 Y98.328 E.00332
M204 P4000
G1 X96.726 Y97.915 F18000
G1 E-.16 F2100
;WIPE_START
G1 F14400
G1 X97.48 Y98.229 E-.12544
G1 X98.366 Y98.303 E-.12318
G1 X98.501 Y98.363 E-.02047
G1 X99.155 Y98.966 E-.12324
G1 X99.221 Y99.075 E-.01765
G1 X99.453 Y99.941 E-.12421
G1 X99.453 Y100.06 E-.01649
G1 X99.286 Y100.683 E-.08932
;WIPE_END
G1 Z.4 F720
G1 X103.366 Y97.698 F18000
G1 Z.2 F720
G1 E.8 F2100
M204 P500
;WIDTH:0.501048
G1 F2400
G1 X102.52 Y97.772 E.03235
G1 X101.634 Y97.698 E.03387
;WIDTH:0.499999
G1 X101.499 Y97.638 E.00561
G1 X100.811 Y96.995 E.03579
G1 X100.547 Y96.06 E.03693
G1 X100.547 Y95.941 E.00452
G1 X100.779 Y95.075 E.03407
G1 X100.939 Y94.871 E.00985
G1 X101.472 Y94.338 E.02865
G1 X101.574 Y94.279 E.00448
G1 X102.441 Y94.047 E.03411
G1 X102.559 Y94.047 E.00448
G1 X103.426 Y94.279 E.03411
G1 X103.668 Y94.478 E.01191
G1 X104.163 Y94.974 E.02663
G1 X104.221 Y95.075 E.00443
G1 X104.453 Y95.941 E.03407
G1 X104.431 Y96.141 E.00765
G1 X104.221 Y96.926 E.03088
G1 X104.155 Y97.035 E.00484
G1 X103.501 Y97.638 E.03381
G1 X103.421 Y97.673 E.00332
M204 P4000
G1 X103.274 Y98.087 F18000
G1 E-.16 F2100
;WIPE_START
G1 F14400
G1 X102.52 Y97.772 E-.12558
G1 X101.634 Y97.698 E-.12318
G1 X101.499 Y97.638 E-.02047
G1 X100.811 Y96.995 E-.13046
G1 X100.547 Y96.06 E-.1346
G1 X100.547 Y95.941 E-.01649
G1 X100.714 Y95.319 E-.08922
;WIPE_END
G1 Z.4 F720
G1 X101.635 Y98.304 F18000
G1 Z.2 F720
G1 E.8 F2100
M204 P500
;WIDTH:0.501047
G1 F2400
G1 X102.48 Y98.229 E.03232
G1 X103.366 Y98.303 E.03387
;WIDTH:0.499999
G1 X103.501 Y98.363 E.00561
G1 X104.155 Y98.966 E.03381
G1 X104.221 Y99.075 E.00484
G1 X104.453 Y99.941 E.03407
G1 X104.453 Y100.06 E.00452
G1 X104.221 Y100.926 E.03407
G1 X104.155 Y101.035 E.00484
G1 X103.501 Y101.638 E.03381
G1 X103.366 Y101.698 E.00561
;WIDTH:0.501024
G1 X102.52 Y101.772 E.03235
G1 X101.634 Y101.698 E.03387
;WIDTH:0.499999
G1 X101.499 Y101.638 E.00561
G1 X100.845 Y101.035 E.03381
G1 X100.779 Y100.926 E.00484
G1 X100.547 Y100.06 E.03407
G1 X100.547 Y99.941 E.00452
G1 X100.779 Y99.075 E.03407
G1 X100.869 Y98.944 E.00604
G1 X101.5 Y98.363 E.0326
G1 X101.58 Y98.328 E.00332
M204 P4000
G1 X101.727 Y97.915 F18000
G1 E-.16 F2100
;WIPE_START
G1 F14400
G1 X102.48 Y98.229 E-.12544
G1 X103.366 Y98.303 E-.12318
G1 X103.501 Y98.363 E-.02047
G1 X104.155 Y98.966 E-.12324
G1 X104.221 Y99.075 E-.01765
G1 X104.453 Y99.941 E-.12421
G1 X104.453 Y100.06 E-.01649
G1 X104.286 Y100.683 E-.08932
;WIPE_END
G1 Z.4 F720
G1 X106.707 Y94.849 F18000
G1 Z.2 F720
G1 E.8 F2100
M204 P500
;TYPE:Perimeter
G1 F2400
G1 X106.865 Y95.279 E.01741
G1 X106.951 Y95.82 E.02082
G1 X106.926 Y96.53 E.027
G1 X106.926 Y102.658 E.2329
G1 X106.927 Y103.503 E.03212
G1 X106.954 Y104.071 E.02161
G1 X106.913 Y104.545 E.01808
G1 X106.753 Y105.082 E.0213
G1 X106.472 Y105.629 E.02337
G1 X106.093 Y106.094 E.0228
G1 X105.631 Y106.47 E.02264
G1 X105.079 Y106.747 E.02347
G1 X104.555 Y106.911 E.02087
G1 X103.994 Y106.966 E.02142
G1 X103.473 Y106.926 E.01986
;WIDTH:0.541701
G1 X102.253 Y106.906 E.0506
G1 X101.356 Y106.926 E.03721
;WIDTH:0.499999
G1 X98.644 Y106.926 E.10307
;WIDTH:0.541701
G1 X97.253 Y106.906 E.0577
G1 X96.527 Y106.926 E.03012
;WIDTH:0.499999
G1 X96.006 Y106.966 E.01986
G1 X95.502 Y106.916 E.01925
G1 X94.981 Y106.777 E.02049
G1 X94.369 Y106.47 E.02602
G1 X93.907 Y106.094 E.02264
G1 X93.53 Y105.632 E.02266
G1 X93.265 Y105.104 E.02245
G1 X93.116 Y104.645 E.01834
G1 X93.043 Y104.072 E.02195
G1 X93.06 Y103.574 E.01894
G1 X93.051 Y95.811 E.29504
G1 X93.129 Y95.276 E.02055
G1 X93.364 Y94.667 E.02481
G1 X93.708 Y94.128 E.0243
G1 X94.127 Y93.708 E.02255
G1 X94.667 Y93.364 E.02433
G1 X95.217 Y93.152 E.0224
G1 X95.766 Y93.051 E.02122
G1 X96.429 Y93.061 E.0252
;WIDTH:0.548823
G1 X97.749 Y93.085 E.05554
M73 P2 R13
G1 X98.646 Y93.061 E.03775
;WIDTH:0.499999
G1 X101.354 Y93.061 E.10292
;WIDTH:0.548823
G1 X102.749 Y93.085 E.05869
G1 X103.989 Y93.035 E.0522
;WIDTH:0.499999
G1 X104.497 Y93.084 E.0194
G1 X105.029 Y93.226 E.02093
G1 X105.485 Y93.448 E.01928
G1 X105.927 Y93.762 E.02061
G1 X106.348 Y94.216 E.02353
G1 X106.686 Y94.792 E.02538
M204 P4000
G1 X107.147 Y94.731 F18000
M204 P500
;TYPE:External perimeter
G1 F2400
G1 X107.233 Y94.922 E.00796
G1 X107.33 Y95.276 E.01395
G1 X107.408 Y95.82 E.02089
G1 X107.383 Y96.53 E.027
G1 X107.383 Y102.658 E.2329
G1 X107.383 Y103.481 E.03128
G1 X107.411 Y104.049 E.02161
G1 X107.362 Y104.638 E.02246
G1 X107.179 Y105.253 E.02439
G1 X106.856 Y105.88 E.02681
G1 X106.418 Y106.419 E.0264
G1 X105.881 Y106.856 E.02631
G1 X105.186 Y107.205 E.02956
G1 X104.641 Y107.362 E.02156
G1 X103.998 Y107.424 E.02455
G1 X103.473 Y107.384 E.02001
G1 X97.253 Y107.384 E.2364
G1 X96.509 Y107.384 E.02828
G1 X96.002 Y107.424 E.01933
G1 X95.359 Y107.362 E.02455
G1 X94.814 Y107.205 E.02156
G1 X94.119 Y106.856 E.02956
G1 X93.582 Y106.419 E.02631
G1 X93.144 Y105.881 E.02637
G1 X92.796 Y105.186 E.02954
G1 X92.639 Y104.641 E.02156
G1 X92.588 Y104.117 E.02001
G1 X92.603 Y103.574 E.02065
G1 X92.603 Y96.427 E.27163
G1 X92.592 Y95.674 E.02862
G1 X92.687 Y95.151 E.0202
G1 X92.954 Y94.46 E.02815
G1 X93.349 Y93.84 E.02794
G1 X93.839 Y93.35 E.02634
G1 X94.459 Y92.954 E.02796
G1 X95.151 Y92.688 E.02818
