;Generated with Cura_SteamEngine 15.01
; Default start code
G28 ; Home extruder
G1 Z15 F100
M107 ; Turn off fan
G90 ; Absolute positioning
M82 ; Extruder in absolute mode
M190 S50
; Activate all used extruder
M104 T0 S210
G92 E0 ; Reset extruder position
; Wait for all used extruders to reach temperature
M109 T0 S210
;Layer count: 80
;LAYER:0
M107
G0 F9000 X90.642 Y90.651 Z0.300
;TYPE:SKIRT
G1 F1800 X91.253 Y90.094 E0.04125
G1 X92.167 Y89.472 E0.09641
G1 X93.185 Y88.975 E0.15292
G1 X94.224 Y88.634 E0.20748
G1 X95.190 Y88.461 E0.25644
G1 X96.001 Y88.418 E0.29696
G1 X96.642 Y88.452 E0.32898
G1 X97.210 Y88.453 E0.35732
G1 X103.364 Y88.453 E0.66434
G1 X103.766 Y88.430 E0.68443
G1 X104.020 Y88.417 E0.69712
G1 X104.901 Y88.474 E0.74117
G1 X105.740 Y88.627 E0.78372
G1 X106.596 Y88.887 E0.82835
G1 X107.681 Y89.397 E0.88816
G1 X108.159 Y89.670 E0.91562
G1 X108.793 Y90.139 E0.95497
G1 X109.348 Y90.642 E0.99234
G1 X109.863 Y91.207 E1.03048
G1 X110.364 Y91.891 E1.07278
G1 X110.846 Y92.794 E1.12384
G1 X111.232 Y93.754 E1.17546
G1 X111.425 Y94.497 E1.21376
G1 X111.542 Y95.229 E1.25075
G1 X111.582 Y96.023 E1.29041
G1 X111.533 Y96.794 E1.32895
G1 X111.533 Y98.406 E1.40938
G1 X111.534 Y99.139 E1.44595
G1 X111.534 Y101.594 E1.56843
G1 X111.533 Y103.315 E1.65429
G1 X111.566 Y103.720 E1.67456
G1 X111.582 Y104.020 E1.68955
G1 X111.525 Y104.902 E1.73364
G1 X111.364 Y105.783 E1.77832
G1 X111.024 Y106.816 E1.83258
G1 X110.586 Y107.712 E1.88234
G1 X110.325 Y108.163 E1.90833
G1 X109.861 Y108.792 E1.94733
G1 X109.357 Y109.349 E1.98481
G1 X108.794 Y109.862 E2.02281
G1 X108.164 Y110.325 E2.06181
G1 X107.716 Y110.586 E2.08768
G1 X106.868 Y110.999 E2.13474
G1 X106.116 Y111.274 E2.17468
G1 X104.954 Y111.521 E2.23395
G1 X104.004 Y111.583 E2.28145
G1 X103.225 Y111.534 E2.32039
G1 X96.684 Y111.534 E2.64672
G1 X96.278 Y111.566 E2.66704
G1 X95.984 Y111.582 E2.68173
G1 X95.130 Y111.528 E2.72442
G1 X94.486 Y111.421 E2.75699
G1 X93.855 Y111.258 E2.78950
G1 X93.354 Y111.089 E2.81588
G1 X92.324 Y110.605 E2.87266
G1 X91.843 Y110.333 E2.90023
G1 X91.206 Y109.861 E2.93978
G1 X90.651 Y109.358 E2.97715
G1 X90.136 Y108.793 E3.01529
G1 X89.673 Y108.162 E3.05434
G1 X89.415 Y107.717 E3.08000
G1 X89.001 Y106.869 E3.12708
G1 X88.726 Y106.115 E3.16712
G1 X88.479 Y104.956 E3.22624
G1 X88.419 Y104.048 E3.27164
G1 X88.452 Y103.210 E3.31348
G1 X88.452 Y96.770 E3.63477
G1 X88.431 Y96.231 E3.66169
G1 X88.418 Y95.984 E3.67403
G1 X88.472 Y95.130 E3.71672
G1 X88.586 Y94.444 E3.75141
G1 X88.873 Y93.433 E3.80384
G1 X89.397 Y92.319 E3.86526
G1 X89.669 Y91.843 E3.89261
G1 X90.138 Y91.208 E3.93200
G1 X90.642 Y90.651 E3.96947
G0 F9000 X90.926 Y90.934
G1 F1800 X91.501 Y90.409 E4.00832
G1 X92.368 Y89.819 E4.06064
G1 X93.335 Y89.346 E4.11435
G1 X94.322 Y89.022 E4.16617
G1 X95.236 Y88.859 E4.21249
G1 X96.001 Y88.818 E4.25071
G1 X96.623 Y88.852 E4.28179
G1 X97.210 Y88.853 E4.31108
G1 X103.372 Y88.853 E4.61850
G1 X103.788 Y88.830 E4.63929
G1 X104.018 Y88.817 E4.65078
G1 X104.852 Y88.872 E4.69248
G1 X105.646 Y89.017 E4.73275
G1 X106.452 Y89.261 E4.77476
G1 X107.497 Y89.752 E4.83236
G1 X107.940 Y90.006 E4.85784
G1 X108.539 Y90.449 E4.89501
G1 X109.065 Y90.926 E4.93043
G1 X109.553 Y91.460 E4.96652
G1 X110.025 Y92.104 E5.00636
G1 X110.483 Y92.963 E5.05493
G1 X110.852 Y93.879 E5.10419
G1 X111.033 Y94.579 E5.14027
G1 X111.143 Y95.271 E5.17522
G1 X111.181 Y96.020 E5.21264
G1 X111.133 Y96.780 E5.25063
G1 X111.133 Y98.406 E5.33175
G1 X111.134 Y99.139 E5.36832
G1 X111.134 Y101.594 E5.49080
G1 X111.133 Y103.324 E5.57711
G1 X111.167 Y103.747 E5.59828
G1 X111.182 Y104.018 E5.61182
G1 X111.127 Y104.853 E5.65357
G1 X110.975 Y105.684 E5.69572
G1 X110.652 Y106.665 E5.74725
G1 X110.233 Y107.524 E5.79493
G1 X109.990 Y107.944 E5.81914
G1 X109.551 Y108.538 E5.85599
G1 X109.073 Y109.066 E5.89152
G1 X108.540 Y109.552 E5.92751
G1 X107.944 Y109.990 E5.96441
G1 X107.528 Y110.232 E5.98842
G1 X106.711 Y110.631 E6.03378
G1 X106.005 Y110.889 E6.07128
G1 X104.899 Y111.124 E6.12769
G1 X104.003 Y111.183 E6.17249
G1 X103.237 Y111.134 E6.21078
G1 X96.666 Y111.134 E6.53861
G1 X96.251 Y111.167 E6.55938
G1 X95.986 Y111.181 E6.57262
G1 X95.175 Y111.130 E6.61316
G1 X94.569 Y111.029 E6.64381
G1 X93.969 Y110.874 E6.67473
G1 X93.503 Y110.717 E6.69926
G1 X92.508 Y110.250 E6.75410
G1 X92.062 Y109.997 E6.77968
G1 X91.460 Y109.551 E6.81706
G1 X90.934 Y109.074 E6.85248
G1 X90.446 Y108.540 E6.88857
G1 X90.008 Y107.942 E6.92556
G1 X89.768 Y107.529 E6.94939
G1 X89.369 Y106.712 E6.99475
G1 X89.111 Y106.004 E7.03234
G1 X88.876 Y104.901 E7.08861
G1 X88.820 Y104.042 E7.13155
G1 X88.852 Y103.199 E7.17364
G1 X88.852 Y96.779 E7.49394
G1 X88.828 Y96.161 E7.52479
G1 X88.819 Y95.986 E7.53353
G1 X88.870 Y95.175 E7.57407
G1 X88.977 Y94.532 E7.60659
G1 X89.249 Y93.574 E7.65628
G1 X89.752 Y92.503 E7.71531
G1 X90.004 Y92.062 E7.74065
G1 X90.448 Y91.462 E7.77789
G1 X90.926 Y90.934 E7.81342
G1 F2400 E3.81342
G0 F9000 X93.626 Y93.613
;TYPE:WALL-INNER
G1 F2400 E7.81342
G1 F1800 X93.859 Y93.401 E7.82914
G1 X94.284 Y93.112 E7.85478
G1 X94.767 Y92.875 E7.88162
G1 X95.249 Y92.717 E7.90693
G1 X95.678 Y92.641 E7.92866
G1 X96.000 Y92.624 E7.94475
G1 X96.523 Y92.652 E7.97088
G1 X103.474 Y92.653 E8.31767
G1 X103.994 Y92.624 E8.34365
G1 X104.389 Y92.650 E8.36340
G1 X104.751 Y92.716 E8.38176
G1 X105.085 Y92.817 E8.39917
G1 X105.740 Y93.125 E8.43528
G1 X105.862 Y93.195 E8.44229
G1 X106.123 Y93.388 E8.45849
G1 X106.386 Y93.626 E8.47619
G1 X106.604 Y93.866 E8.49236
G1 X106.803 Y94.137 E8.50914
G1 X107.031 Y94.564 E8.53328
G1 X107.235 Y95.071 E8.56055
G1 X107.308 Y95.355 E8.57518
G1 X107.359 Y95.672 E8.59120
G1 X107.375 Y95.992 E8.60718
G1 X107.333 Y96.492 E8.63222
G1 X107.333 Y103.482 E8.98095
G1 X107.375 Y103.995 E9.00663
G1 X107.349 Y104.390 E9.02638
G1 X107.285 Y104.741 E9.04418
G1 X107.123 Y105.234 E9.07007
G1 X106.880 Y105.730 E9.09762
G1 X106.609 Y106.126 E9.12156
G1 X106.373 Y106.387 E9.13912
G1 X106.128 Y106.610 E9.15565
G1 X105.736 Y106.879 E9.17936
G1 X105.220 Y107.130 E9.20799
G1 X104.956 Y107.227 E9.22202
G1 X104.378 Y107.350 E9.25151
G1 X103.999 Y107.375 E9.27046
G1 X103.512 Y107.334 E9.29484
G1 X96.513 Y107.334 E9.64402
G1 X96.004 Y107.375 E9.66950
G1 X95.609 Y107.350 E9.68924
G1 X95.059 Y107.231 E9.71732
G1 X94.258 Y106.874 E9.76107
G1 X94.137 Y106.805 E9.76802
G1 X93.876 Y106.612 E9.78421
G1 X93.613 Y106.374 E9.80191
G1 X93.395 Y106.134 E9.81808
G1 X93.192 Y105.857 E9.83522
G1 X92.874 Y105.229 E9.87034
G1 X92.772 Y104.950 E9.88516
G1 X92.650 Y104.379 E9.91429
G1 X92.625 Y103.994 E9.93354
G1 X92.652 Y103.285 E9.96893
G1 X92.652 Y96.695 E10.29771
G1 X92.625 Y96.009 E10.33196
G1 X92.650 Y95.609 E10.35196
G1 X92.691 Y95.363 E10.36440
G1 X92.820 Y94.910 E10.38790
G1 X93.125 Y94.260 E10.42372
G1 X93.194 Y94.139 E10.43067
G1 X93.390 Y93.874 E10.44711
G1 X93.626 Y93.613 E10.46467
G0 F9000 X95.659 Y94.938
G1 F1800 X95.376 Y96.000 E10.51950
G1 X95.659 Y97.062 E10.57433
G1 X96.438 Y97.840 E10.62926
G1 X97.036 Y98.000 E10.66014
G1 X96.438 Y98.160 E10.69103
G1 X95.659 Y98.938 E10.74595
G1 X95.376 Y100.000 E10.80079
G1 X95.659 Y101.062 E10.85562
G1 X96.438 Y101.840 E10.91055
G1 X97.036 Y102.000 E10.94143
G1 X96.438 Y102.160 E10.97231
G1 X95.659 Y102.938 E11.02724
G1 X95.376 Y104.000 E11.08207
G1 X95.659 Y105.062 E11.13691
G1 X96.438 Y105.840 E11.19183
G1 X97.500 Y106.124 E11.24668
G1 X98.561 Y105.840 E11.30147
G1 X99.340 Y105.062 E11.35640
G1 X99.623 Y104.000 E11.41123
G1 X99.340 Y102.938 E11.46607
G1 X98.561 Y102.160 E11.52099
G1 X97.963 Y102.000 E11.55188
G1 X98.561 Y101.840 E11.58276
G1 X99.340 Y101.062 E11.63769
G1 X99.623 Y100.000 E11.69252
G1 X99.340 Y98.938 E11.74735
G1 X98.561 Y98.160 E11.80228
G1 X97.963 Y98.000 E11.83316
G1 X98.561 Y97.840 E11.86405
G1 X99.340 Y97.062 E11.91898
G1 X99.623 Y96.000 E11.97381
G1 X99.340 Y94.938 E12.02864
G1 X98.561 Y94.160 E12.08357
G1 X97.500 Y93.876 E12.13837
G1 X96.438 Y94.160 E12.19321
G1 X95.659 Y94.938 E12.24814
G0 F9000 X96.442 Y94.166
G0 X97.500 Y93.883
G0 X98.557 Y94.166
G0 X99.334 Y94.942
G0 X100.376 Y96.000
G1 F1800 X100.659 Y97.062 E12.30297
G1 X101.438 Y97.840 E12.35790
G1 X102.036 Y98.000 E12.38878
G1 X101.438 Y98.160 E12.41966
G1 X100.659 Y98.938 E12.47459
G1 X100.376 Y100.000 E12.52942
G1 X100.659 Y101.062 E12.58426
G1 X101.438 Y101.840 E12.63918
G1 X102.036 Y102.000 E12.67007
G1 X101.438 Y102.160 E12.70095
G1 X100.659 Y102.938 E12.75588
G1 X100.376 Y104.000 E12.81071
G1 X100.659 Y105.062 E12.86554
G1 X101.438 Y105.840 E12.92047
G1 X102.500 Y106.124 E12.97532
G1 X103.561 Y105.840 E13.03011
G1 X104.340 Y105.062 E13.08504
G1 X104.623 Y104.000 E13.13987
G1 X104.340 Y102.938 E13.19471
G1 X103.561 Y102.160 E13.24963
G1 X102.963 Y102.000 E13.28052
G1 X103.561 Y101.840 E13.31140
G1 X104.340 Y101.062 E13.36633
G1 X104.623 Y100.000 E13.42116
G1 X104.340 Y98.938 E13.47599
G1 X103.561 Y98.160 E13.53092
G1 X102.963 Y98.000 E13.56180
G1 X103.561 Y97.840 E13.59269
G1 X104.340 Y97.062 E13.64761
G1 X104.623 Y96.000 E13.70245
G1 X104.340 Y94.938 E13.75728
G1 X103.561 Y94.160 E13.81221
G1 X102.500 Y93.876 E13.86700
G1 X101.438 Y94.160 E13.92185
G1 X100.659 Y94.938 E13.97678
G1 X100.376 Y96.000 E14.03161
G0 F9000 X100.790 Y96.000
;TYPE:WALL-OUTER
G1 F1800 X101.018 Y96.855 E14.07576
G1 X101.645 Y97.481 E14.11996
G1 X102.500 Y97.710 E14.16412
G1 X103.354 Y97.481 E14.20823
G1 X103.981 Y96.855 E14.25243
G1 X104.209 Y96.000 E14.29658
G1 X103.981 Y95.145 E14.34073
G1 X103.354 Y94.519 E14.38493
G1 X102.500 Y94.290 E14.42904
G1 X101.645 Y94.519 E14.47320
G1 X101.018 Y95.145 E14.51740
G1 X100.790 Y96.000 E14.56155
G0 F9000 X100.501 Y95.923
G0 X99.498 Y96.077
G0 X99.209 Y96.000
G1 F1800 X98.981 Y95.145 E14.60570
G1 X98.354 Y94.519 E14.64990
G1 X97.500 Y94.290 E14.69401
G1 X96.645 Y94.519 E14.73817
G1 X96.018 Y95.145 E14.78237
G1 X95.790 Y96.000 E14.82652
G1 X96.018 Y96.855 E14.87067
G1 X96.645 Y97.481 E14.91487
G1 X97.500 Y97.710 E14.95903
G1 X98.354 Y97.481 E15.00314
G1 X98.981 Y96.855 E15.04734
G1 X99.209 Y96.000 E15.09149
G0 F9000 X99.498 Y96.077
G0 X99.334 Y97.058
G0 X98.431 Y98.230
G0 X98.354 Y98.519
G1 F1800 X97.500 Y98.290 E15.13560
G1 X96.645 Y98.519 E15.17976
G1 X96.018 Y99.145 E15.22396
G1 X95.790 Y100.000 E15.26811
G1 X96.018 Y100.855 E15.31226
G1 X96.645 Y101.481 E15.35646
G1 X97.500 Y101.710 E15.40062
G1 X98.354 Y101.481 E15.44473
G1 X98.981 Y100.855 E15.48894
G1 X99.209 Y100.000 E15.53308
G1 X98.981 Y99.145 E15.57723
G1 X98.354 Y98.519 E15.62143
G0 F9000 X98.431 Y98.230
G0 X100.729 Y99.068
G0 X101.018 Y99.145
G1 F1800 X100.790 Y100.000 E15.66558
G1 X101.018 Y100.855 E15.70973
G1 X101.645 Y101.481 E15.75393
G1 X102.500 Y101.710 E15.79809
G1 X103.354 Y101.481 E15.84220
G1 X103.981 Y100.855 E15.88640
G1 X104.209 Y100.000 E15.93055
G1 X103.981 Y99.145 E15.97470
G1 X103.354 Y98.519 E16.01890
G1 X102.500 Y98.290 E16.06301
G1 X101.645 Y98.519 E16.10717
G1 X101.018 Y99.145 E16.15137
G0 F9000 X100.729 Y99.068
G0 X100.383 Y100.000
G0 X100.665 Y101.058
G0 X101.434 Y102.306
G0 X101.645 Y102.519
G1 F1800 X101.018 Y103.145 E16.19558
G1 X100.790 Y104.000 E16.23972
G1 X101.018 Y104.855 E16.28387
G1 X101.645 Y105.481 E16.32807
G1 X102.500 Y105.710 E16.37223
G1 X103.354 Y105.481 E16.41634
G1 X103.981 Y104.855 E16.46055
G1 X104.209 Y104.000 E16.50469
G1 X103.981 Y103.145 E16.54884
G1 X103.354 Y102.519 E16.59304
G1 X102.500 Y102.290 E16.63715
G1 X101.645 Y102.519 E16.68131
G0 F9000 X101.434 Y102.306
G0 X99.271 Y103.069
G0 X98.981 Y103.145
G1 F1800 X98.354 Y102.519 E16.72552
G1 X97.500 Y102.290 E16.76963
G1 X96.645 Y102.519 E16.81379
G1 X96.018 Y103.145 E16.85799
G1 X95.790 Y104.000 E16.90214
G1 X96.018 Y104.855 E16.94628
G1 X96.645 Y105.481 E16.99049
G1 X97.500 Y105.710 E17.03465
G1 X98.354 Y105.481 E17.07876
G1 X98.981 Y104.855 E17.12296
G1 X99.209 Y104.000 E17.16711
G1 X98.981 Y103.145 E17.21125
G0 F9000 X99.271 Y103.069
G0 X99.616 Y104.000
G0 X99.334 Y105.058
G0 X98.557 Y105.834
G0 X96.531 Y107.434
G0 X96.529 Y107.734
G1 F1800 X96.026 Y107.775 E17.23643
G1 X95.556 Y107.747 E17.25992
G1 X95.282 Y107.702 E17.27378
G1 X94.768 Y107.555 E17.30045
G1 X94.075 Y107.230 E17.33863
G1 X93.921 Y107.142 E17.34748
G1 X93.614 Y106.915 E17.36653
G1 X93.341 Y106.668 E17.38490
G1 X93.077 Y106.378 E17.40446
G1 X92.773 Y105.933 E17.43135
G1 X92.502 Y105.379 E17.46212
G1 X92.387 Y105.064 E17.47885
G1 X92.253 Y104.433 E17.51103
G1 X92.225 Y103.995 E17.53293
G1 X92.252 Y103.277 E17.56878
G1 X92.252 Y96.703 E17.89675
G1 X92.226 Y96.028 E17.93046
G1 X92.225 Y96.000 E17.93185
G1 X92.253 Y95.553 E17.95420
G1 X92.299 Y95.278 E17.96811
G1 X92.443 Y94.771 E17.99440
G1 X92.768 Y94.079 E18.03254
G1 X93.085 Y93.613 E18.06066
G1 X93.330 Y93.343 E18.07885
G1 X93.616 Y93.082 E18.09817
G1 X94.078 Y92.768 E18.12604
G1 X94.621 Y92.502 E18.15620
G1 X95.153 Y92.328 E18.18413
G1 X95.625 Y92.243 E18.20806
G1 X96.000 Y92.224 E18.22679
G1 X96.534 Y92.252 E18.25347
G1 X103.463 Y92.253 E18.59916
G1 X103.998 Y92.224 E18.62589
G1 X104.436 Y92.252 E18.64778
G1 X104.850 Y92.328 E18.66878
G1 X105.227 Y92.442 E18.68843
G1 X105.925 Y92.770 E18.72691
G1 X106.078 Y92.858 E18.73572
G1 X106.385 Y93.085 E18.75476
G1 X106.656 Y93.330 E18.77299
G1 X106.922 Y93.622 E18.79270
G1 X107.140 Y93.919 E18.81108
G1 X107.393 Y94.393 E18.83788
G1 X107.616 Y94.946 E18.86763
G1 X107.699 Y95.267 E18.88417
G1 X107.757 Y95.626 E18.90232
G1 X107.775 Y95.997 E18.92085
G1 X107.747 Y96.442 E18.94309
G1 X107.733 Y96.525 E18.94729
G1 X107.733 Y103.466 E19.29358
G1 X107.775 Y103.974 E19.31901
G1 X107.747 Y104.437 E19.34215
G1 X107.672 Y104.843 E19.36275
G1 X107.496 Y105.380 E19.39094
G1 X107.226 Y105.932 E19.42160
G1 X107.143 Y106.075 E19.42985
G1 X106.914 Y106.387 E19.44916
G1 X106.669 Y106.657 E19.46735
G1 X106.377 Y106.923 E19.48705
G1 X106.080 Y107.142 E19.50546
G1 X105.378 Y107.498 E19.54473
G1 X105.064 Y107.613 E19.56141
G1 X104.432 Y107.747 E19.59365
G1 X104.000 Y107.775 E19.61524
G1 X103.557 Y107.747 E19.63739
G1 X103.479 Y107.734 E19.64133
G1 X96.529 Y107.734 E19.98807
G0 F9000 X96.727 Y107.193
;TYPE:SKIN
G1 F1800 X92.791 Y103.256 E20.26581
G0 F9000 X92.772 Y103.803
G1 F1800 X96.187 Y107.218 E20.50676
G0 F9000 X95.610 Y107.207
G1 F1800 X92.795 Y104.392 E20.70537
G0 F9000 X92.997 Y105.160
G1 F1800 X94.798 Y106.961 E20.83244
G0 F9000 X96.727 Y106.061
G1 F1800 X97.859 Y107.193 E20.91231
G0 F9000 X97.293 Y107.193
G1 F1800 X92.791 Y102.690 E21.22999
G0 F9000 X92.791 Y102.125
G1 F1800 X95.437 Y104.771 E21.41668
G0 F9000 X95.231 Y103.999
G1 F1800 X92.791 Y101.559 E21.58883
G0 F9000 X92.791 Y100.993
G1 F1800 X95.350 Y103.552 E21.76938
G0 F9000 X95.470 Y103.106
G1 F1800 X92.791 Y100.428 E21.95837
G0 F9000 X92.791 Y99.862
G1 F1800 X95.663 Y102.734 E22.16100
G0 F9000 X95.946 Y102.451
G1 F1800 X92.791 Y99.296 E22.38360
G0 F9000 X92.791 Y98.731
G1 F1800 X96.229 Y102.169 E22.62617
G0 F9000 X95.451 Y100.825
G1 F1800 X92.791 Y98.165 E22.81385
G0 F9000 X92.791 Y97.599
G1 F1800 X95.245 Y100.054 E22.98703
G1 F2400 E18.98703
G0 F9000 X98.743 Y101.855
G1 F2400 E22.98703
G1 F1800 X100.369 Y103.480 E23.10172
G0 F9000 X100.489 Y103.034
G1 F1800 X99.026 Y101.572 E23.20490
G0 F9000 X99.309 Y101.289
G1 F1800 X100.708 Y102.688 E23.30361
G0 F9000 X100.992 Y102.406
G1 F1800 X99.518 Y100.932 E23.40761
G0 F9000 X99.637 Y100.486
G1 F1800 X101.275 Y102.123 E23.52314
G0 F9000 X100.418 Y100.701
G1 F1800 X99.756 Y100.039 E23.56985
G0 F9000 X99.565 Y103.242
G1 F1800 X100.250 Y103.927 E23.61818
G0 F9000 X99.764 Y104.007
G1 F1800 X100.403 Y104.646 E23.66327
G0 F9000 X99.646 Y104.454
G1 F1800 X102.384 Y107.193 E23.85648
G0 F9000 X101.819 Y107.193
G1 F1800 X99.526 Y104.900 E24.01827
G0 F9000 X99.330 Y105.269
G1 F1800 X101.253 Y107.193 E24.15398
G0 F9000 X100.687 Y107.193
G1 F1800 X99.047 Y105.552 E24.26973
G0 F9000 X98.764 Y105.835
G1 F1800 X100.122 Y107.193 E24.36554
G0 F9000 X101.852 Y106.095
G1 F1800 X102.950 Y107.193 E24.44301
G0 F9000 X103.516 Y107.193
G1 F1800 X102.572 Y106.249 E24.50961
G0 F9000 X103.018 Y106.129
G1 F1800 X104.114 Y107.225 E24.58694
G0 F9000 X104.610 Y107.156
G1 F1800 X103.464 Y106.010 E24.66780
G0 F9000 X103.809 Y105.789
G1 F1800 X105.059 Y107.038 E24.75596
G0 F9000 X105.448 Y106.862
