; generated by Slic3r 1.3.1-dev (Build 18ddd3a36dc69d81fb9b7440498bff9e1dde8b7e) on 2024-04-25 at 16:43:41

; external perimeters extrusion width = 0.55mm (3.04mm^3/s)
; perimeters extrusion width = 0.70mm (7.88mm^3/s)
; infill extrusion width = 0.63mm (9.31mm^3/s)
; solid infill extrusion width = 0.70mm (2.63mm^3/s)
; top infill extrusion width = 0.70mm (1.97mm^3/s)

M107
G92 E0
M104 S200 ; set temperature
G28 ; home all axes
G1 Z5 F5000 ; lift nozzle

; Filament gcode

M109 S200 ; set temperature and wait for it to be reached
G21 ; set units to millimeters
G90 ; use absolute coordinates
M82 ; use absolute distances for extrusion
G92 E0
G1 Z0.350 F7800.000
G1 E-2.00000 F2400.00000
G92 E0
G1 X71.314 Y71.243 F7800.000
G1 E2.00000 F2400.00000
G1 F1800.000
G1 X72.923 Y69.609 E2.07096
G1 X74.993 Y68.622 E2.14192
G1 X76.592 Y68.382 E2.19196
G1 X83.486 Y68.368 E2.40528
G1 X122.710 Y68.393 E3.61891
G1 X124.977 Y68.907 E3.69084
G1 X126.903 Y70.151 E3.76180
G1 X128.302 Y72.000 E3.83352
G1 X131.267 Y77.814 E4.03546
G1 X131.989 Y80.685 E4.12706
G1 X132.002 Y122.861 E5.43205
G1 X131.585 Y125.117 E5.50301
G1 X130.126 Y127.422 E5.58743
G1 X129.942 Y127.609 E5.59555
G1 X128.058 Y128.917 E5.66651
G1 X126.847 Y129.341 E5.70623
G1 X118.227 Y131.442 E5.98072
G1 X116.657 Y131.630 E6.02967
G1 X76.390 Y131.615 E7.27558
G1 X74.137 Y131.184 E7.34654
G1 X72.167 Y130.011 E7.41750
G1 X70.268 Y127.267 E7.52076
G1 X69.175 Y124.281 E7.61912
G1 X68.777 Y122.265 E7.68271
G1 X68.770 Y121.965 E7.69200
G1 X68.750 Y108.757 E8.10068
G1 X68.760 Y80.152 E8.98575
G1 X68.974 Y78.621 E9.03359
G1 X70.358 Y73.328 E9.20284
G1 X71.282 Y71.312 E9.27148
G1 E7.27148 F2400.00000
G92 E0
G1 X123.593 Y110.299 F7800.000
G1 E2.00000 F2400.00000
G1 F1800.000
G1 X123.304 Y110.341 E2.00904
G1 X123.277 Y110.428 E2.01188
G1 X116.095 Y109.581 E2.23564
G1 X115.577 Y109.477 E2.25201
G1 X115.553 Y108.845 E2.27157
G1 X116.002 Y108.722 E2.28598
G1 X122.217 Y106.562 E2.48955
G1 X122.625 Y106.286 E2.50479
G1 X122.855 Y106.911 E2.52540
G1 X123.378 Y109.724 E2.61393
G1 X123.567 Y110.229 E2.63062
G1 X123.642 Y110.588 F7800.000
G1 E0.63062 F2400.00000
G92 E0
G1 X123.015 Y101.348 F7800.000
G1 E2.00000 F2400.00000
G1 F1800.000
G1 X122.441 Y101.364 E2.01776
G1 X119.876 Y94.399 E2.24739
G1 X120.460 Y94.063 E2.26824
G1 X123.962 Y98.275 E2.43773
G1 X123.037 Y101.276 E2.53490
G1 X123.080 Y101.844 F7800.000
G1 E0.53490 F2400.00000
G92 E0
G1 X101.167 Y115.938 F7800.000
G1 E2.00000 F2400.00000
G1 F1800.000
G1 X101.269 Y117.455 E2.04704
G1 X100.438 Y117.769 E2.07454
G1 X89.743 Y120.475 E2.41586
G1 X91.163 Y116.481 E2.54701
G1 X90.955 Y116.314 E2.55528
G1 X89.658 Y117.134 E2.60273
G1 X88.506 Y115.775 E2.65785
G1 X92.513 Y111.275 E2.84429
G1 X93.269 Y110.708 E2.87353
G1 X94.485 Y111.585 E2.91992
G1 X93.473 Y114.724 E3.02198
G1 X92.893 Y115.192 E3.04504
G1 X100.250 Y115.726 E3.27328
G1 X101.094 Y115.921 E3.30009
G1 X100.575 Y116.443 F7800.000
G1 F1800.000
G1 X100.614 Y117.034 E3.31844
G1 X100.250 Y117.172 E3.33050
G1 X90.724 Y119.582 E3.63453
G1 X92.119 Y115.657 E3.76342
G1 X92.528 Y115.792 E3.77674
G1 X100.156 Y116.346 E4.01337
G1 X100.501 Y116.426 E4.02434
G1 X101.074 Y116.434 F7800.000
G1 E2.02434 F2400.00000
G92 E0
G1 X93.751 Y111.826 F7800.000
G1 E2.00000 F2400.00000
G1 F1800.000
G1 X92.935 Y114.355 E2.08222
G1 X92.731 Y114.519 E2.09033
G1 X92.602 Y114.533 E2.09433
G1 X89.783 Y116.315 E2.19753
G1 X89.334 Y115.785 E2.21904
G1 X92.938 Y111.737 E2.38673
G1 X93.276 Y111.484 E2.39982
G1 X93.690 Y111.782 E2.41561
G1 X94.236 Y111.947 F7800.000
G1 X94.020 Y110.220 F7800.000
G1 F1800.000
G1 X93.635 Y109.469 E2.44170
G1 X93.147 Y106.482 E2.53537
G1 X92.877 Y104.553 E2.59561
G1 X94.602 Y105.295 E2.65373
G1 X102.563 Y107.613 E2.91028
G1 X102.431 Y109.277 E2.96191
G1 X94.783 Y110.238 E3.20039
G1 X94.095 Y110.221 E3.22170
G1 X94.406 Y109.604 F7800.000
G1 F1800.000
G1 X94.236 Y109.271 E3.23326
G1 X93.765 Y106.388 E3.32366
G1 X93.649 Y105.566 E3.34935
G1 X94.391 Y105.884 E3.37432
G1 X101.900 Y108.071 E3.61630
G1 X101.848 Y108.720 E3.63645
G1 X94.752 Y109.612 E3.85775
G1 X94.481 Y109.606 E3.86612
G1 X94.056 Y109.734 F7800.000
G1 E1.86612 F2400.00000
G92 E0
G1 X92.992 Y103.157 F7800.000
G1 E2.00000 F2400.00000
G1 F1800.000
G1 X91.611 Y103.057 E2.04284
G1 X84.616 Y104.853 E2.26630
G1 X86.270 Y102.436 E2.35692
G1 X88.857 Y98.313 E2.50754
G1 X89.367 Y97.128 E2.54745
G1 X87.517 Y96.149 E2.61220
G1 X83.711 Y95.232 E2.73333
G1 X83.592 Y93.738 E2.77971
G1 X86.948 Y92.402 E2.89149
G1 X86.842 Y91.896 E2.90751
G1 X86.717 Y88.135 E3.02392
G1 X88.105 Y88.991 E3.07439
G1 X94.025 Y88.303 E3.25877
G1 X94.496 Y89.990 E3.31295
G1 X88.358 Y92.800 E3.52182
G1 X88.462 Y93.005 E3.52891
G1 X89.549 Y97.148 E3.66145
G1 X90.655 Y98.117 E3.70695
G1 X92.577 Y101.542 E3.82845
G1 X92.973 Y103.084 E3.87771
G1 X92.170 Y102.471 F7800.000
G1 F1800.000
G1 X91.554 Y102.427 E3.89683
G1 X86.070 Y103.835 E4.07202
G1 X86.792 Y102.779 E4.11160
G1 X89.411 Y98.604 E4.26409
G1 X89.645 Y98.063 E4.28234
G1 X90.163 Y98.517 E4.30366
G1 X91.992 Y101.777 E4.41931
G1 X92.152 Y102.398 E4.43917
G1 X92.225 Y102.968 F7800.000
G1 E2.43917 F2400.00000
G92 E0
G1 X88.607 Y96.019 F7800.000
G1 E2.00000 F2400.00000
G1 F1800.000
G1 X87.740 Y95.560 E2.03034
G1 X84.298 Y94.731 E2.13990
G1 X84.251 Y94.148 E2.15798
G1 X87.226 Y92.964 E2.25704
G1 X87.665 Y92.815 E2.27140
G1 X87.874 Y93.228 E2.28571
G1 X88.588 Y95.946 E2.37267
G1 X88.493 Y96.506 F7800.000
G1 E0.37267 F2400.00000
G92 E0
G1 X87.599 Y92.461 F7800.000
G1 E2.00000 F2400.00000
G1 F1800.000
G1 X87.464 Y91.820 E2.02025
G1 X87.380 Y89.278 E2.09895
G1 X87.962 Y89.637 E2.12010
G1 X93.567 Y88.986 E2.29468
G1 X93.751 Y89.644 E2.31582
G1 X87.668 Y92.430 E2.52283
G1 X87.124 Y92.615 F7800.000
G1 E0.52283 F2400.00000
G92 E0
G1 X86.500 Y87.442 F7800.000
G1 E2.00000 F2400.00000
G1 F1800.000
G1 X86.094 Y86.643 E2.02773
G1 X84.647 Y83.371 E2.13844
G1 X83.925 Y81.687 E2.19512
G1 X87.345 Y82.072 E2.30160
G1 X87.724 Y81.780 E2.31638
G1 X88.923 Y82.561 E2.36066
G1 X87.937 Y87.218 E2.50793
G1 X86.574 Y87.431 E2.55061
G1 X86.852 Y86.755 F7800.000
G1 F1800.000
G1 X86.659 Y86.375 E2.56379
G1 X84.923 Y82.428 E2.69719
G1 X87.527 Y82.721 E2.77826
G1 X87.754 Y82.546 E2.78715
G1 X88.223 Y82.851 E2.80445
G1 X87.415 Y86.667 E2.92513
G1 X86.926 Y86.743 E2.94044
G1 X86.533 Y87.037 F7800.000
G1 X88.459 Y87.769 F7800.000
G1 F1800.000
G1 X89.623 Y82.272 E3.11431
G1 X87.693 Y81.015 E3.18557
G1 X87.164 Y81.423 E3.20624
G1 X82.928 Y80.946 E3.33814
G1 X84.074 Y83.620 E3.42817
G1 X85.529 Y86.911 E3.53951
G1 X86.087 Y88.009 E3.57762
G1 X86.221 Y92.019 E3.70176
G1 X82.932 Y93.328 E3.81128
G1 X83.124 Y95.733 E3.88595
G1 X87.294 Y96.738 E4.01866
G1 X88.565 Y97.411 E4.06314
G1 X88.302 Y98.022 E4.08372
G1 X85.747 Y102.094 E4.23246
G1 X83.161 Y105.872 E4.37412
G1 X91.668 Y103.688 E4.64585
G1 X92.129 Y103.721 E4.66016
G1 X92.529 Y106.575 E4.74934
G1 X93.034 Y109.667 E4.84627
G1 X93.196 Y109.982 E4.85723
G1 X92.088 Y110.813 E4.90008
G1 X87.678 Y115.766 E5.10526
G1 X89.533 Y117.952 E5.19399
G1 X89.760 Y117.809 E5.20230
G1 X89.969 Y117.976 E5.21056
G1 X88.671 Y121.625 E5.33039
G1 X85.819 Y123.381 E5.43403
G1 X84.247 Y123.387 E5.48265
G1 X85.850 Y118.930 E5.62918
G1 X82.024 Y120.783 E5.76070
G1 X78.238 Y123.381 E5.90279
G1 X77.622 Y123.384 E5.92185
G1 X76.997 Y121.714 E5.97702
G1 X76.990 Y116.448 E6.13997
G1 X80.510 Y110.705 E6.34840
G1 X81.367 Y108.709 E6.41561
G1 X76.977 Y107.570 E6.55597
G1 X76.983 Y100.895 E6.76250
G1 X80.212 Y95.690 E6.95202
G1 X76.981 Y90.537 E7.14021
G1 X76.983 Y80.502 E7.45070
G1 X78.000 Y76.613 E7.57508
G1 X78.857 Y76.620 E7.60160
G1 X82.867 Y80.110 E7.76607
G1 X84.503 Y76.594 E7.88606
G1 X87.946 Y76.596 E7.99258
G1 X89.725 Y79.440 E8.09639
G1 X97.336 Y76.614 E8.34759
G1 X107.814 Y76.601 E8.67180
G1 X112.941 Y78.485 E8.84080
G1 X111.696 Y79.323 E8.88725
G1 X105.552 Y83.266 E9.11313
G1 X103.189 Y85.435 E9.21238
G1 X106.143 Y86.300 E9.30761
G1 X114.845 Y88.033 E9.58214
G1 X117.232 Y87.688 E9.65679
G1 X114.264 Y80.030 E9.91092
G1 X113.477 Y78.629 E9.96064
G1 X116.955 Y76.612 E10.08503
G1 X121.420 Y76.611 E10.22321
G1 X123.766 Y81.209 E10.38293
G1 X123.770 Y92.520 E10.73290
G1 X123.413 Y95.660 E10.83069
G1 X120.748 Y92.454 E10.95970
G1 X118.340 Y93.843 E11.04573
G1 X121.578 Y102.637 E11.33569
G1 X123.776 Y102.578 E11.40372
G1 X123.777 Y104.902 E11.47565
G1 X123.468 Y104.958 E11.48537
G1 X123.247 Y104.356 E11.50521
G1 X121.652 Y105.436 E11.56481
G1 X115.631 Y107.528 E11.76204
G1 X114.268 Y107.903 E11.80578
G1 X114.364 Y110.510 E11.88648
G1 X115.899 Y110.816 E11.93492
G1 X123.190 Y111.677 E12.16207
G1 X123.602 Y112.249 E12.18391
G1 X123.779 Y112.590 E12.19577
G1 X123.776 Y114.002 E12.23946
G1 X122.605 Y114.159 E12.27601
G1 X122.569 Y117.008 E12.36417
G1 X123.767 Y117.200 E12.40170
G1 X123.775 Y121.624 E12.53859
G1 X116.467 Y123.405 E12.77133
G1 X97.820 Y123.389 E13.34828
G1 X89.558 Y121.462 E13.61081
G1 X89.555 Y121.167 E13.61993
G1 X100.625 Y118.366 E13.97326
G1 X101.924 Y117.875 E14.01621
G1 X101.759 Y115.434 E14.09193
G1 X100.343 Y115.106 E14.13690
G1 X94.151 Y114.657 E14.32901
G1 X95.220 Y111.344 E14.43672
G1 X94.592 Y110.892 E14.46064
G1 X103.013 Y109.833 E14.72325
G1 X103.226 Y107.156 E14.80636
G1 X94.814 Y104.706 E15.07746
G1 X93.477 Y104.131 E15.12248
G1 X93.552 Y103.823 E15.13229
G1 X93.814 Y103.842 E15.14039
G1 X93.161 Y101.307 E15.22138
G1 X91.148 Y97.718 E15.34872
G1 X90.105 Y96.804 E15.39162
G1 X89.141 Y93.130 E15.50917
G1 X95.242 Y90.336 E15.71680
G1 X94.483 Y87.621 E15.80401
G1 X88.249 Y88.346 E15.99820
G1 X87.545 Y87.912 E16.02379
G1 X88.385 Y87.781 E16.05010
G1 E14.05010 F2400.00000
G92 E0
G1 X104.427 Y85.147 F7800.000
G1 E2.00000 F2400.00000
G1 F1800.000
G1 X105.935 Y83.763 E2.06330
G1 X112.039 Y79.846 E2.28773
G1 X113.058 Y79.159 E2.32574
G1 X113.697 Y80.297 E2.36612
G1 X116.366 Y87.182 E2.59458
G1 X114.862 Y87.399 E2.64161
G1 X106.292 Y85.692 E2.91197
G1 X104.499 Y85.168 E2.96976
G1 X105.666 Y84.858 F7800.000
G1 F1800.000
G1 X106.317 Y84.260 E2.99712
G1 X112.845 Y80.056 E3.23735
G1 X113.130 Y80.564 E3.25538
G1 X115.499 Y86.675 E3.45818
G1 X114.878 Y86.765 E3.47759
G1 X106.441 Y85.085 E3.74378
G1 X105.738 Y84.879 E3.76645
G1 X105.259 Y84.567 F7800.000
G1 E1.76645 F2400.00000
G92 E0
G1 X119.108 Y94.121 F7800.000
G1 E2.00000 F2400.00000
G1 F1800.000
G1 X122.010 Y102.000 E2.25980
G1 X123.480 Y101.961 E2.30531
G1 X123.880 Y100.662 E2.34734
G1 X124.171 Y100.677 E2.35637
G1 X124.401 Y101.824 E2.39254
G1 X124.404 Y108.869 E2.61053
G1 X124.275 Y109.479 E2.62984
G1 X123.967 Y109.475 E2.63936
G1 X123.459 Y106.745 E2.72528
G1 X122.936 Y105.321 E2.77224
G1 X121.934 Y105.999 E2.80965
G1 X115.816 Y108.125 E3.01006
G1 X114.910 Y108.374 E3.03913
G1 X114.970 Y109.993 E3.08926
G1 X115.997 Y110.198 E3.12167
G1 X123.536 Y111.088 E3.35656
G1 X124.136 Y111.921 E3.38831
G1 X124.404 Y112.438 E3.40631
G1 X124.400 Y114.549 E3.47163
G1 X123.223 Y114.706 E3.50837
G1 X123.201 Y116.476 E3.56313
G1 X124.391 Y116.667 E3.60041
G1 X124.401 Y122.115 E3.76897
G1 X116.542 Y124.030 E4.01926
G1 X97.724 Y124.014 E4.60151
G1 X97.549 Y123.959 E4.60720
G1 X89.215 Y122.024 E4.87191
G1 X85.997 Y124.005 E4.98884
G1 X83.357 Y124.015 E5.07051
G1 X84.744 Y120.160 E5.19725
G1 X82.339 Y121.324 E5.27992
G1 X78.433 Y124.004 E5.42648
G1 X77.190 Y124.012 E5.46496
G1 X76.372 Y121.828 E5.53711
G1 X76.365 Y116.272 E5.70902
G1 X79.954 Y110.417 E5.92152
G1 X80.506 Y109.131 E5.96482
G1 X76.351 Y108.053 E6.09763
G1 X76.358 Y100.716 E6.32464
G1 X79.476 Y95.692 E6.50759
G1 X76.356 Y90.717 E6.68928
G1 X76.358 Y80.422 E7.00782
G1 X77.519 Y75.985 E7.14973
G1 X79.093 Y75.996 E7.19844
G1 X82.651 Y79.093 E7.34438
G1 X84.105 Y75.968 E7.45102
G1 X88.292 Y75.971 E7.58057
G1 X89.985 Y78.677 E7.67933
G1 X97.224 Y75.989 E7.91824
G1 X107.925 Y75.976 E8.24937
G1 X113.361 Y77.973 E8.42857
G1 X116.786 Y75.987 E8.55107
G1 X121.803 Y75.986 E8.70630
G1 X124.391 Y81.059 E8.88250
G1 X124.395 Y92.555 E9.23821
G1 X123.869 Y97.186 E9.38242
G1 X120.604 Y93.258 E9.54045
G1 X119.173 Y94.084 E9.59158
G1 E7.59158 F2400.00000
G92 E0
G1 X124.158 Y110.882 F7800.000
G1 E2.00000 F2400.00000
G1 F1800.000
G1 X124.669 Y111.593 E2.02710
G1 X124.989 Y112.207 E2.04852
G1 X125.029 Y112.338 E2.05275
G1 X125.024 Y115.095 E2.13807
G1 X123.841 Y115.254 E2.17499
G1 X123.832 Y115.945 E2.19636
G1 X125.014 Y116.134 E2.23340
G1 X125.027 Y122.605 E2.43362
G1 X116.617 Y124.655 E2.70147
G1 X97.627 Y124.639 E3.28901
G1 X97.384 Y124.562 E3.29692
G1 X89.324 Y122.691 E3.55294
G1 X86.175 Y124.629 E3.66735
G1 X82.467 Y124.643 E3.78207
G1 X83.637 Y121.390 E3.88903
G1 X82.654 Y121.866 E3.92283
G1 X78.629 Y124.628 E4.07387
G1 X76.757 Y124.639 E4.13177
G1 X75.747 Y121.942 E4.22090
G1 X75.740 Y116.096 E4.40177
G1 X79.397 Y110.129 E4.61834
G1 X79.645 Y109.553 E4.63772
G1 X75.726 Y108.537 E4.76299
G1 X75.733 Y100.538 E5.01047
G1 X78.739 Y95.694 E5.18687
G1 X75.732 Y90.897 E5.36206
G1 X75.733 Y80.342 E5.68865
G1 X77.037 Y75.356 E5.84808
G1 X79.329 Y75.373 E5.91899
G1 X82.434 Y78.076 E6.04639
G1 X83.707 Y75.343 E6.13967
G1 X88.638 Y75.346 E6.29226
G1 X90.245 Y77.914 E6.38597
G1 X96.963 Y75.419 E6.60772
G1 X97.063 Y75.364 E6.61123
G1 X108.036 Y75.351 E6.95076
G1 X113.302 Y77.286 E7.12434
G1 X116.618 Y75.362 E7.24297
G1 X122.186 Y75.361 E7.41524
G1 X125.016 Y80.908 E7.60793
G1 X125.020 Y92.590 E7.96938
G1 X124.358 Y98.422 E8.15098
G1 X125.026 Y101.762 E8.25636
G1 X125.029 Y108.934 E8.47828
G1 X124.626 Y110.839 E8.53854
G1 X124.233 Y110.875 E8.55075
G1 X123.809 Y111.240 F7800.000
G1 X123.188 Y112.163 F7800.000
G1 F1800.000
G1 X123.312 Y112.335 E8.55735
G1 X123.397 Y112.499 E8.56313
G1 X123.396 Y112.849 E8.57408
G1 X122.491 Y113.754 E8.61412
G1 E6.61412 F2400.00000
G92 E0
G1 X122.906 Y121.376 F7800.000
G1 E2.00000 F2400.00000
G1 F1800.000
G1 X123.392 Y120.890 E2.02150
G1 X123.391 Y119.999 E2.04937
G1 X121.725 Y121.664 E2.12302
G1 X120.544 Y121.952 E2.16103
G1 X123.389 Y119.107 E2.28682
G1 X123.387 Y118.216 E2.31469
G1 X119.363 Y122.240 E2.49264
G1 X118.182 Y122.528 E2.53064
G1 X123.243 Y117.467 E2.75445
G1 X122.474 Y117.343 E2.77882
G1 X117.001 Y122.816 E3.02082
G1 X116.149 Y123.024 E3.04824
G1 X115.901 Y123.023 E3.05601
G1 X122.187 Y116.737 E3.33401
G1 X122.199 Y115.832 E3.36230
G1 X115.008 Y123.023 E3.68026
G1 X114.116 Y123.022 E3.70816
G1 X122.211 Y114.927 E4.06610
G1 X122.222 Y114.023 E4.09439
G1 X113.224 Y123.021 E4.49229
G1 X112.332 Y123.020 E4.52019
G1 X123.188 Y112.163 E5.00028
G1 X123.086 Y112.022 E5.00573
G1 X122.505 Y111.953 E5.02402
G1 X111.439 Y123.019 E5.51337
G1 X110.547 Y123.019 E5.54127
G1 X121.707 Y111.859 E6.03475
G1 X120.908 Y111.765 E6.05990
G1 X109.655 Y123.018 E6.55751
G1 X108.762 Y123.017 E6.58541
G1 X120.109 Y111.670 E7.08716
G1 X119.310 Y111.576 E7.11231
G1 X107.870 Y123.016 E7.61819
G1 X106.978 Y123.016 E7.64609
G1 X118.511 Y111.482 E8.15610
G1 X117.713 Y111.388 E8.18125
G1 X106.086 Y123.015 E8.69540
G1 X105.193 Y123.014 E8.72330
G1 X116.914 Y111.293 E9.24159
G1 X116.115 Y111.199 E9.26674
G1 X104.301 Y123.013 E9.78916
G1 X103.409 Y123.012 E9.81706
G1 X115.366 Y111.055 E10.34580
G1 X114.621 Y110.907 E10.36954
G1 X102.516 Y123.012 E10.90482
G1 X101.624 Y123.011 E10.93272
G1 X113.996 Y110.639 E11.47978
G1 X113.964 Y109.778 E11.50673
G1 X100.732 Y123.010 E12.09184
G1 X99.840 Y123.009 E12.11974
G1 X113.932 Y108.917 E12.74290
G1 X113.900 Y108.056 E12.76985
G1 X98.947 Y123.008 E13.43105
G1 X98.055 Y123.008 E13.45895
G1 X113.868 Y107.195 E14.15821
G1 E12.15821 F2400.00000
G92 E0
G1 X121.683 Y104.738 F7800.000
G1 E2.00000 F2400.00000
G1 F1800.000
G1 X123.395 Y103.027 E2.07570
G1 X123.395 Y102.977 E2.07726
G1 X122.528 Y103.000 E2.10436
G1 X120.033 Y105.495 E2.21470
G1 X118.664 Y105.971 E2.26001
G1 X121.610 Y103.025 E2.39027
G1 X121.390 Y103.031 E2.39717
G1 X121.207 Y102.535 E2.41369
G1 X117.296 Y106.446 E2.58667
G1 X115.927 Y106.922 E2.63197
G1 X120.967 Y101.882 E2.85484
G1 X120.727 Y101.229 E2.87659
G1 X114.622 Y107.333 E3.14651
G1 X113.390 Y107.673 E3.18649
G1 X120.486 Y100.577 E3.50029
G1 X120.246 Y99.924 E3.52204
G1 X102.291 Y117.879 E4.31600
G1 X102.234 Y117.042 E4.34222
G1 X120.005 Y99.271 E5.12806
