;Generated with Cura_SteamEngine 15.01
; Default start code
G28 ; Home extruder
G1 Z15 F100
M107 ; Turn off fan
G90 ; Absolute positioning
M82 ; Extruder in absolute mode
M190 S50
; Activate all used extruder
M104 T0 S210
G92 E0 ; Reset extruder position
; Wait for all used extruders to reach temperature
M109 T0 S210
;Layer count: 32
;LAYER:0
M107
G0 F9000 X83.397 Y77.212 Z0.300
;TYPE:SKIRT
G1 F1800 X84.800 Y76.623 E0.07591
G1 X85.575 Y76.652 E0.11461
G1 X86.002 Y75.303 E0.18520
G1 X86.887 Y74.384 E0.24885
G1 X88.332 Y73.592 E0.33106
G1 X89.945 Y73.811 E0.41227
G1 X90.479 Y71.993 E0.50680
G1 X91.741 Y71.785 E0.57062
G1 X92.762 Y70.952 E0.63636
G1 X94.773 Y72.014 E0.74982
G1 X95.601 Y71.074 E0.81231
G1 X97.115 Y70.363 E0.89576
G1 X98.895 Y70.558 E0.98510
G1 X99.972 Y71.327 E1.05112
G1 X100.489 Y70.630 E1.09441
G1 X101.237 Y70.579 E1.13182
G1 X101.979 Y70.143 E1.17475
G1 X104.206 Y70.895 E1.29202
G1 X105.193 Y71.953 E1.36421
G1 X105.220 Y72.012 E1.36745
G1 X106.548 Y71.344 E1.44161
G1 X108.494 Y71.914 E1.54278
G1 X109.951 Y73.063 E1.63535
G1 X110.090 Y73.828 E1.67414
G1 X111.567 Y73.536 E1.74925
G1 X113.551 Y74.615 E1.86193
G1 X113.824 Y75.186 E1.89350
G1 X114.514 Y75.933 E1.94424
G1 X114.457 Y76.587 E1.97699
G1 X115.363 Y76.353 E2.02367
G1 X118.072 Y78.506 E2.19631
G1 X117.965 Y80.164 E2.27920
G1 X117.989 Y80.162 E2.28040
G1 X118.504 Y80.369 E2.30809
G1 X119.524 Y80.576 E2.36002
G1 X120.836 Y82.418 E2.47285
G1 X120.883 Y83.261 E2.51497
G1 X121.017 Y84.232 E2.56387
G1 X120.918 Y84.428 E2.57483
G1 X120.972 Y84.456 E2.57786
G1 X121.938 Y84.684 E2.62738
G1 X123.073 Y86.535 E2.73570
G1 X123.244 Y88.657 E2.84191
G1 X123.033 Y88.941 E2.85957
G1 X124.853 Y90.683 E2.98525
G1 X124.699 Y92.121 E3.05741
G1 X124.726 Y93.381 E3.12028
G1 X124.315 Y93.789 E3.14918
G1 X124.562 Y93.916 E3.16303
G1 X125.545 Y95.489 E3.25557
G1 X125.560 Y96.709 E3.31644
G1 X125.334 Y98.345 E3.39884
G1 X124.903 Y98.672 E3.42583
G1 X125.229 Y98.873 E3.44494
G1 X125.859 Y100.979 E3.55461
G1 X125.448 Y102.898 E3.65252
G1 X124.583 Y103.635 E3.70921
G1 X124.742 Y103.802 E3.72072
G1 X125.358 Y105.271 E3.80019
G1 X125.077 Y106.796 E3.87755
G1 X124.545 Y107.759 E3.93244
G1 X123.695 Y108.578 E3.99133
G1 X123.937 Y109.274 E4.02809
G1 X124.174 Y111.147 E4.12228
G1 X122.566 Y113.057 E4.24684
G1 X121.983 Y113.229 E4.27717
G1 X122.302 Y115.338 E4.38358
G1 X120.447 Y117.456 E4.52405
G1 X119.595 Y117.590 E4.56708
G1 X119.623 Y117.657 E4.57070
G1 X119.493 Y118.453 E4.61094
G1 X119.449 Y119.455 E4.66098
G1 X118.435 Y120.648 E4.73909
G1 X117.084 Y121.609 E4.82181
G1 X116.291 Y121.529 E4.86157
G1 X116.286 Y121.530 E4.86182
G1 X116.326 Y121.943 E4.88252
G1 X115.715 Y123.386 E4.96070
G1 X114.498 Y124.509 E5.04332
G1 X113.992 Y124.612 E5.06908
G1 X113.053 Y125.122 E5.12239
G1 X112.275 Y124.819 E5.16405
G1 X111.869 Y126.296 E5.24047
G1 X110.203 Y127.146 E5.33378
G1 X109.991 Y127.193 E5.34461
G1 X108.676 Y127.707 E5.41505
G1 X107.715 Y127.144 E5.47062
G1 X107.609 Y127.500 E5.48915
G1 X106.336 Y128.598 E5.57302
G1 X105.983 Y128.705 E5.59142
G1 X104.467 Y129.624 E5.67987
G1 X102.625 Y128.323 E5.79238
G1 X101.752 Y129.566 E5.86816
G1 X98.242 Y129.547 E6.04327
G1 X97.384 Y128.333 E6.11744
G1 X95.505 Y129.516 E6.22822
G1 X94.204 Y128.795 E6.30242
G1 X93.152 Y128.571 E6.35609
G1 X92.346 Y127.120 E6.43889
G1 X91.463 Y127.665 E6.49066
G1 X88.848 Y126.813 E6.62788
G1 X87.651 Y125.075 E6.73316
G1 X87.643 Y124.841 E6.74484
G1 X86.974 Y125.091 E6.78047
G1 X86.211 Y124.702 E6.82320
G1 X85.172 Y124.608 E6.87525
G1 X83.687 Y122.312 E7.01167
G1 X83.728 Y121.523 E7.05108
G1 X82.648 Y121.617 E7.10517
G1 X80.559 Y119.666 E7.24777
G1 X80.507 Y118.471 E7.30745
G1 X80.363 Y117.647 E7.34918
G1 X80.368 Y117.637 E7.34974
G1 X79.687 Y117.596 E7.38378
G1 X77.548 Y115.186 E7.54454
G1 X77.934 Y113.732 E7.61959
G1 X77.975 Y113.237 E7.64437
G1 X77.470 Y113.104 E7.67043
G1 X75.856 Y111.194 E7.79518
G1 X76.123 Y108.636 E7.92349
G1 X76.264 Y108.477 E7.93410
G1 X75.695 Y108.172 E7.96631
G1 X74.924 Y106.810 E8.04439
G1 X74.609 Y105.082 E8.13202
G1 X75.407 Y103.631 E8.21463
G1 X75.409 Y103.629 E8.21478
G1 X74.549 Y102.907 E8.27080
G1 X74.130 Y100.918 E8.37221
G1 X74.824 Y98.849 E8.48108
G1 X75.143 Y98.648 E8.49989
G1 X74.814 Y98.357 E8.52181
G1 X74.434 Y96.930 E8.59548
G1 X74.434 Y95.544 E8.66463
G1 X75.156 Y94.340 E8.73467
G1 X75.753 Y93.781 E8.77547
G1 X75.377 Y93.333 E8.80465
G1 X75.177 Y90.343 E8.95416
G1 X77.019 Y89.027 E9.06710
G1 X76.731 Y88.645 E9.09096
G1 X76.939 Y86.548 E9.19610
G1 X77.653 Y85.319 E9.26701
G1 X78.945 Y84.357 E9.34737
G1 X79.054 Y84.347 E9.35283
G1 X79.006 Y84.249 E9.35828
G1 X79.225 Y82.278 E9.45722
G1 X80.477 Y80.650 E9.55968
G1 X81.854 Y80.262 E9.63105
G1 X82.038 Y80.249 E9.64026
G1 X81.972 Y78.818 E9.71172
G1 X83.397 Y77.212 E9.81884
G1 F2400 E5.81884
G0 F9000 X86.091 Y80.904
;TYPE:WALL-INNER
G1 F2400 E9.81884
G1 F1800 X86.002 Y80.615 E9.83393
G1 X86.767 Y80.891 E9.87450
G1 X86.851 Y80.936 E9.87926
G1 X86.954 Y80.966 E9.88461
G1 X87.236 Y81.084 E9.89986
G1 X87.340 Y81.145 E9.90587
G1 X87.403 Y81.162 E9.90913
G1 X88.002 Y81.466 E9.94264
G1 X88.406 Y81.675 E9.96534
G1 X88.944 Y81.490 E9.99372
G1 X89.521 Y81.015 E10.03101
G1 X89.786 Y80.788 E10.04841
G1 X89.824 Y80.666 E10.05479
G1 X90.014 Y80.401 E10.07106
G1 X89.791 Y79.623 E10.11143
G1 X89.661 Y79.084 E10.13910
G1 X89.491 Y78.119 E10.18798
G1 X89.459 Y77.788 E10.20457
G1 X90.279 Y78.285 E10.25241
G1 X90.803 Y78.647 E10.28418
G1 X91.221 Y78.979 E10.31082
G1 X91.740 Y79.334 E10.34219
G1 X92.311 Y79.181 E10.37168
G1 X92.380 Y79.124 E10.37614
G1 X93.120 Y78.730 E10.41797
G1 X93.328 Y78.404 E10.43726
G1 X93.352 Y78.125 E10.45123
G1 X93.342 Y77.360 E10.48940
G1 X93.353 Y76.681 E10.52328
G1 X93.421 Y75.815 E10.56662
G1 X93.432 Y75.736 E10.57060
G1 X94.258 Y76.577 E10.62941
G1 X94.765 Y77.170 E10.66833
G1 X95.275 Y77.770 E10.70762
G1 X95.825 Y77.753 E10.73507
G1 X96.455 Y77.585 E10.76760
G1 X96.872 Y77.462 E10.78929
G1 X97.118 Y77.173 E10.80823
G1 X97.254 Y76.477 E10.84361
G1 X97.385 Y75.905 E10.87288
G1 X97.672 Y74.907 E10.92469
G1 X97.766 Y74.656 E10.93806
G1 X98.264 Y75.474 E10.98584
G1 X98.688 Y76.262 E11.03048
G1 X98.722 Y76.329 E11.03423
G1 X98.732 Y76.364 E11.03605
G1 X98.944 Y76.770 E11.05890
G1 X99.295 Y77.144 E11.08449
G1 X99.583 Y77.187 E11.09902
G1 X100.265 Y77.197 E11.13305
G1 X100.357 Y77.198 E11.13764
G1 X100.397 Y77.197 E11.13963
G1 X100.411 Y77.191 E11.14039
G1 X100.712 Y77.155 E11.15552
G1 X101.087 Y76.761 E11.18265
G1 X101.156 Y76.576 E11.19250
G1 X101.519 Y75.855 E11.23278
G1 X101.941 Y75.092 E11.27628
G1 X102.238 Y74.659 E11.30247
G1 X102.505 Y75.465 E11.34483
G1 X102.687 Y76.188 E11.38203
G1 X102.698 Y76.236 E11.38449
G1 X102.702 Y76.291 E11.38724
G1 X102.822 Y76.892 E11.41781
G1 X102.883 Y77.187 E11.43284
G1 X103.133 Y77.461 E11.45135
G1 X103.568 Y77.604 E11.47419
G1 X103.600 Y77.606 E11.47579
G1 X104.298 Y77.782 E11.51170
G1 X104.418 Y77.738 E11.51808
G1 X104.721 Y77.752 E11.53321
G1 X105.262 Y77.113 E11.57498
G1 X105.657 Y76.663 E11.60486
G1 X106.187 Y76.092 E11.64372
G1 X106.566 Y75.744 E11.66940
G1 X106.601 Y75.990 E11.68179
G1 X106.649 Y76.894 E11.72696
G1 X106.655 Y77.231 E11.74377
G1 X106.633 Y78.014 E11.78285
G1 X106.640 Y78.070 E11.78567
G1 X106.612 Y78.429 E11.80363
G1 X106.986 Y78.796 E11.82977
G1 X107.557 Y79.093 E11.86188
G1 X107.686 Y79.170 E11.86938
G1 X108.244 Y79.340 E11.89848
G1 X108.772 Y78.993 E11.93000
G1 X109.223 Y78.634 E11.95876
G1 X109.690 Y78.298 E11.98746
G1 X110.248 Y77.943 E12.02046
G1 X110.539 Y77.784 E12.03700
G1 X110.430 Y78.629 E12.07951
G1 X110.319 Y79.164 E12.10677
G1 X110.181 Y79.716 E12.13516
G1 X109.999 Y80.338 E12.16749
G1 X110.196 Y80.773 E12.19131
G1 X110.755 Y81.243 E12.22775
G1 X111.077 Y81.504 E12.24843
G1 X111.544 Y81.657 E12.27295
G1 X111.808 Y81.563 E12.28693
G1 X112.319 Y81.302 E12.31555
G1 X112.950 Y81.000 E12.35045
G1 X113.902 Y80.638 E12.40127
G1 X113.996 Y80.611 E12.40615
G1 X113.855 Y81.075 E12.43034
G1 X113.596 Y81.708 E12.46446
G1 X113.272 Y82.409 E12.50299
G1 X113.039 Y82.843 E12.52757
G1 X113.002 Y83.081 E12.53958
G1 X112.997 Y83.404 E12.55570
G1 X113.470 Y83.995 E12.59346
G1 X113.755 Y84.344 E12.61594
G1 X114.093 Y84.658 E12.63896
G1 X114.600 Y84.558 E12.66474
G1 X115.092 Y84.407 E12.69042
G1 X115.852 Y84.231 E12.72934
G1 X116.357 Y84.134 E12.75499
G1 X116.833 Y84.083 E12.77888
G1 X116.587 Y84.536 E12.80459
G1 X116.051 Y85.336 E12.85264
G1 X115.843 Y85.615 E12.87000
G1 X115.832 Y85.622 E12.87065
G1 X115.370 Y86.232 E12.90883
G1 X115.396 Y86.751 E12.93475
G1 X115.725 Y87.341 E12.96845
G1 X115.904 Y87.669 E12.98710
G1 X116.252 Y88.103 E13.01485
G1 X116.657 Y88.070 E13.03512
G1 X116.756 Y88.080 E13.04009
G1 X117.746 Y87.986 E13.08970
G1 X118.704 Y87.971 E13.13750
G1 X118.929 Y87.983 E13.14874
G1 X118.904 Y88.122 E13.15579
G1 X118.318 Y88.797 E13.20038
G1 X117.823 Y89.296 E13.23545
G1 X117.201 Y89.858 E13.27727
G1 X117.198 Y90.075 E13.28810
G1 X117.111 Y90.279 E13.29916
G1 X117.395 Y91.076 E13.34138
G1 X117.469 Y91.278 E13.35211
G1 X117.635 Y91.621 E13.37112
G1 X117.904 Y91.880 E13.38975
G1 X118.184 Y91.891 E13.40373
G1 X118.388 Y91.920 E13.41401
G1 X119.084 Y91.969 E13.44882
G1 X119.740 Y92.054 E13.48182
G1 X119.875 Y92.063 E13.48857
G1 X120.398 Y92.164 E13.51515
G1 X120.518 Y92.194 E13.52132
G1 X120.183 Y92.507 E13.54419
G1 X119.371 Y93.127 E13.59516
G1 X118.797 Y93.507 E13.62950
G1 X118.568 Y93.673 E13.64361
G1 X118.278 Y93.977 E13.66457
G1 X118.332 Y94.283 E13.68008
G1 X118.330 Y94.433 E13.68756
G1 X118.463 Y95.142 E13.72355
G1 X118.538 Y95.553 E13.74439
G1 X118.754 Y95.830 E13.76192
G1 X119.157 Y95.981 E13.78339
G1 X120.121 Y96.188 E13.83258
G1 X121.164 Y96.504 E13.88695
G1 X121.362 Y96.585 E13.89762
G1 X120.831 Y96.936 E13.92938
G1 X120.274 Y97.241 E13.96106
G1 X119.722 Y97.523 E13.99199
G1 X119.297 Y97.723 E14.01542
G1 X119.004 Y97.976 E14.03473
G1 X118.844 Y98.236 E14.04996
G1 X118.878 Y99.167 E14.09644
G1 X118.902 Y99.526 E14.11439
G1 X118.961 Y99.632 E14.12045
G1 X119.005 Y99.908 E14.13439
G1 X119.509 Y100.147 E14.16222
G1 X120.047 Y100.349 E14.19089
G1 X120.585 Y100.578 E14.22006
G1 X121.308 Y100.934 E14.26027
G1 X121.528 Y101.063 E14.27299
G1 X120.987 Y101.306 E14.30258
G1 X120.451 Y101.515 E14.33128
G1 X120.392 Y101.518 E14.33423
G1 X120.292 Y101.571 E14.33987
G1 X120.121 Y101.623 E14.34879
G1 X120.101 Y101.624 E14.34979
G1 X119.490 Y101.805 E14.38158
G1 X119.064 Y101.957 E14.40415
G1 X118.795 Y102.356 E14.42816
G1 X118.713 Y103.023 E14.46168
G1 X118.661 Y103.556 E14.48840
G1 X118.738 Y103.942 E14.50804
G1 X119.054 Y104.202 E14.52845
G1 X119.736 Y104.605 E14.56798
G1 X120.324 Y104.984 E14.60288
G1 X120.868 Y105.366 E14.63604
G1 X121.030 Y105.500 E14.64653
G1 X120.182 Y105.723 E14.69027
G1 X119.531 Y105.838 E14.72326
G1 X119.054 Y105.910 E14.74732
G1 X118.589 Y105.966 E14.77069
G1 X118.299 Y106.155 E14.78796
G1 X118.122 Y106.372 E14.80193
G1 X117.946 Y107.038 E14.83630
G1 X117.835 Y107.463 E14.85821
G1 X117.789 Y107.991 E14.88465
G1 X118.574 Y108.629 E14.93512
G1 X119.049 Y109.040 E14.96646
G1 X119.550 Y109.499 E15.00036
G1 X119.844 Y109.820 E15.02207
G1 X119.395 Y109.886 E15.04472
G1 X118.762 Y109.923 E15.07635
G1 X118.087 Y109.938 E15.11003
G1 X117.644 Y109.917 E15.13216
G1 X117.534 Y109.934 E15.13771
G1 X117.345 Y109.933 E15.14714
G1 X116.961 Y110.026 E15.16685
G1 X116.583 Y110.830 E15.21118
G1 X116.555 Y110.893 E15.21462
G1 X116.529 Y110.931 E15.21691
G1 X116.372 Y111.291 E15.23651
G1 X116.322 Y111.830 E15.26351
G1 X116.877 Y112.451 E15.30507
G1 X117.260 Y112.879 E15.33372
G1 X117.601 Y113.312 E15.36122
G1 X117.926 Y113.759 E15.38879
G1 X118.015 Y113.899 E15.39707
G1 X117.476 Y113.868 E15.42400
G1 X116.521 Y113.761 E15.47195
G1 X115.767 Y113.617 E15.51024
G1 X115.677 Y113.604 E15.51478
G1 X115.252 Y113.623 E15.53600
G1 X114.959 Y113.843 E15.55428
G1 X114.714 Y114.201 E15.57593
G1 X114.596 Y114.280 E15.58301
G1 X114.567 Y114.416 E15.58995
G1 X114.348 Y114.733 E15.60917
G1 X114.212 Y115.243 E15.63550
G1 X114.682 Y116.008 E15.68030
G1 X114.993 Y116.552 E15.71156
G1 X115.239 Y117.021 E15.73798
G1 X115.272 Y117.073 E15.74105
G1 X115.496 Y117.596 E15.76944
G1 X114.986 Y117.479 E15.79554
G1 X114.079 Y117.205 E15.84281
G1 X113.482 Y116.971 E15.87481
G1 X112.978 Y116.775 E15.90178
G1 X112.644 Y116.921 E15.91997
G1 X112.445 Y117.049 E15.93177
G1 X112.002 Y117.501 E15.96335
G1 X111.746 Y117.775 E15.98206
G1 X111.509 Y118.143 E16.00390
G1 X111.807 Y118.944 E16.04653
G1 X112.033 Y119.626 E16.08238
G1 X112.065 Y119.684 E16.08568
G1 X112.337 Y120.702 E16.13825
G1 X112.347 Y120.758 E16.14109
G1 X111.966 Y120.602 E16.16163
G1 X111.272 Y120.246 E16.20054
G1 X110.412 Y119.730 E16.25058
G1 X110.072 Y119.507 E16.27087
G1 X109.548 Y119.568 E16.29719
G1 X108.987 Y119.948 E16.33099
G1 X108.639 Y120.186 E16.35202
G1 X108.406 Y120.496 E16.37137
G1 X108.408 Y120.785 E16.38579
G1 X108.394 Y120.869 E16.39004
G1 X108.492 Y121.443 E16.41909
G1 X108.581 Y122.311 E16.46262
G1 X108.613 Y122.779 E16.48602
G1 X108.618 Y123.228 E16.50843
G1 X108.023 Y122.784 E16.54547
G1 X107.091 Y121.942 E16.60813
G1 X106.674 Y121.519 E16.63776
G1 X106.254 Y121.448 E16.65901
G1 X106.002 Y121.505 E16.67190
G1 X105.368 Y121.751 E16.70583
G1 X105.045 Y121.904 E16.72366
G1 X104.809 Y122.158 E16.74096
G1 X104.662 Y123.563 E16.81144
G1 X104.587 Y124.087 E16.83785
G1 X104.455 Y124.734 E16.87079
G1 X104.439 Y124.794 E16.87389
G1 X104.189 Y124.520 E16.89239
G1 X103.673 Y123.839 E16.93502
G1 X103.369 Y123.404 E16.96150
G1 X103.360 Y123.377 E16.96292
G1 X102.941 Y122.766 E16.99988
G1 X102.705 Y122.589 E17.01460
G1 X102.324 Y122.525 E17.03387
G1 X101.656 Y122.599 E17.06740
G1 X101.101 Y122.671 E17.09532
G1 X100.731 Y123.638 E17.14698
G1 X100.570 Y124.071 E17.17003
G1 X100.491 Y124.170 E17.17634
G1 X100.464 Y124.330 E17.18444
G1 X100.258 Y124.836 E17.21170
G1 X99.997 Y125.357 E17.24077
G1 X99.747 Y124.829 E17.26991
G1 X99.464 Y124.156 E17.30634
G1 X99.191 Y123.405 E17.34620
G1 X98.952 Y122.835 E17.37704
G1 X98.677 Y122.642 E17.39380
G1 X98.026 Y122.564 E17.42651
G1 X97.909 Y122.533 E17.43255
G1 X97.777 Y122.544 E17.43916
G1 X97.501 Y122.516 E17.45300
G1 X97.142 Y122.644 E17.47201
G1 X96.938 Y122.896 E17.48819
G1 X96.645 Y123.377 E17.51629
G1 X96.359 Y123.789 E17.54131
G1 X96.020 Y124.258 E17.57018
G1 X95.686 Y124.667 E17.59653
G1 X95.567 Y124.799 E17.60539
G1 X95.378 Y123.829 E17.65470
G1 X95.311 Y123.334 E17.67962
G1 X95.255 Y122.837 E17.70457
G1 X95.183 Y122.149 E17.73908
G1 X94.955 Y121.904 E17.75578
G1 X94.625 Y121.748 E17.77399
G1 X94.042 Y121.527 E17.80509
G1 X93.889 Y121.467 E17.81329
G1 X93.355 Y121.489 E17.83996
G1 X92.824 Y122.031 E17.87781
G1 X92.398 Y122.426 E17.90680
G1 X91.911 Y122.839 E17.93865
G1 X91.449 Y123.183 E17.96739
G1 X91.389 Y123.224 E17.97102
G1 X91.390 Y122.830 E17.99067
G1 X91.444 Y122.007 E18.03182
G1 X91.526 Y121.295 E18.06758
G1 X91.631 Y120.702 E18.09762
G1 X91.549 Y120.542 E18.10659
G1 X91.504 Y120.283 E18.11971
G1 X90.756 Y119.776 E18.16479
G1 X90.484 Y119.590 E18.18123
G1 X89.956 Y119.493 E18.20801
G1 X89.327 Y119.885 E18.24499
G1 X88.848 Y120.175 E18.27292
G1 X88.319 Y120.464 E18.30300
G1 X87.869 Y120.682 E18.32794
G1 X87.647 Y120.772 E18.33990
G1 X87.758 Y120.307 E18.36375
G1 X88.011 Y119.462 E18.40775
G1 X88.238 Y118.838 E18.44088
G1 X88.496 Y118.099 E18.47993
G1 X88.085 Y117.586 E18.51273
G1 X87.693 Y117.193 E18.54042
G1 X87.122 Y116.747 E18.57657
G1 X86.451 Y116.979 E18.61199
G1 X86.421 Y117.007 E18.61403
G1 X85.730 Y117.272 E18.65096
G1 X85.244 Y117.415 E18.67623
G1 X84.502 Y117.600 E18.71438
G1 X84.888 Y116.771 E18.76001
G1 X85.237 Y116.136 E18.79615
G1 X85.580 Y115.588 E18.82841
G1 X85.785 Y115.234 E18.84882
G1 X85.651 Y114.733 E18.87469
G1 X85.306 Y114.233 E18.90500
G1 X85.012 Y113.799 E18.93115
G1 X84.675 Y113.632 E18.94991
G1 X84.407 Y113.589 E18.96346
G1 X83.453 Y113.767 E19.01187
G1 X83.239 Y113.775 E19.02256
G1 X83.171 Y113.805 E19.02626
G1 X82.691 Y113.858 E19.05036
G1 X82.005 Y113.883 E19.08461
G1 X82.279 Y113.467 E19.10946
G1 X82.613 Y113.040 E19.13650
G1 X82.942 Y112.658 E19.16165
G1 X83.708 Y111.777 E19.21990
G1 X83.589 Y111.204 E19.24910
