; generated by PrusaSlicer 2.6.1+win64 on 2024-04-25 at 13:06:07 UTC

; 

; external perimeters extrusion width = 0.45mm
; perimeters extrusion width = 0.45mm
; infill extrusion width = 0.45mm
; solid infill extrusion width = 0.45mm
; top infill extrusion width = 0.42mm
; first layer extrusion width = 0.50mm

M73 P0 R14
M201 X4000 Y4000 Z200 E2500 ; sets maximum accelerations, mm/sec^2
M203 X300 Y300 Z40 E100 ; sets maximum feedrates, mm / sec
M204 P4000 R1200 T4000 ; sets acceleration (P, T) and retract acceleration (R), mm/sec^2
M205 X8.00 Y8.00 Z2.00 E10.00 ; sets the jerk limits, mm/sec
M205 S0 T0 ; sets the minimum extruding and travel feed rate, mm/sec
;TYPE:Custom
M17 ; enable steppers
M862.1 P0.4 ; nozzle diameter check
M862.3 P "MK4" ; printer model check
M862.5 P2 ; g-code level check
M862.6 P"Input shaper" ; FW feature check
M115 U5.1.2+13478

M555 X77.5604 Y69.7705 W44.8795 H56.4505

G90 ; use absolute coordinates
M83 ; extruder relative mode

M140 S85 ; set bed temp
M104 T0 S175 ; set extruder temp for bed leveling
M109 T0 R175 ; wait for temp

M84 E ; turn off E motor

G28 ; home all without mesh bed level

G1 X42 Y-4 Z5 F4800

M302 S160 ; lower cold extrusion limit to 160C


G1 E-2 F2400 ; retraction


M84 E ; turn off E motor

G29 P9 X10 Y-4 W32 H4



G0 Z40 F10000

M190 S85 ; wait for bed temp

M107

;
; MBL
;
M84 E ; turn off E motor
G29 P1 ; invalidate mbl & probe print area
G29 P1 X0 Y0 W50 H20 C ; probe near purge place
G29 P3.2 ; interpolate mbl probes
G29 P3.13 ; extrapolate mbl outside probe area
G29 A ; activate mbl

; prepare for purge
M104 S240
G0 X0 Y-4 Z15 F4800 ; move away and ready for the purge
M109 S240

G92 E0
M569 S0 E ; set spreadcycle mode for extruder

;
; Extrude purge line
;
G92 E0 ; reset extruder position
G1 E2 F2400 ; deretraction after the initial one before nozzle cleaning
G0 E7 X15 Z0.2 F500 ; purge
G0 X25 E4 F500 ; purge
G0 X35 E4 F650 ; purge
G0 X45 E4 F800 ; purge
G0 X48 Z0.05 F8000 ; wipe, move close to the bed
G0 X51 Z0.2 F8000 ; wipe, move quickly away from the bed

G92 E0
M221 S100 ; set flow to 100%
G21 ; set units to millimeters
G90 ; use absolute coordinates
M83 ; use relative distances for extrusion
M900 K0.07 ; Filament gcode


M572 S0.055 ; Filament gcode


M142 S36 ; set heatbreak target temp
M107
;LAYER_CHANGE
;Z:0.2
;HEIGHT:0.2
;BEFORE_LAYER_CHANGE
G92 E0.0
;0.2
M201 X4000 Y4000
M74 W0

G1 E-.8 F2100
G1 Z.2 F720
;AFTER_LAYER_CHANGE
;0.2
; printing object Object Group 3 id:0 copy 0
G1 Z.4
M204 T4000
G1 X118.446 Y105.47 F18000
G1 Z.2 F720
G1 E.8 F2100
M204 P500
;TYPE:Perimeter
;WIDTH:0.700225
G1 F2400
G1 X118.495 Y105.079 E.02154
G1 X118.614 Y104.529 E.03076
G1 X119.136 Y104.866 E.03396
G1 X119.782 Y105.258 E.0413
G1 X119.526 Y105.317 E.01436
G1 X118.997 Y105.377 E.0291
M73 P1 R14
G1 X118.506 Y105.46 E.02722
M204 P4000
G1 E-.16 F2100
;WIPE_START
G1 F14400
G1 X118.495 Y105.079 E-.05281
G1 X118.614 Y104.529 E-.07796
G1 X119.136 Y104.866 E-.08608
G1 X119.782 Y105.258 E-.10469
G1 X119.526 Y105.317 E-.0364
G1 X118.997 Y105.377 E-.07376
G1 X118.506 Y105.46 E-.06899
;WIPE_END
G1 E-.13931 F2100
G1 Z.4 F720
G1 X117.264 Y109.411 F18000
G1 Z.2 F720
G1 E.8 F2100
M204 P500
;WIDTH:0.694755
G1 F2400
G1 X117.432 Y109.043 E.02193
G1 X117.59 Y108.483 E.03154
G1 X117.832 Y108.711 E.01802
G1 X118.685 Y109.404 E.05957
G1 X117.324 Y109.412 E.07377
M204 P4000
G1 E-.16 F2100
;WIPE_START
G1 F14400
G1 X117.432 Y109.043 E-.05327
G1 X117.59 Y108.483 E-.08061
G1 X117.832 Y108.711 E-.04606
G1 X118.685 Y109.404 E-.15226
G1 X117.324 Y109.412 E-.18856
;WIPE_END
G1 E-.11924 F2100
G1 Z.4 F720
G1 X115.486 Y113.12 F18000
G1 Z.2 F720
G1 E.8 F2100
M204 P500
;WIDTH:0.670851
G1 F2400
G1 X115.572 Y112.956 E.00967
G1 X115.814 Y112.728 E.01736
G1 X116.033 Y112.249 E.0275
G1 X116.21 Y112.475 E.01499
G1 X116.962 Y113.314 E.05883
G1 X116.465 Y113.24 E.02624
G1 X115.955 Y113.129 E.02725
G1 X115.546 Y113.122 E.02136
M204 P4000
G1 E-.16 F2100
;WIPE_START
G1 F14400
G1 X115.572 Y112.956 E-.02328
G1 X115.814 Y112.728 E-.04606
G1 X116.033 Y112.249 E-.07297
G1 X116.21 Y112.475 E-.03977
G1 X116.962 Y113.314 E-.15609
G1 X116.465 Y113.24 E-.06961
G1 X115.955 Y113.129 E-.07231
G1 X115.546 Y113.122 E-.05667
;WIPE_END
G1 E-.10324 F2100
G1 Z.4 F720
G1 X113.193 Y116.321 F18000
G1 Z.2 F720
G1 E.8 F2100
M204 P500
;WIDTH:0.679047
G1 F2400
G1 X113.339 Y116.142 E.01222
G1 X113.601 Y115.963 E.01678
G1 X113.819 Y115.597 E.02253
G1 X114.319 Y116.418 E.05085
G1 X114.523 Y116.808 E.02328
G1 X114.379 Y116.765 E.00795
G1 X113.711 Y116.497 E.03807
G1 X113.249 Y116.34 E.02581
M204 P4000
G1 E-.16 F2100
;WIPE_START
G1 F14400
G1 X113.339 Y116.142 E-.03013
G1 X113.601 Y115.963 E-.04396
G1 X113.819 Y115.597 E-.05902
G1 X114.319 Y116.418 E-.13318
G1 X114.523 Y116.808 E-.06098
G1 X114.379 Y116.765 E-.02082
G1 X113.711 Y116.497 E-.09972
G1 X113.249 Y116.34 E-.0676
;WIPE_END
G1 E-.12459 F2100
G1 Z.4 F720
G1 X118.96 Y100.455 F18000
G1 Z.2 F720
G1 E.8 F2100
M204 P500
;WIDTH:0.686119
G1 F2400
G1 X119.12 Y100.557 E.01015
G1 X119.626 Y100.735 E.02869
G1 X120.126 Y100.975 E.02966
;WIDTH:0.671033
G1 X120.389 Y101.031 E.01404
G1 X120.123 Y101.068 E.01403
;WIDTH:0.686119
G1 X119.566 Y101.221 E.03089
G1 X118.937 Y101.451 E.03582
G1 X118.959 Y100.515 E.05007
M204 P4000
G1 E-.16 F2100
;WIPE_START
G1 F14400
G1 X119.12 Y100.557 E-.02305
G1 X119.626 Y100.735 E-.07431
G1 X120.126 Y100.975 E-.07684
G1 X120.389 Y101.031 E-.03725
G1 X120.123 Y101.068 E-.03721
G1 X119.566 Y101.221 E-.08003
G1 X118.937 Y101.451 E-.09279
G1 X118.959 Y100.515 E-.12971
;WIPE_END
G1 E-.08881 F2100
G1 Z.4 F720
G1 X118.743 Y96.391 F18000
G1 Z.2 F720
G1 E.8 F2100
M204 P500
;WIDTH:0.697061
G1 F2400
G1 X119.099 Y96.51 E.02042
G1 X120.022 Y96.707 E.05133
G1 X119.792 Y96.864 E.01515
G1 X119.36 Y97.115 E.02718
G1 X119.149 Y97.198 E.01233
G1 X118.864 Y97.382 E.01845
G1 X118.823 Y96.94 E.02414
G1 X118.752 Y96.45 E.02693
M204 P4000
G1 E-.16 F2100
;WIPE_START
G1 F14400
G1 X119.099 Y96.51 E-.04879
G1 X120.022 Y96.707 E-.13075
G1 X119.792 Y96.864 E-.03858
G1 X119.36 Y97.115 E-.06922
G1 X119.149 Y97.198 E-.03141
G1 X118.864 Y97.382 E-.047
G1 X118.823 Y96.94 E-.0615
G1 X118.752 Y96.45 E-.06859
;WIPE_END
G1 E-.14416 F2100
G1 Z.4 F720
G1 X117.895 Y92.376 F18000
G1 Z.2 F720
G1 E.8 F2100
M204 P500
;WIDTH:0.684006
G1 F2400
G1 X118.01 Y92.419 E.00654
G1 X118.7 Y92.448 E.03681
G1 X119.257 Y92.502 E.02983
G1 X119.109 Y92.634 E.01057
G1 X118.804 Y92.823 E.01913
G1 X118.644 Y92.974 E.01173
G1 X118.445 Y93.049 E.01134
G1 X118.137 Y93.304 E.02132
G1 X117.91 Y92.434 E.04793
M204 P4000
G1 E-.16 F2100
;WIPE_START
G1 F14400
G1 X118.01 Y92.419 E-.01401
G1 X118.7 Y92.448 E-.09568
G1 X119.257 Y92.502 E-.07753
G1 X119.109 Y92.634 E-.02747
G1 X118.804 Y92.823 E-.04971
G1 X118.644 Y92.974 E-.03048
G1 X118.445 Y93.049 E-.02946
G1 X118.137 Y93.304 E-.0554
G1 X117.91 Y92.434 E-.12457
;WIPE_END
G1 E-.13569 F2100
G1 Z.4 F720
G1 X116.437 Y88.58 F18000
G1 Z.2 F720
G1 E.8 F2100
M204 P500
;WIDTH:0.67098
G1 F2400
G1 X116.544 Y88.603 E.00572
G1 X117.824 Y88.477 E.06717
G1 X117.497 Y88.813 E.02449
G1 X117.107 Y89.157 E.02716
G1 X116.873 Y89.464 E.02016
G1 X116.674 Y89.022 E.02531
G1 X116.466 Y88.633 E.02304
M204 P4000
G1 E-.16 F2100
;WIPE_START
G1 F14400
G1 X116.544 Y88.603 E-.01158
G1 X117.824 Y88.477 E-.17819
G1 X117.497 Y88.813 E-.06496
G1 X117.107 Y89.157 E-.07205
G1 X116.873 Y89.464 E-.05348
G1 X116.674 Y89.022 E-.06716
G1 X116.466 Y88.633 E-.06111
;WIPE_END
G1 E-.13147 F2100
G1 Z.4 F720
G1 X114.458 Y85.129 F18000
G1 Z.2 F720
G1 E.8 F2100
M204 P500
;WIDTH:0.691148
G1 F2400
G1 X114.887 Y85.021 E.02384
G1 X115.225 Y84.894 E.01946
G1 X115.766 Y84.766 E.02997
G1 X115.422 Y85.203 E.02998
G1 X115.246 Y85.526 E.01983
G1 X115.068 Y85.678 E.01262
G1 X114.958 Y85.934 E.01502
G1 X114.49 Y85.179 E.04788
M204 P4000
G1 E-.16 F2100
;WIPE_START
G1 F14400
G1 X114.887 Y85.021 E-.0592
G1 X115.225 Y84.894 E-.05002
G1 X115.766 Y84.766 E-.07702
G1 X115.422 Y85.203 E-.07705
G1 X115.246 Y85.526 E-.05096
G1 X115.068 Y85.678 E-.03243
G1 X114.958 Y85.934 E-.0386
G1 X114.49 Y85.179 E-.12306
;WIPE_END
G1 E-.13166 F2100
G1 Z.4 F720
G1 X111.835 Y82.134 F18000
G1 Z.2 F720
G1 E.8 F2100
M204 P500
;WIDTH:0.689108
G1 F2400
G1 X111.969 Y82.082 E.00772
G1 X112.433 Y81.817 E.02871
G1 X113.099 Y81.491 E.03984
G1 X112.754 Y82.222 E.04343
G1 X112.526 Y82.826 E.03469
G1 X111.877 Y82.176 E.04935
M204 P4000
G1 E-.16 F2100
;WIPE_START
G1 F14400
G1 X111.969 Y82.082 E-.01822
G1 X112.433 Y81.817 E-.07403
G1 X113.099 Y81.491 E-.10273
G1 X112.754 Y82.222 E-.11199
G1 X112.526 Y82.826 E-.08944
G1 X111.877 Y82.176 E-.12725
;WIPE_END
G1 E-.11634 F2100
G1 Z.4 F720
G1 X106.062 Y84.027 F18000
G1 Z.2 F720
G1 E.8 F2100
M204 P500
;WIDTH:0.499999
G1 F2400
G1 X105.917 Y83.689 E.01398
G1 X105.667 Y83.217 E.0203
G1 X105.366 Y82.756 E.02092
G1 X104.963 Y82.211 E.02576
G1 X104.494 Y81.746 E.0251
G1 X103.978 Y81.276 E.02653
G1 X103.565 Y81.029 E.01829
G1 X102.992 Y80.629 E.02656
G1 X101.985 Y80.21 E.04145
G1 X101.316 Y80.068 E.02599
G1 X100.676 Y79.966 E.02463
G1 X100.287 Y79.944 E.01481
G1 X99.585 Y79.944 E.02668
G1 X98.748 Y80.02 E.03194
G1 X98.567 Y80.098 E.00749
G1 X98.177 Y80.164 E.01503
G1 X97.937 Y80.27 E.00997
G1 X97.514 Y80.339 E.01629
G1 X97.195 Y80.514 E.01383
G1 X96.957 Y80.675 E.01092
G1 X96.853 Y80.694 E.00402
G1 X96.377 Y80.924 E.02009
G1 X96.09 Y81.232 E.016
G1 X95.85 Y81.354 E.01023
G1 X95.609 Y81.538 E.01152
G1 X95.231 Y81.87 E.01912
G1 X94.894 Y82.262 E.01965
G1 X94.797 Y82.538 E.01112
G1 X94.53 Y82.777 E.01362
G1 X94.279 Y83.156 E.01728
G1 X94.102 Y83.511 E.01508
G1 X94.039 Y83.706 E.00779
;WIDTH:0.462167
G1 X93.977 Y83.901 E.00713
;WIDTH:0.424335
G1 X93.915 Y84.095 E.00646
;WIDTH:0.417644
G1 X93.923 Y83.989 E.00331
;WIDTH:0.448785
G1 X93.93 Y83.883 E.00359
;WIDTH:0.474392
G1 X93.892 Y83.67 E.00776
;WIDTH:0.499999
G1 X93.854 Y83.458 E.00819
G1 X93.659 Y82.786 E.02659
G1 X93.196 Y82.162 E.02953
G1 X92.729 Y81.694 E.02513
G1 X92.291 Y81.408 E.01988
G1 X91.87 Y81.182 E.01816
G1 X91.439 Y81.084 E.0168
G1 X90.906 Y81.006 E.02047
G1 X90.114 Y81.07 E.0302
G1 X90.337 Y80.692 E.01668
G1 X90.402 Y80.299 E.01514
G1 X90.322 Y79.943 E.01387
G1 X90.146 Y79.357 E.02325
G1 X89.946 Y78.543 E.03186
G1 X90.622 Y79.049 E.03209
G1 X91.088 Y79.428 E.02283
G1 X91.402 Y79.623 E.01405
G1 X91.812 Y79.718 E.016
G1 X92.314 Y79.636 E.01933
G1 X92.729 Y79.472 E.01696
G1 X92.858 Y79.35 E.00675
G1 X93.218 Y79.207 E.01472
G1 X93.461 Y79.021 E.01163
G1 X93.727 Y78.587 E.01935
G1 X93.786 Y78.292 E.01143
G1 X93.767 Y77.429 E.03281
G1 X93.778 Y76.621 E.03071
G1 X94.47 Y77.463 E.04142
G1 X94.816 Y77.862 E.02007
G1 X95.225 Y78.17 E.01946
G1 X95.488 Y78.225 E.01021
G1 X96.062 Y78.123 E.02216
G1 X96.639 Y77.995 E.02246
G1 X97.019 Y77.859 E.01534
G1 X97.405 Y77.439 E.02168
G1 X97.549 Y77.139 E.01265
G1 X97.856 Y75.644 E.05801
G1 X97.949 Y75.727 E.00474
G1 X98.137 Y76.193 E.0191
G1 X98.263 Y76.353 E.00774
G1 X98.665 Y77.139 E.03355
G1 X98.947 Y77.417 E.01505
G1 X99.27 Y77.56 E.01343
G1 X99.709 Y77.601 E.01676
G1 X100.404 Y77.609 E.02642
G1 X100.968 Y77.516 E.02172
G1 X101.219 Y77.318 E.01215
G1 X101.547 Y76.839 E.02206
G1 X101.648 Y76.54 E.01199
G1 X101.925 Y76.079 E.02044
G1 X102.125 Y75.575 E.02061
G1 X102.298 Y76.352 E.03025
G1 X102.378 Y76.856 E.01939
G1 X102.555 Y77.393 E.02149
G1 X102.845 Y77.738 E.01713
G1 X103.04 Y77.892 E.00944
G1 X103.982 Y78.147 E.03709
G1 X104.484 Y78.198 E.01918
G1 X104.763 Y78.155 E.01073
G1 X105.088 Y77.948 E.01464
G1 X105.57 Y77.516 E.0246
G1 X105.824 Y77.097 E.01862
G1 X106.235 Y76.617 E.02402
G1 X106.211 Y78.384 E.06716
G1 X106.334 Y78.751 E.01471
G1 X106.478 Y78.936 E.00891
G1 X106.898 Y79.226 E.0194
G1 X107.447 Y79.535 E.02394
G1 X108 Y79.701 E.02194
G1 X108.291 Y79.721 E.01109
G1 X108.737 Y79.548 E.01818
G1 X109.228 Y79.161 E.02376
G1 X109.501 Y79.032 E.01148
G1 X109.755 Y78.795 E.0132
G1 X110.01 Y78.641 E.01132
G1 X109.941 Y78.823 E.0074
G1 X109.873 Y79.279 E.01752
G1 X109.616 Y80.14 E.03415
G1 X109.641 Y80.498 E.01364
G1 X109.714 Y80.843 E.0134
G1 X109.883 Y81.064 E.01057
G1 X109.739 Y81.031 E.00561
G1 X109.275 Y81.005 E.01766
G1 X108.896 Y81.035 E.01445
G1 X108.161 Y81.125 E.02814
G1 X107.697 Y81.352 E.01963
G1 X107.465 Y81.52 E.01089
G1 X107.042 Y81.765 E.01858
G1 X106.808 Y81.995 E.01247
G1 X106.332 Y82.729 E.03325
G1 X106.147 Y83.467 E.02892
G1 X106.071 Y83.968 E.01926
M204 P4000
G1 E-.16 F2100
;WIPE_START
G1 F14400
G1 X105.917 Y83.689 E-.04415
G1 X105.667 Y83.217 E-.074
G1 X105.366 Y82.756 E-.07628
G1 X104.963 Y82.211 E-.09391
G1 X104.494 Y81.746 E-.0915
G1 X103.978 Y81.276 E-.0967
G1 X103.565 Y81.029 E-.06667
G1 X102.992 Y80.629 E-.09679
;WIPE_END
G1 Z.4 F720
G1 X105.405 Y89.408 F18000
G1 Z.2 F720
G1 E.8 F2100
M204 P500
;TYPE:External perimeter
;WIDTH:0.564107
G1 F2400
G1 X105.248 Y89.628 E.01171
G1 X105.188 Y89.857 E.01026
;WIDTH:0.576936
G1 X104.954 Y90.079 E.01432
;WIDTH:0.578322
G1 X104.641 Y90.476 E.02251
;WIDTH:0.581356
G1 X104.465 Y90.678 E.01199
G1 X104.429 Y90.78 E.00484
;WIDTH:0.56534
G1 X104.217 Y90.938 E.01149
G1 X104.087 Y91.014 E.00654
;WIDTH:0.579929
G1 X103.97 Y91.158 E.00828
;WIDTH:0.598981
G1 X103.553 Y91.462 E.02386
G1 X103.398 Y91.647 E.01116
;WIDTH:0.569599
G1 X102.892 Y91.884 E.02447
;WIDTH:0.579785
G1 X102.594 Y92.056 E.01536
G1 X102.585 Y92.103 E.00214
;WIDTH:0.578842
G1 X102.483 Y92.159 E.00519
;WIDTH:0.543944
G1 X102.381 Y92.215 E.00485
;WIDTH:0.52075
G1 X102.086 Y92.269 E.01192
;WIDTH:0.548725
G1 X101.892 Y92.314 E.00838
;WIDTH:0.576699
G1 X101.698 Y92.36 E.00885
;WIDTH:0.590069
G1 X101.208 Y92.495 E.02312
;WIDTH:0.590787
G1 X100.329 Y92.605 E.04036
G1 X99.544 Y92.618 E.03577
;WIDTH:0.564341
G1 X98.743 Y92.495 E.03514
;WIDTH:0.56855
G1 X97.843 Y92.277 E.04047
;WIDTH:0.589873
G1 X97.399 Y92.046 E.02276
G1 X97.293 Y91.974 E.00583
G1 X97.082 Y91.893 E.01028
;WIDTH:0.580212
G1 X96.966 Y91.802 E.00659
G1 X96.788 Y91.751 E.00827
;WIDTH:0.584563
G1 X96.001 Y91.132 E.04509
;WIDTH:0.594264
G1 X95.577 Y90.727 E.02688
G1 X95.166 Y90.248 E.02894
;WIDTH:0.589728
G1 X94.858 Y89.834 E.02346
;WIDTH:0.577383
G1 X94.625 Y89.48 E.01883
G1 X94.401 Y88.991 E.0239
;WIDTH:0.57385
G1 X94.264 Y88.739 E.01266
;WIDTH:0.592161
G1 X94.026 Y87.919 E.03899
;WIDTH:0.567941
G1 X93.87 Y87.095 E.03661
;WIDTH:0.600703
G1 X93.87 Y86.349 E.0346
G1 X93.926 Y85.706 E.02994
;WIDTH:0.614634
G1 X94.015 Y85.15 E.02677
;WIDTH:0.620923
G1 X94.09 Y84.673 E.02321
G1 X94.171 Y84.538 E.00757
;WIDTH:0.589196
G1 X94.251 Y84.403 E.00713
;WIDTH:0.557469
G1 X94.295 Y84.253 E.00669
;WIDTH:0.528734
G1 X94.339 Y84.103 E.00631
;WIDTH:0.499998
M73 P2 R14
G1 X94.389 Y84.065 E.00239
G1 X94.473 Y83.779 E.01133
G1 X94.569 Y83.709 E.00452
G1 X94.601 Y83.486 E.00856
G1 X94.745 Y83.378 E.00684
G1 X94.799 Y83.155 E.00872
G1 X95.181 Y82.796 E.01992
G1 X95.242 Y82.719 E.00373
G1 X95.28 Y82.507 E.00819
G1 X95.614 Y82.123 E.01934
G1 X96 Y81.793 E.0193
G1 X96.26 Y81.692 E.0106
G1 X96.569 Y81.415 E.01577
G1 X96.653 Y81.289 E.00576
G1 X96.881 Y81.201 E.00929
G1 X97.04 Y81.121 E.00676
G1 X97.224 Y81.081 E.00716
G1 X97.347 Y80.945 E.00697
G1 X97.52 Y80.92 E.00664
G1 X97.623 Y80.788 E.00636
G1 X98.122 Y80.686 E.01936
G1 X98.253 Y80.615 E.00566
G1 X98.719 Y80.536 E.01796
G1 X98.873 Y80.465 E.00645
G1 X99.634 Y80.398 E.02903
G1 X100.283 Y80.401 E.02467
G1 X100.604 Y80.417 E.01222
G1 X101.243 Y80.52 E.0246
G1 X101.89 Y80.657 E.02514
;WIDTH:0.499999
G1 X102.36 Y80.88 E.01977
G1 X102.744 Y81.015 E.01547
G1 X103.318 Y81.414 E.02657
G1 X103.67 Y81.613 E.01537
G1 X104.186 Y82.084 E.02655
G1 X104.641 Y82.535 E.02435
G1 X104.995 Y83.022 E.02288
G1 X105.284 Y83.466 E.02013
G1 X105.517 Y83.913 E.01916
;WIDTH:0.514936
G1 X105.75 Y84.509 E.02512
;WIDTH:0.548842
G1 X105.808 Y84.589 E.00416
;WIDTH:0.582748
G1 X105.865 Y84.668 E.00437
;WIDTH:0.616654
G1 X105.922 Y84.748 E.00469
G1 X106.01 Y85.369 E.02992
;WIDTH:0.612939
G1 X106.123 Y86.111 E.03557
;WIDTH:0.588935
G1 X106.104 Y86.758 E.02939
;WIDTH:0.593313
G1 X106.043 Y87.307 E.02528
;WIDTH:0.606482
G1 X105.851 Y88.372 E.05071
;WIDTH:0.579703
G1 X105.764 Y88.512 E.00736
;WIDTH:0.590274
G1 X105.6 Y88.987 E.02287
G1 X105.531 Y89.229 E.01145
;WIDTH:0.564107
