; generated by Slic3r 1.3.1-dev (Build 18ddd3a36dc69d81fb9b7440498bff9e1dde8b7e) on 2024-04-25 at 14:58:53

; external perimeters extrusion width = 0.55mm (3.04mm^3/s)
; perimeters extrusion width = 0.70mm (7.88mm^3/s)
; infill extrusion width = 0.63mm (9.31mm^3/s)
; solid infill extrusion width = 0.70mm (2.63mm^3/s)
; top infill extrusion width = 0.70mm (1.97mm^3/s)

M107
G92 E0
M104 S200 ; set temperature
G28 ; home all axes
G1 Z5 F5000 ; lift nozzle

; Filament gcode

M109 S200 ; set temperature and wait for it to be reached
G21 ; set units to millimeters
G90 ; use absolute coordinates
M82 ; use absolute distances for extrusion
G92 E0
G1 Z0.350 F7800.000
G1 E-2.00000 F2400.00000
G92 E0
G1 X80.452 Y75.421 F7800.000
G1 E2.00000 F2400.00000
G1 F1800.000
G1 X81.114 Y74.795 E2.02819
G1 X84.662 Y71.866 E2.17056
G1 X85.617 Y71.210 E2.20642
G1 X90.169 Y68.887 E2.36454
G1 X91.524 Y68.383 E2.40926
G1 X96.042 Y67.245 E2.55343
G1 X97.662 Y67.044 E2.60392
G1 X102.342 Y67.045 E2.74872
G1 X103.948 Y67.242 E2.79879
G1 X108.773 Y68.456 E2.95274
G1 X109.952 Y68.923 E2.99198
G1 X114.286 Y71.146 E3.14269
G1 X115.302 Y71.839 E3.18073
G1 X118.957 Y74.866 E3.32757
G1 X119.841 Y75.751 E3.36627
G1 X122.750 Y79.276 E3.50771
G1 X123.058 Y79.679 E3.52338
G1 X123.443 Y80.287 E3.54565
G1 X125.699 Y84.321 E3.68868
G1 X126.155 Y85.325 E3.72277
G1 X127.711 Y89.676 E3.86576
G1 X127.983 Y90.677 E3.89786
G1 X128.836 Y95.195 E4.04011
G1 X128.944 Y96.131 E4.06929
G1 X129.152 Y100.818 E4.21443
G1 X129.114 Y101.873 E4.24709
G1 X128.591 Y106.391 E4.38783
G1 X128.510 Y106.907 E4.40399
G1 X128.402 Y107.381 E4.41903
G1 X127.194 Y111.876 E4.56306
G1 X126.823 Y112.907 E4.59696
G1 X124.911 Y117.098 E4.73949
G1 X124.370 Y118.062 E4.77369
G1 X121.753 Y121.929 E4.91816
G1 X121.294 Y122.530 E4.94156
G1 X120.930 Y122.926 E4.95820
G1 X117.481 Y126.376 E5.10915
G1 X116.650 Y127.029 E5.14186
G1 X112.805 Y129.583 E5.28468
G1 X112.127 Y129.977 E5.30895
G1 X111.433 Y130.283 E5.33240
G1 X106.923 Y131.972 E5.48142
G1 X105.417 Y132.342 E5.52941
G1 X100.907 Y132.902 E5.67002
G1 X99.979 Y132.954 E5.69876
G1 X99.092 Y132.903 E5.72626
G1 X94.583 Y132.341 E5.86686
G1 X93.083 Y131.973 E5.91466
G1 X88.558 Y130.282 E6.06410
G1 X87.221 Y129.600 E6.11055
G1 X83.358 Y127.043 E6.25390
G1 X82.315 Y126.188 E6.29562
G1 X79.034 Y122.885 E6.43965
G1 X78.248 Y121.930 E6.47793
G1 X75.629 Y118.062 E6.62245
G1 X75.089 Y117.099 E6.65665
G1 X73.180 Y112.916 E6.79890
G1 X72.809 Y111.885 E6.83280
G1 X71.599 Y107.383 E6.97706
G1 X71.493 Y106.924 E6.99162
G1 X71.409 Y106.391 E7.00830
G1 X70.886 Y101.873 E7.14904
G1 X70.848 Y100.833 E7.18125
G1 X71.044 Y96.153 E7.32618
G1 X71.155 Y95.193 E7.35608
G1 X72.015 Y90.669 E7.49855
G1 X72.288 Y89.671 E7.53058
G1 X73.849 Y85.318 E7.67364
G1 X74.303 Y84.321 E7.70754
G1 X76.559 Y80.287 E7.85057
G1 X77.056 Y79.527 E7.87867
G1 X80.402 Y75.478 E8.04120
G1 E6.04120 F2400.00000
G92 E0
G1 X105.192 Y116.290 F7800.000
G1 E2.00000 F2400.00000
G1 F1800.000
G1 X104.690 Y117.037 E2.02785
G1 X103.828 Y117.942 E2.06653
G1 X102.787 Y118.644 E2.10537
G1 X101.634 Y119.114 E2.14390
G1 X100.606 Y119.303 E2.17624
G1 X100.313 Y119.324 E2.18533
G1 X99.120 Y119.283 E2.22227
G1 X98.295 Y119.093 E2.24845
G1 X97.567 Y118.814 E2.27258
G1 X97.152 Y118.589 E2.28719
G1 X96.344 Y118.070 E2.31691
G1 X95.646 Y117.440 E2.34598
G1 X95.312 Y117.035 E2.36224
G1 X95.064 Y116.683 E2.37557
G1 X94.679 Y116.002 E2.39976
G1 X94.473 Y115.537 E2.41549
G1 X94.218 Y114.676 E2.44328
G1 X94.160 Y114.405 E2.45187
G1 X94.083 Y113.482 E2.48051
G1 X94.084 Y113.129 E2.49144
G1 X94.149 Y112.617 E2.50741
G1 X94.142 Y112.421 E2.51347
G1 X94.183 Y112.119 E2.52291
G1 X94.327 Y111.633 E2.53858
G1 X94.379 Y111.531 E2.54213
G1 X94.349 Y111.230 E2.55149
G1 X94.458 Y110.942 E2.56103
G1 X94.577 Y110.747 E2.56807
G1 X94.692 Y110.458 E2.57770
G1 X95.023 Y109.975 E2.59582
G1 X95.501 Y109.372 E2.61965
G1 X95.764 Y109.116 E2.63099
G1 X96.391 Y108.617 E2.65579
G1 X96.869 Y108.296 E2.67361
G1 X97.710 Y107.896 E2.70243
G1 X97.965 Y107.798 E2.71087
G1 X98.646 Y107.618 E2.73266
G1 X99.150 Y107.512 E2.74860
G1 X100.398 Y107.535 E2.78723
G1 X101.062 Y107.631 E2.80799
G1 X101.508 Y107.724 E2.82209
G1 X102.631 Y108.143 E2.85916
G1 X103.240 Y108.563 E2.88206
G1 X104.092 Y109.278 E2.91648
G1 X104.596 Y109.874 E2.94063
G1 X104.844 Y110.203 E2.95339
G1 X105.172 Y110.791 E2.97420
G1 X105.239 Y110.874 E2.97750
G1 X105.452 Y111.330 E2.99310
G1 X105.483 Y111.497 E2.99835
G1 X105.549 Y111.647 E3.00340
G1 X105.635 Y112.001 E3.01468
G1 X105.694 Y112.116 E3.01869
G1 X105.777 Y112.382 E3.02729
G1 X105.778 Y112.578 E3.03335
G1 X105.852 Y113.040 E3.04784
G1 X105.864 Y113.332 E3.05690
G1 X105.827 Y114.478 E3.09237
G1 X105.629 Y115.247 E3.11695
G1 X105.525 Y115.564 E3.12726
G1 X105.223 Y116.222 E3.14965
G1 X105.192 Y116.290 F7800.000
G1 X105.893 Y117.487 F7800.000
G1 F1800.000
G1 X106.127 Y117.856 E3.16316
G1 X106.689 Y118.508 E3.18980
G1 X107.309 Y118.966 E3.21363
G1 X108.005 Y119.300 E3.23752
G1 X107.431 Y120.085 E3.26763
G1 X107.386 Y120.589 E3.28329
G1 X106.269 Y120.398 E3.31835
G1 X105.687 Y120.522 E3.33674
G1 X104.483 Y121.012 E3.37699
G1 X103.828 Y121.705 E3.40648
G1 X103.778 Y122.174 E3.42108
G1 X103.439 Y121.679 E3.43962
G1 X102.342 Y121.489 E3.47410
G1 X100.973 Y121.648 E3.51673
G1 X100.219 Y122.143 E3.54464
G1 X99.997 Y122.654 E3.56187
G1 X99.818 Y122.185 E3.57742
G1 X99.052 Y121.655 E3.60624
G1 X98.234 Y121.557 E3.63173
G1 X98.041 Y121.502 E3.63795
G1 X97.272 Y121.502 E3.66175
G1 X96.545 Y121.760 E3.68560
G1 X96.222 Y122.154 E3.70138
G1 X96.173 Y121.704 E3.71538
G1 X95.514 Y121.006 E3.74509
G1 X94.120 Y120.456 E3.79147
G1 X92.986 Y120.416 E3.82658
G1 X92.661 Y120.737 E3.84073
G1 X92.410 Y119.662 E3.87490
G1 X91.882 Y119.302 E3.89466
G1 X92.476 Y119.082 E3.91426
G1 X92.886 Y118.828 E3.92917
G1 X93.321 Y118.489 E3.94624
G1 X93.782 Y118.004 E3.96694
G1 X94.104 Y117.489 E3.98574
G1 X94.318 Y117.793 E3.99724
G1 X94.740 Y118.306 E4.01781
G1 X95.582 Y119.066 E4.05291
G1 X96.515 Y119.665 E4.08720
G1 X97.043 Y119.952 E4.10579
G1 X97.930 Y120.291 E4.13518
G1 X98.957 Y120.527 E4.16778
G1 X100.335 Y120.575 E4.21045
G1 X100.763 Y120.545 E4.22373
G1 X101.986 Y120.320 E4.26221
G1 X103.379 Y119.753 E4.30874
G1 X104.639 Y118.902 E4.35578
G1 X105.668 Y117.822 E4.40194
G1 X105.851 Y117.550 E4.41209
G1 X106.010 Y116.006 F7800.000
G1 F1800.000
G1 X106.283 Y116.834 E4.43907
G1 X106.478 Y117.243 E4.45308
G1 X106.630 Y117.483 E4.46187
G1 X107.117 Y118.047 E4.48494
G1 X107.632 Y118.428 E4.50477
G1 X108.036 Y118.622 E4.51863
G1 X108.481 Y118.766 E4.53310
G1 X108.951 Y118.850 E4.54788
G1 X109.421 Y118.852 E4.56243
G1 X109.501 Y119.118 E4.57100
G1 X108.318 Y119.930 E4.61540
G1 X108.038 Y120.314 E4.63011
G1 X107.987 Y120.886 E4.64789
G1 X108.090 Y121.462 E4.66601
G1 X108.198 Y122.405 E4.69536
G1 X107.456 Y121.739 E4.72621
G1 X106.853 Y121.132 E4.75267
G1 X106.282 Y121.034 E4.77062
G1 X105.872 Y121.121 E4.78359
G1 X104.844 Y121.540 E4.81793
G1 X104.427 Y121.981 E4.83670
G1 X104.218 Y123.926 E4.89723
G1 X103.073 Y122.250 E4.96003
G1 X102.324 Y122.120 E4.98354
G1 X101.192 Y122.252 E5.01880
G1 X100.718 Y122.563 E5.03635
G1 X100.491 Y123.087 E5.05402
G1 X100.234 Y123.836 E5.07852
G1 X99.925 Y124.217 E5.09368
G1 X99.303 Y122.589 E5.14761
G1 X98.824 Y122.257 E5.16564
G1 X98.111 Y122.171 E5.18787
G1 X97.954 Y122.127 E5.19291
G1 X97.379 Y122.127 E5.21070
G1 X96.918 Y122.291 E5.22584
G1 X96.607 Y122.670 E5.24100
G1 X96.235 Y123.274 E5.26295
G1 X95.784 Y123.902 E5.28688
G1 X95.574 Y121.981 E5.34667
G1 X95.155 Y121.536 E5.36558
G1 X93.990 Y121.076 E5.40433
G1 X93.234 Y121.050 E5.42775
G1 X92.267 Y122.007 E5.46985
G1 X91.826 Y122.386 E5.48784
G1 X91.863 Y121.852 E5.50440
G1 X92.024 Y120.756 E5.53867
G1 X91.857 Y120.041 E5.56139
G1 X90.504 Y119.119 E5.61204
G1 X90.583 Y118.856 E5.62052
G1 X91.056 Y118.848 E5.63516
G1 X91.530 Y118.766 E5.65004
G1 X92.200 Y118.518 E5.67215
G1 X92.528 Y118.315 E5.68409
G1 X92.900 Y118.025 E5.69869
G1 X93.285 Y117.620 E5.71598
G1 X93.571 Y117.161 E5.73270
G1 X93.778 Y116.707 E5.74815
G1 X93.945 Y115.974 E5.77141
G1 X94.536 Y117.017 E5.80851
G1 X94.815 Y117.414 E5.82352
G1 X95.193 Y117.873 E5.84194
G1 X95.963 Y118.568 E5.87402
G1 X96.833 Y119.127 E5.90602
G1 X97.305 Y119.383 E5.92262
G1 X98.113 Y119.692 E5.94938
G1 X99.038 Y119.905 E5.97877
G1 X100.324 Y119.949 E6.01858
G1 X100.685 Y119.924 E6.02976
G1 X101.810 Y119.717 E6.06517
G1 X103.083 Y119.198 E6.10770
G1 X104.233 Y118.422 E6.15064
G1 X105.179 Y117.429 E6.19306
G1 X105.739 Y116.596 E6.22412
G1 X105.978 Y116.074 E6.24190
G1 E4.24190 F2400.00000
G92 E0
G1 X90.260 Y118.824 F7800.000
G1 E2.00000 F2400.00000
G1 F1800.000
G1 X88.748 Y119.780 E2.05533
G1 X88.219 Y120.073 E2.07404
G1 X88.884 Y118.236 E2.13450
G1 X89.211 Y118.453 E2.14666
G1 X89.663 Y118.660 E2.16204
G1 X90.187 Y118.805 E2.17887
G1 E0.17887 F2400.00000
G92 E0
G1 X86.992 Y116.376 F7800.000
G1 E2.00000 F2400.00000
G1 F1800.000
G1 X86.264 Y116.603 E2.02359
G1 X86.203 Y116.660 E2.02616
G1 X85.198 Y117.051 E2.05954
G1 X85.564 Y116.374 E2.08335
G1 X85.905 Y115.853 E2.10262
G1 X86.157 Y115.371 E2.11945
G1 X86.942 Y116.320 E2.15757
G1 E0.15757 F2400.00000
G92 E0
G1 X84.651 Y113.123 F7800.000
G1 E2.00000 F2400.00000
G1 F1800.000
G1 X83.643 Y113.335 E2.03186
G1 X82.807 Y113.414 E2.05784
G1 X84.034 Y112.020 E2.11530
G1 X84.614 Y113.058 E2.15209
G1 E0.15209 F2400.00000
G92 E0
G1 X82.876 Y109.511 F7800.000
G1 E2.00000 F2400.00000
G1 F1800.000
G1 X81.789 Y109.536 E2.03363
G1 X80.967 Y109.513 E2.05908
G1 X82.045 Y108.677 E2.10127
G1 X82.452 Y108.283 E2.11880
G1 X82.849 Y109.441 E2.15670
G1 E0.15670 F2400.00000
G92 E0
G1 X81.734 Y105.626 F7800.000
G1 E2.00000 F2400.00000
G1 F1800.000
G1 X79.869 Y105.342 E2.05839
G1 X80.516 Y104.922 E2.08225
G1 X81.459 Y104.366 E2.11613
G1 X81.718 Y105.553 E2.15374
G1 E0.15374 F2400.00000
G92 E0
G1 X81.177 Y101.633 F7800.000
G1 E2.00000 F2400.00000
G1 F1800.000
G1 X79.403 Y101.032 E2.05795
G1 X79.888 Y100.806 E2.07451
G1 X80.242 Y100.671 E2.08621
G1 X80.578 Y100.571 E2.09706
G1 X81.150 Y100.257 E2.11726
G1 X81.174 Y101.558 E2.15752
G1 E0.15752 F2400.00000
G92 E0
G1 X81.229 Y97.649 F7800.000
G1 E2.00000 F2400.00000
G1 F1800.000
G1 X80.943 Y97.391 E2.01192
G1 X80.182 Y97.028 E2.03802
G1 X79.567 Y96.702 E2.05957
G1 X80.268 Y96.501 E2.08215
G1 X80.870 Y96.379 E2.10116
G1 X81.372 Y96.235 E2.11731
G1 X81.237 Y97.575 E2.15897
G1 E0.15897 F2400.00000
G92 E0
G1 X81.891 Y93.564 F7800.000
G1 E2.00000 F2400.00000
G1 F1800.000
G1 X81.555 Y93.259 E2.01404
G1 X81.148 Y92.998 E2.02900
G1 X80.341 Y92.420 E2.05971
G1 X82.238 Y92.290 E2.11855
G1 X81.910 Y93.492 E2.15708
G1 E0.15708 F2400.00000
G92 E0
G1 X83.134 Y89.614 F7800.000
G1 E2.00000 F2400.00000
G1 F1800.000
G1 X82.546 Y89.095 E2.02429
G1 X81.830 Y88.384 E2.05551
G1 X82.452 Y88.397 E2.07475
G1 X83.697 Y88.515 E2.11345
G1 X83.331 Y89.301 E2.14030
G1 X83.174 Y89.551 E2.14940
G1 E0.14940 F2400.00000
G92 E0
G1 X85.040 Y86.099 F7800.000
G1 E2.00000 F2400.00000
G1 F1800.000
G1 X83.904 Y84.594 E2.05833
G1 X84.719 Y84.769 E2.08410
G1 X85.756 Y85.067 E2.11750
G1 X85.082 Y86.037 E2.15407
G1 E0.15407 F2400.00000
G92 E0
G1 X87.482 Y82.978 F7800.000
G1 E2.00000 F2400.00000
G1 F1800.000
G1 X87.004 Y82.062 E2.03196
G1 X86.964 Y81.795 E2.04033
G1 X86.875 Y81.710 E2.04413
G1 X87.062 Y81.446 E2.05416
G1 X88.348 Y82.100 E2.09882
G1 X88.095 Y82.333 E2.10947
G1 X87.534 Y82.924 E2.13468
G1 E0.13468 F2400.00000
G92 E0
G1 X94.300 Y84.856 F7800.000
G1 E2.00000 F2400.00000
G1 F1800.000
G1 X94.618 Y83.976 E2.02897
G1 X94.972 Y83.334 E2.05163
G1 X95.143 Y83.089 E2.06089
G1 X95.802 Y82.283 E2.09310
G1 X96.706 Y81.543 E2.12924
G1 X97.356 Y81.189 E2.15215
G1 X97.880 Y80.935 E2.17016
G1 X98.930 Y80.643 E2.20387
G1 X99.738 Y80.553 E2.22905
G1 X100.438 Y80.561 E2.25069
G1 X101.050 Y80.638 E2.26979
G1 X101.541 Y80.743 E2.28533
G1 X101.908 Y80.855 E2.29718
G1 X102.493 Y81.080 E2.31660
G1 X102.962 Y81.355 E2.33340
G1 X103.594 Y81.764 E2.35671
G1 X104.090 Y82.210 E2.37736
G1 X104.540 Y82.661 E2.39704
G1 X104.676 Y82.836 E2.40389
G1 X105.169 Y83.584 E2.43163
G1 X105.351 Y83.943 E2.44408
G1 X105.678 Y84.788 E2.47212
G1 X105.799 Y85.344 E2.48973
G1 X105.913 Y86.162 E2.51529
G1 X105.865 Y87.204 E2.54755
G1 X105.791 Y87.632 E2.56100
G1 X105.683 Y88.090 E2.57554
G1 X105.447 Y88.882 E2.60113
G1 X105.324 Y89.066 E2.60798
G1 X105.190 Y89.353 E2.61778
G1 X105.020 Y89.649 E2.62834
G1 X104.712 Y90.058 E2.64419
G1 X104.161 Y90.687 E2.67006
G1 X103.786 Y91.020 E2.68558
G1 X103.040 Y91.591 E2.71462
G1 X102.144 Y92.030 E2.74553
G1 X101.900 Y92.117 E2.75354
G1 X100.847 Y92.353 E2.78693
G1 X99.686 Y92.408 E2.82287
G1 X99.254 Y92.370 E2.83629
G1 X98.653 Y92.276 E2.85511
G1 X98.301 Y92.186 E2.86635
G1 X97.904 Y92.033 E2.87953
G1 X96.922 Y91.541 E2.91351
G1 X96.106 Y90.949 E2.94470
G1 X95.741 Y90.598 E2.96038
G1 X95.151 Y89.913 E2.98833
G1 X94.603 Y88.994 E3.02146
G1 X94.487 Y88.751 E3.02980
G1 X94.242 Y87.930 E3.05629
G1 X94.083 Y87.116 E3.08197
G1 X94.109 Y86.886 E3.08912
G1 X94.082 Y86.188 E3.11074
G1 X94.207 Y85.294 E3.13867
G1 X94.284 Y84.929 E3.15021
G1 X94.300 Y84.856 F7800.000
G1 E1.15021 F2400.00000
G92 E0
G1 X94.099 Y82.392 F7800.000
G1 E2.00000 F2400.00000
G1 F1800.000
G1 X93.909 Y82.071 E2.01154
G1 X93.702 Y81.795 E2.02221
G1 X93.367 Y81.440 E2.03731
G1 X93.021 Y81.142 E2.05144
G1 X92.419 Y80.776 E2.07323
G1 X91.979 Y80.598 E2.08793
G1 X91.998 Y80.326 E2.09638
G1 X92.626 Y80.172 E2.11639
G1 X93.829 Y79.513 E2.15883
G1 X94.536 Y78.452 E2.19829
G1 X94.931 Y78.857 E2.21581
G1 X95.999 Y78.765 E2.24897
G1 X96.599 Y78.619 E2.26809
G1 X97.443 Y78.370 E2.29532
G1 X98.191 Y77.487 E2.33112
G1 X98.703 Y78.050 E2.35469
G1 X99.526 Y78.217 E2.38068
G1 X100.392 Y78.226 E2.40745
G1 X101.265 Y78.103 E2.43474
G1 X101.817 Y77.513 E2.45973
G1 X102.572 Y78.375 E2.49519
G1 X103.284 Y78.586 E2.51816
G1 X104.352 Y78.852 E2.55222
G1 X104.544 Y78.782 E2.55855
G1 X105.160 Y78.814 E2.57765
G1 X105.597 Y78.306 E2.59837
G1 X105.581 Y78.849 E2.61520
G1 X106.388 Y79.641 E2.65017
G1 X107.327 Y80.140 E2.68307
G1 X107.991 Y80.340 E2.70454
G1 X107.998 Y80.611 E2.71292
G1 X107.646 Y80.738 E2.72451
G1 X107.139 Y81.028 E2.74258
G1 X106.834 Y81.250 E2.75425
G1 X106.334 Y81.742 E2.77595
G1 X105.876 Y82.385 E2.80038
G1 X105.693 Y82.107 E2.81068
G1 X105.479 Y81.832 E2.82145
G1 X104.951 Y81.304 E2.84456
G1 X104.356 Y80.768 E2.86932
G1 X103.617 Y80.291 E2.89655
G1 X103.038 Y79.951 E2.91734
G1 X102.316 Y79.673 E2.94128
G1 X101.855 Y79.532 E2.95619
G1 X101.259 Y79.404 E2.97505
G1 X100.522 Y79.312 E2.99802
G1 X99.676 Y79.303 E3.02421
G1 X98.692 Y79.412 E3.05485
G1 X97.437 Y79.761 E3.09516
G1 X96.785 Y80.076 E3.11755
G1 X96.005 Y80.501 E3.14504
G1 X94.914 Y81.395 E3.18869
G1 X94.146 Y82.334 E3.22621
G1 E1.22621 F2400.00000
G92 E0
G1 X95.172 Y78.209 F7800.000
G1 E2.00000 F2400.00000
G1 F1800.000
G1 X95.897 Y78.146 E2.02252
G1 X96.437 Y78.015 E2.03971
G1 X97.087 Y77.824 E2.06068
G1 X97.490 Y77.347 E2.07998
G1 X97.872 Y75.558 E2.13661
G1 X98.625 Y77.036 E2.18795
G1 X99.028 Y77.479 E2.20645
G1 X99.592 Y77.593 E2.22427
G1 X100.351 Y77.600 E2.24775
G1 X100.959 Y77.515 E2.26677
G1 X101.393 Y77.051 E2.28641
G1 X101.707 Y76.358 E2.30995
G1 X102.130 Y75.584 E2.33725
G1 X102.276 Y76.177 E2.35616
G1 X102.504 Y77.349 E2.39309
G1 X102.923 Y77.828 E2.41277
G1 X103.448 Y77.983 E2.42972
G1 X104.317 Y78.199 E2.45744
G1 X104.450 Y78.151 E2.46179
G1 X104.886 Y78.174 E2.47532
G1 X106.228 Y76.611 E2.53906
G1 X106.254 Y77.155 E2.55592
G1 X106.214 Y78.594 E2.60046
G1 X106.761 Y79.131 E2.62419
G1 X107.567 Y79.559 E2.65241
G1 X108.276 Y79.774 E2.67535
G1 X108.931 Y79.387 E2.69887
G1 X109.536 Y78.897 E2.72297
G1 X110.027 Y78.550 E2.74156
G1 X109.905 Y79.191 E2.76173
G1 X109.568 Y80.397 E2.80047
G1 X109.921 Y81.076 E2.82415
G1 X109.192 Y81.014 E2.84680
G1 X108.731 Y81.060 E2.86114
G1 X108.311 Y81.163 E2.87450
G1 X107.909 Y81.308 E2.88772
G1 X107.479 Y81.554 E2.90305
G1 X107.239 Y81.728 E2.91222
G1 X106.808 Y82.153 E2.93096
G1 X106.515 Y82.563 E2.94655
G1 X106.231 Y83.136 E2.96634
G1 X106.045 Y83.928 E2.99151
G1 X105.710 Y83.270 E3.01436
G1 X105.184 Y82.471 E3.04394
