;Generated with Cura_SteamEngine 15.01
; Default start code
G28 ; Home extruder
G1 Z15 F100
M107 ; Turn off fan
G90 ; Absolute positioning
M82 ; Extruder in absolute mode
M190 S50
; Activate all used extruder
M104 T0 S210
G92 E0 ; Reset extruder position
; Wait for all used extruders to reach temperature
M109 T0 S210
;Layer count: 100
;LAYER:0
M107
G0 F9000 X69.780 Y74.153 Z0.300
;TYPE:SKIRT
G1 F1800 X76.524 Y70.258 E0.38854
G1 X78.177 Y69.305 E0.48374
G1 X83.025 Y72.105 E0.76305
G1 X86.232 Y70.253 E0.94781
G1 X87.883 Y69.310 E1.04266
G1 X92.725 Y72.105 E1.32159
G1 X95.932 Y70.253 E1.50635
G1 X97.583 Y69.310 E1.60121
G1 X102.424 Y72.105 E1.88009
G1 X105.631 Y70.253 E2.06485
G1 X107.282 Y69.310 E2.15971
G1 X112.124 Y72.105 E2.43864
G1 X115.331 Y70.253 E2.62340
G1 X116.982 Y69.310 E2.71825
G1 X123.717 Y73.198 E3.10623
G1 X125.370 Y74.152 E3.20145
G1 X125.370 Y79.752 E3.48084
G1 X128.585 Y81.608 E3.66604
G1 X130.219 Y82.575 E3.76077
G1 X130.219 Y92.248 E4.24336
G1 X125.370 Y95.047 E4.52268
G1 X125.370 Y96.553 E4.59782
G1 X128.558 Y98.393 E4.78146
G1 X130.219 Y99.342 E4.87690
G1 X130.219 Y109.046 E5.36103
G1 X125.370 Y111.847 E5.64041
G1 X125.370 Y113.352 E5.71550
G1 X128.585 Y115.208 E5.90070
G1 X130.219 Y116.175 E5.99543
G1 X130.219 Y125.847 E6.47797
G1 X121.823 Y130.695 E6.96166
G1 X116.974 Y127.894 E7.24104
G1 X112.124 Y130.695 E7.52046
G1 X107.274 Y127.894 E7.79988
G1 X102.424 Y130.695 E8.07930
G1 X97.575 Y127.894 E8.35868
G1 X92.725 Y130.695 E8.63810
G1 X87.875 Y127.894 E8.91752
G1 X83.025 Y130.695 E9.19694
G1 X74.629 Y125.847 E9.68064
G1 X74.629 Y120.247 E9.96002
G1 X69.780 Y117.446 E10.23940
G1 X69.780 Y107.751 E10.72308
G1 X74.629 Y104.952 E11.00241
G1 X74.629 Y103.447 E11.07750
G1 X69.780 Y100.648 E11.35683
G1 X69.780 Y90.953 E11.84051
G1 X74.629 Y88.152 E12.11989
G1 X74.629 Y86.647 E12.19497
G1 X69.780 Y83.847 E12.47433
G1 X69.780 Y74.153 E12.95796
G1 F2400 E8.95796
G0 F9000 X73.180 Y76.115
;TYPE:WALL-OUTER
G1 F2400 E12.95796
G1 F1800 X78.176 Y73.231 E13.24576
G1 X83.025 Y76.031 E13.52512
G1 X87.875 Y73.231 E13.80451
G1 X92.725 Y76.031 E14.08391
G1 X97.575 Y73.231 E14.36330
G1 X102.424 Y76.031 E14.64266
G1 X107.274 Y73.231 E14.92205
G1 X112.124 Y76.031 E15.20145
G1 X116.974 Y73.231 E15.48085
G1 X121.970 Y76.115 E15.76865
G1 X121.970 Y81.714 E16.04798
G1 X126.819 Y84.515 E16.32736
G1 X126.819 Y90.285 E16.61523
G1 X121.970 Y93.084 E16.89455
G1 X121.970 Y98.515 E17.16551
G1 X126.819 Y101.314 E17.44484
G1 X126.819 Y107.084 E17.73270
G1 X121.970 Y109.885 E18.01208
G1 X121.970 Y115.314 E18.28293
G1 X126.819 Y118.115 E18.56231
G1 X126.819 Y123.885 E18.85018
G1 X121.823 Y126.769 E19.13798
G1 X116.974 Y123.968 E19.41736
G1 X112.124 Y126.769 E19.69678
G1 X107.274 Y123.968 E19.97620
G1 X102.424 Y126.769 E20.25562
G1 X97.575 Y123.968 E20.53500
G1 X92.725 Y126.769 E20.81442
G1 X87.875 Y123.968 E21.09384
G1 X83.025 Y126.769 E21.37326
G1 X78.029 Y123.885 E21.66106
G1 X78.029 Y118.285 E21.94045
G1 X73.180 Y115.484 E22.21982
G1 X73.180 Y109.714 E22.50769
G1 X78.029 Y106.915 E22.78702
G1 X78.029 Y101.484 E23.05797
G1 X73.180 Y98.685 E23.33730
G1 X73.180 Y92.915 E23.62517
G1 X78.029 Y90.115 E23.90452
G1 X78.029 Y84.685 E24.17542
G1 X73.180 Y81.885 E24.45478
G1 X73.180 Y76.115 E24.74264
G0 F9000 X73.472 Y76.285
G1 F1800 X73.472 Y81.714 E25.01350
G1 X78.031 Y84.347 E25.27615
G1 X78.177 Y84.429 E25.28451
G1 X82.731 Y81.799 E25.54688
G1 X82.879 Y81.716 E25.55534
G1 X82.879 Y76.285 E25.82629
G1 X78.176 Y73.569 E26.09724
G1 X73.472 Y76.285 E26.36824
G1 F2400 E22.36824
G0 F9000 X78.322 Y84.685
G1 F2400 E26.36824
G1 F1800 X78.322 Y90.115 E26.63914
G1 X82.880 Y92.747 E26.90173
G1 X83.026 Y92.829 E26.91008
G1 X87.581 Y90.200 E27.17247
G1 X87.729 Y90.117 E27.18093
G1 X87.729 Y84.685 E27.45194
G1 X83.025 Y81.968 E27.72296
G1 X78.322 Y84.685 E27.99393
G1 F2400 E23.99393
G0 F9000 X78.176 Y90.368
G1 F2400 E27.99393
G1 F1800 X73.472 Y93.084 E28.26492
G1 X73.472 Y98.515 E28.53588
G1 X78.031 Y101.148 E28.79853
G1 X78.177 Y101.230 E28.80689
G1 X82.731 Y98.600 E29.06926
G1 X82.879 Y98.517 E29.07772
G1 X82.879 Y93.084 E29.34877
G1 X78.176 Y90.368 E29.61972
G1 F2400 E25.61972
G0 F9000 X83.172 Y93.084
G1 F2400 E29.61972
G1 F1800 X83.172 Y98.515 E29.89068
G1 X87.730 Y101.148 E30.15329
G1 X87.876 Y101.230 E30.16165
G1 X92.430 Y98.600 E30.42401
G1 X92.578 Y98.517 E30.43248
G1 X92.578 Y93.084 E30.70353
G1 X87.875 Y90.368 E30.97448
G1 X83.172 Y93.084 E31.24543
G1 F2400 E27.24543
G0 F9000 X83.025 Y98.769
G1 F2400 E31.24543
G1 F1800 X78.322 Y101.484 E31.51636
G1 X78.322 Y106.915 E31.78731
G1 X82.880 Y109.548 E32.04992
G1 X83.026 Y109.630 E32.05828
G1 X87.581 Y107.000 E32.32069
G1 X87.729 Y106.917 E32.32915
G1 X87.729 Y101.483 E32.60026
G1 X83.025 Y98.769 E32.87120
G1 F2400 E28.87120
G0 F9000 X88.022 Y101.484
G1 F2400 E32.87120
G1 F1800 X88.022 Y106.915 E33.14215
G1 X92.580 Y109.548 E33.40477
G1 X92.726 Y109.630 E33.41312
G1 X97.280 Y107.000 E33.67549
G1 X97.428 Y106.917 E33.68395
G1 X97.428 Y101.484 E33.95501
G1 X92.725 Y98.769 E34.22593
G1 X88.022 Y101.484 E34.49686
G1 F2400 E30.49686
G0 F9000 X87.875 Y107.169
G1 F2400 E34.49686
G1 F1800 X83.172 Y109.885 E34.76781
G1 X83.172 Y115.314 E35.03866
G1 X87.729 Y117.946 E35.30121
G1 X87.874 Y118.031 E35.30959
G1 X92.433 Y115.399 E35.57222
G1 X92.578 Y115.314 E35.58061
G1 X92.578 Y109.885 E35.85146
G1 X87.875 Y107.169 E36.12241
G1 F2400 E32.12241
G0 F9000 X92.871 Y109.885
G1 F2400 E36.12241
G1 F1800 X92.871 Y115.314 E36.39327
G1 X97.429 Y117.946 E36.65586
G1 X97.574 Y118.031 E36.66424
G1 X102.133 Y115.399 E36.92687
G1 X102.278 Y115.314 E36.93526
G1 X102.278 Y109.885 E37.20611
G1 X97.575 Y107.169 E37.47706
G1 X92.871 Y109.885 E37.74806
G1 F2400 E33.74806
G0 F9000 X92.725 Y115.569
G1 F2400 E37.74806
G1 F1800 X88.022 Y118.285 E38.01901
G1 X88.022 Y123.714 E38.28986
G1 X92.580 Y126.347 E38.55247
G1 X92.726 Y126.429 E38.56083
G1 X97.280 Y123.799 E38.82319
G1 X97.428 Y123.716 E38.83166
G1 X97.428 Y118.285 E39.10261
G1 X92.725 Y115.569 E39.37356
G1 F2400 E35.37356
G0 F9000 X97.721 Y118.285
G1 F2400 E39.37356
G1 F1800 X97.721 Y123.714 E39.64442
G1 X102.279 Y126.347 E39.90703
G1 X102.425 Y126.429 E39.91539
G1 X106.980 Y123.799 E40.17780
G1 X107.128 Y123.716 E40.18626
G1 X107.128 Y118.285 E40.45721
G1 X102.424 Y115.569 E40.72821
G1 X97.721 Y118.285 E40.99916
G1 F2400 E36.99916
G0 F9000 X102.571 Y115.314
G1 F2400 E40.99916
G1 F1800 X107.128 Y117.946 E41.26170
G1 X107.273 Y118.031 E41.27009
G1 X111.832 Y115.399 E41.53272
G1 X111.977 Y115.314 E41.54111
G1 X111.977 Y109.885 E41.81196
G1 X107.274 Y107.169 E42.08291
G1 X102.571 Y109.885 E42.35386
G1 X102.571 Y115.314 E42.62471
G1 F2400 E38.62471
G0 F9000 X112.270 Y115.314
G1 F2400 E42.62471
G1 F1800 X116.828 Y117.946 E42.88730
G1 X116.973 Y118.031 E42.89569
G1 X121.532 Y115.399 E43.15832
G1 X121.677 Y115.314 E43.16671
G1 X121.677 Y109.885 E43.43756
G1 X116.974 Y107.169 E43.70851
G1 X112.270 Y109.885 E43.97950
G1 X112.270 Y115.314 E44.25036
G0 F9000 X112.124 Y115.569
G1 F1800 X107.421 Y118.285 E44.52131
G1 X107.421 Y123.714 E44.79216
G1 X111.979 Y126.347 E45.05477
G1 X112.125 Y126.429 E45.06313
G1 X116.679 Y123.799 E45.32549
G1 X116.827 Y123.716 E45.33396
G1 X116.827 Y118.285 E45.60491
G1 X112.124 Y115.569 E45.87586
G1 F2400 E41.87586
G0 F9000 X117.120 Y118.285
G1 F2400 E45.87586
G1 F1800 X117.120 Y123.714 E46.14672
G1 X121.678 Y126.347 E46.40933
G1 X121.824 Y126.429 E46.41769
G1 X126.379 Y123.799 E46.68010
G1 X126.527 Y123.716 E46.68856
G1 X126.527 Y118.285 E46.95951
G1 X121.823 Y115.569 E47.23051
G1 X117.120 Y118.285 E47.50146
G1 F2400 E43.50146
G0 F9000 X121.678 Y109.548
G1 F2400 E47.50146
G1 F1800 X121.824 Y109.630 E47.50981
G1 X126.379 Y107.000 E47.77222
G1 X126.527 Y106.917 E47.78069
G1 X126.527 Y101.483 E48.05179
G1 X121.823 Y98.769 E48.32273
G1 X117.120 Y101.484 E48.59366
G1 X117.120 Y106.915 E48.86461
G1 X121.678 Y109.548 E49.12723
G1 F2400 E45.12723
G0 F9000 X116.679 Y107.000
G1 F2400 E49.12723
G1 F1800 X116.827 Y106.917 E49.13569
G1 X116.827 Y101.484 E49.40674
G1 X112.124 Y98.769 E49.67767
G1 X107.421 Y101.484 E49.94859
G1 X107.421 Y106.915 E50.21955
G1 X111.979 Y109.548 E50.48216
G1 X112.125 Y109.630 E50.49052
G1 X116.679 Y107.000 E50.75288
G1 F2400 E46.75288
G0 F9000 X116.829 Y101.148
G1 F2400 E50.75288
G1 F1800 X116.975 Y101.230 E50.76124
G1 X121.529 Y98.600 E51.02360
G1 X121.677 Y98.517 E51.03207
G1 X121.677 Y93.084 E51.30312
G1 X116.974 Y90.368 E51.57407
G1 X112.270 Y93.084 E51.84506
G1 X112.270 Y98.515 E52.11602
G1 X116.829 Y101.148 E52.37868
G1 F2400 E48.37868
G0 F9000 X112.125 Y92.829
G1 F2400 E52.37868
G1 F1800 X116.679 Y90.200 E52.64102
G1 X116.827 Y90.117 E52.64948
G1 X116.827 Y84.685 E52.92049
G1 X112.124 Y81.968 E53.19146
G1 X107.421 Y84.685 E53.46244
G1 X107.421 Y90.115 E53.73334
G1 X111.979 Y92.747 E53.99593
G1 X112.125 Y92.829 E54.00428
G0 F9000 X111.977 Y93.084
G1 F1800 X107.274 Y90.368 E54.27523
G1 X102.571 Y93.084 E54.54618
G1 X102.571 Y98.515 E54.81714
G1 X107.129 Y101.148 E55.07975
G1 X107.275 Y101.230 E55.08810
G1 X111.829 Y98.600 E55.35047
G1 X111.977 Y98.517 E55.35894
G1 X111.977 Y93.084 E55.62999
G1 F2400 E51.62999
G0 F9000 X106.980 Y90.200
G1 F2400 E55.62999
G1 F1800 X107.128 Y90.117 E55.63846
G1 X107.128 Y84.685 E55.90946
G1 X102.424 Y81.968 E56.18048
G1 X97.721 Y84.685 E56.45145
G1 X97.721 Y90.115 E56.72236
G1 X102.279 Y92.747 E56.98494
G1 X102.425 Y92.829 E56.99330
G1 X106.980 Y90.200 E57.25568
G1 F2400 E53.25568
G0 F9000 X102.278 Y93.084
G1 F2400 E57.25568
G1 F1800 X97.575 Y90.368 E57.52663
G1 X92.871 Y93.084 E57.79763
G1 X92.871 Y98.515 E58.06858
G1 X97.430 Y101.148 E58.33124
G1 X97.576 Y101.230 E58.33959
G1 X102.130 Y98.600 E58.60196
G1 X102.278 Y98.517 E58.61042
G1 X102.278 Y93.084 E58.88148
G1 F2400 E54.88148
G0 F9000 X97.280 Y90.200
G1 F2400 E58.88148
G1 F1800 X97.428 Y90.117 E58.88994
G1 X97.428 Y84.685 E59.16095
G1 X92.725 Y81.968 E59.43192
G1 X88.022 Y84.685 E59.70290
G1 X88.022 Y90.115 E59.97380
G1 X92.580 Y92.747 E60.23639
G1 X92.726 Y92.829 E60.24474
G1 X97.280 Y90.200 E60.50708
G1 F2400 E56.50708
G0 F9000 X97.430 Y84.347
G1 F2400 E60.50708
G1 F1800 X97.576 Y84.429 E60.51544
G1 X102.130 Y81.799 E60.77780
G1 X102.278 Y81.716 E60.78627
G1 X102.278 Y76.285 E61.05722
G1 X97.575 Y73.569 E61.32817
G1 X92.871 Y76.285 E61.59917
G1 X92.871 Y81.714 E61.87002
G1 X97.430 Y84.347 E62.13268
G1 F2400 E58.13268
G0 F9000 X92.430 Y81.799
G1 F2400 E62.13268
G1 F1800 X92.578 Y81.716 E62.14114
G1 X92.578 Y76.285 E62.41210
G1 X87.875 Y73.569 E62.68305
G1 X83.172 Y76.285 E62.95400
G1 X83.172 Y81.714 E63.22485
G1 X87.730 Y84.347 E63.48746
G1 X87.876 Y84.429 E63.49582
G1 X92.430 Y81.799 E63.75819
G1 F2400 E59.75819
G0 F9000 X102.571 Y81.714
G1 F2400 E63.75819
G1 F1800 X107.129 Y84.347 E64.02080
G1 X107.275 Y84.429 E64.02915
G1 X111.829 Y81.799 E64.29152
G1 X111.977 Y81.716 E64.29999
G1 X111.977 Y76.285 E64.57094
G1 X107.274 Y73.569 E64.84189
G1 X102.571 Y76.285 E65.11284
G1 X102.571 Y81.714 E65.38369
G1 F2400 E61.38369
G0 F9000 X112.270 Y81.714
G1 F2400 E65.38369
G1 F1800 X116.829 Y84.347 E65.64635
G1 X116.975 Y84.429 E65.65470
G1 X121.529 Y81.799 E65.91707
G1 X121.677 Y81.716 E65.92554
G1 X121.677 Y76.285 E66.19649
G1 X116.974 Y73.569 E66.46744
G1 X112.270 Y76.285 E66.73843
G1 X112.270 Y81.714 E67.00929
G1 F2400 E63.00929
G0 F9000 X117.120 Y84.685
G1 F2400 E67.00929
G1 F1800 X117.120 Y90.115 E67.28019
G1 X121.678 Y92.747 E67.54278
G1 X121.824 Y92.829 E67.55113
G1 X126.379 Y90.200 E67.81352
G1 X126.527 Y90.117 E67.82198
G1 X126.527 Y84.685 E68.09299
G1 X121.823 Y81.968 E68.36401
G1 X117.120 Y84.685 E68.63498
G1 F2400 E64.63498
G0 F9000 X107.128 Y101.483
G1 F2400 E68.63498
G1 F1800 X102.424 Y98.769 E68.90592
G1 X97.721 Y101.484 E69.17685
G1 X97.721 Y106.915 E69.44780
G1 X102.279 Y109.548 E69.71042
G1 X102.425 Y109.630 E69.71877
G1 X106.980 Y107.000 E69.98118
G1 X107.128 Y106.917 E69.98965
G1 X107.128 Y101.483 E70.26075
G1 F2400 E66.26075
G0 F9000 X82.879 Y109.885
G1 F2400 E70.26075
G1 F1800 X78.176 Y107.169 E70.53170
G1 X73.472 Y109.885 E70.80269
G1 X73.472 Y115.314 E71.07354
G1 X78.030 Y117.946 E71.33613
G1 X78.175 Y118.031 E71.34452
G1 X82.734 Y115.399 E71.60715
G1 X82.879 Y115.314 E71.61554
G1 X82.879 Y109.885 E71.88639
G1 F2400 E67.88639
G0 F9000 X83.025 Y115.569
G1 F2400 E71.88639
G1 F1800 X78.322 Y118.285 E72.15734
G1 X78.322 Y123.714 E72.42819
G1 X82.880 Y126.347 E72.69081
G1 X83.026 Y126.429 E72.69916
G1 X87.581 Y123.799 E72.96157
G1 X87.729 Y123.716 E72.97004
G1 X87.729 Y118.285 E73.24099
G1 X83.025 Y115.569 E73.51198
;LAYER:1
M106 S63
G0 F9000 X83.025 Y115.569 Z0.500
;TYPE:WALL-OUTER
G1 F1980 X78.322 Y118.285 E73.69262
G1 X78.322 Y123.714 E73.87319
G1 X83.025 Y126.430 E74.05382
G1 X87.729 Y123.714 E74.23448
G1 X87.729 Y118.285 E74.41505
G1 X83.025 Y115.569 E74.59571
G0 F9000 X82.879 Y115.314
G1 F1980 X82.879 Y109.885 E74.77628
G1 X78.176 Y107.169 E74.95692
G1 X73.472 Y109.885 E75.13758
G1 X73.472 Y115.314 E75.31815
G1 X78.176 Y118.031 E75.49883
G1 X82.879 Y115.314 E75.67947
G0 F9000 X83.172 Y115.314
G1 F1980 X87.875 Y118.031 E75.86012
G1 X92.578 Y115.314 E76.04077
G1 X92.578 Y109.885 E76.22134
G1 X87.875 Y107.169 E76.40198
G1 X83.172 Y109.885 E76.58261
G1 X83.172 Y115.314 E76.76318
G1 F2400 E72.76318
G0 F9000 X83.025 Y109.631
G1 F2400 E76.76318
G1 F1980 X87.729 Y106.915 E76.94384
G1 X87.729 Y101.483 E77.12451
G1 X83.025 Y98.769 E77.30514
G1 X78.322 Y101.484 E77.48575
G1 X78.322 Y106.915 E77.66639
G1 X83.025 Y109.631 E77.84702
G1 F2400 E73.84702
G0 F9000 X88.022 Y106.915
G1 F2400 E77.84702
G1 F1980 X92.725 Y109.631 E78.02766
G1 X97.428 Y106.915 E78.20829
G1 X97.428 Y101.484 E78.38893
G1 X92.725 Y98.769 E78.56954
G1 X88.022 Y101.484 E78.75016
G1 X88.022 Y106.915 E78.93079
G1 F2400 E74.93079
G0 F9000 X87.875 Y101.231
G1 F2400 E78.93079
G1 F1980 X92.578 Y98.515 E79.11143
G1 X92.578 Y93.084 E79.29206
G1 X87.875 Y90.368 E79.47270
G1 X83.172 Y93.084 E79.65333
G1 X83.172 Y98.515 E79.83396
G1 X87.875 Y101.231 E80.01460
G1 F2400 E76.01460
G0 F9000 X92.871 Y98.515
G1 F2400 E80.01460
G1 F1980 X97.575 Y101.231 E80.19526
G1 X102.278 Y98.515 E80.37589
G1 X102.278 Y93.084 E80.55653
G1 X97.575 Y90.368 E80.73716
G1 X92.871 Y93.084 E80.91782
G1 X92.871 Y98.515 E81.09846
G1 F2400 E77.09846
G0 F9000 X92.725 Y92.830
G1 F2400 E81.09846
G1 F1980 X97.428 Y90.115 E81.27908
G1 X97.428 Y84.685 E81.45968
G1 X92.725 Y81.968 E81.64033
G1 X88.022 Y84.685 E81.82098
G1 X88.022 Y90.115 E82.00158
G1 X92.725 Y92.830 E82.18220
G1 F2400 E78.18220
G0 F9000 X97.721 Y90.115
G1 F2400 E82.18220
G1 F1980 X102.424 Y92.830 E82.36281
G1 X107.128 Y90.115 E82.54346
G1 X107.128 Y84.685 E82.72406
G1 X102.424 Y81.968 E82.90474
G1 X97.721 Y84.685 E83.08539
G1 X97.721 Y90.115 E83.26599
G1 F2400 E79.26599
G0 F9000 X97.575 Y84.430
G1 F2400 E83.26599
G1 F1980 X102.278 Y81.714 E83.44662
G1 X102.278 Y76.285 E83.62719
G1 X97.575 Y73.569 E83.80783
G1 X92.871 Y76.285 E83.98849
G1 X92.871 Y81.714 E84.16906
G1 X97.575 Y84.430 E84.34972
G1 F2400 E80.34972
G0 F9000 X102.571 Y81.714
G1 F2400 E84.34972
G1 F1980 X107.274 Y84.430 E84.53035
G1 X111.977 Y81.714 E84.71099
G1 X111.977 Y76.285 E84.89156
G1 X107.274 Y73.569 E85.07219
G1 X102.571 Y76.285 E85.25282
G1 X102.571 Y81.714 E85.43339
G1 F2400 E81.43339
G0 F9000 X112.270 Y81.714
G1 F2400 E85.43339
G1 F1980 X116.974 Y84.430 E85.61405
G1 X121.677 Y81.714 E85.79469
G1 X121.677 Y76.285 E85.97525
G1 X116.974 Y73.569 E86.15589
G1 X112.270 Y76.285 E86.33655
G1 X112.270 Y81.714 E86.51712
G0 F9000 X112.124 Y81.968
G1 F1980 X107.421 Y84.685 E86.69777
G1 X107.421 Y90.115 E86.87837
G1 X112.124 Y92.830 E87.05899
G1 X116.827 Y90.115 E87.23960
G1 X116.827 Y84.685 E87.42021
G1 X112.124 Y81.968 E87.60086
G1 F2400 E83.60086
G0 F9000 X117.120 Y84.685
G1 F2400 E87.60086
G1 F1980 X117.120 Y90.115 E87.78146
G1 X121.823 Y92.830 E87.96208
G1 X126.527 Y90.115 E88.14272
G1 X126.527 Y84.685 E88.32332
G1 X121.823 Y81.968 E88.50400
G1 X117.120 Y84.685 E88.68465
G1 F2400 E84.68465
G0 F9000 X116.974 Y90.368
G1 F2400 E88.68465
G1 F1980 X112.270 Y93.084 E88.86531
G1 X112.270 Y98.515 E89.04595
G1 X116.974 Y101.231 E89.22661
G1 X121.677 Y98.515 E89.40724
