; generated by Slic3r 1.3.1-dev (Build 18ddd3a36dc69d81fb9b7440498bff9e1dde8b7e) on 2024-04-25 at 16:12:32

; external perimeters extrusion width = 0.55mm (3.04mm^3/s)
; perimeters extrusion width = 0.70mm (7.88mm^3/s)
; infill extrusion width = 0.63mm (9.31mm^3/s)
; solid infill extrusion width = 0.70mm (2.63mm^3/s)
; top infill extrusion width = 0.70mm (1.97mm^3/s)

M107
G92 E0
M104 S200 ; set temperature
G28 ; home all axes
G1 Z5 F5000 ; lift nozzle

; Filament gcode

M109 S200 ; set temperature and wait for it to be reached
G21 ; set units to millimeters
G90 ; use absolute coordinates
M82 ; use absolute distances for extrusion
G92 E0
G1 Z0.350 F7800.000
G1 E-2.00000 F2400.00000
G92 E0
G1 X67.895 Y71.753 F7800.000
G1 E2.00000 F2400.00000
G1 F1800.000
G1 X69.668 Y70.263 E2.07164
G1 X74.864 Y67.263 E2.25729
G1 X77.018 Y66.477 E2.32825
G1 X78.176 Y66.375 E2.36422
G1 X116.974 Y66.375 E3.56467
G1 X119.233 Y66.772 E3.63564
G1 X120.286 Y67.263 E3.67160
G1 X125.483 Y70.263 E3.85725
G1 X127.240 Y71.736 E3.92821
G1 X127.908 Y72.688 E3.96417
G1 X132.757 Y81.088 E4.26428
G1 X133.543 Y83.242 E4.33525
G1 X133.645 Y84.400 E4.37121
G1 X133.645 Y124.000 E5.59648
G1 X133.248 Y126.259 E5.66745
G1 X132.105 Y128.247 E5.73841
G1 X130.332 Y129.737 E5.81005
G1 X125.136 Y132.737 E5.99570
G1 X122.982 Y133.523 E6.06666
G1 X121.824 Y133.625 E6.10262
G1 X83.026 Y133.625 E7.30308
G1 X80.767 Y133.228 E7.37404
G1 X79.713 Y132.737 E7.41001
G1 X74.517 Y129.737 E7.59565
G1 X72.760 Y128.264 E7.66662
G1 X72.092 Y127.312 E7.70258
G1 X67.243 Y118.912 E8.00269
G1 X66.457 Y116.758 E8.07365
G1 X66.355 Y115.600 E8.10961
G1 X66.355 Y76.000 E9.33489
G1 X66.752 Y73.741 E9.40585
G1 X67.858 Y71.818 E9.47449
G1 E7.47449 F2400.00000
G92 E0
G1 X78.176 Y84.600 F7800.000
G1 E2.00000 F2400.00000
G1 F1800.000
G1 X78.061 Y84.533 E2.00479
G1 F1800.000
G1 X73.500 Y81.900 E2.17519
G1 X73.351 Y81.786 E2.18125
G1 X73.326 Y81.600 E2.18731
G1 X73.326 Y76.400 E2.35555
G1 X73.351 Y76.214 E2.36161
G1 X73.500 Y76.100 E2.36767
G1 X78.003 Y73.500 E2.53592
G1 X78.176 Y73.429 E2.54198
G1 X78.349 Y73.500 E2.54804
G1 X82.968 Y76.167 E2.72059
G1 F1800.000
G1 X83.026 Y76.200 E2.72299
G1 X79.793 Y81.933 E2.95924
G1 F1800.000
G1 X78.176 Y84.800 E3.06572
G1 X78.176 Y90.133 E3.23828
G1 F1800.000
G1 X78.176 Y90.200 E3.24067
G1 F1800.000
G1 X78.061 Y90.267 E3.24546
G1 F1800.000
G1 X73.500 Y92.900 E3.41586
G1 X73.351 Y93.014 E3.42192
G1 X73.326 Y93.200 E3.42798
G1 X73.326 Y98.400 E3.59622
G1 X73.351 Y98.586 E3.60228
G1 X73.500 Y98.700 E3.60834
G1 X78.118 Y101.367 E3.78090
G1 F1800.000
G1 X78.176 Y101.400 E3.78330
G1 X78.176 Y101.533 E3.78808
G1 F1800.000
G1 X78.176 Y106.933 E3.96280
G1 F1800.000
G1 X78.176 Y107.000 E3.96519
G1 F1800.000
G1 X78.292 Y107.067 E3.96998
G1 F1800.000
G1 X82.968 Y109.767 E4.14469
G1 F1800.000
G1 X83.026 Y109.800 E4.14708
G1 X83.141 Y109.733 E4.15187
G1 F1800.000
G1 X87.818 Y107.033 E4.32659
G1 F1800.000
G1 X87.876 Y107.000 E4.32898
G1 F1800.000
G1 X87.991 Y107.067 E4.33376
G1 F1800.000
G1 X92.668 Y109.767 E4.50848
G1 F1800.000
G1 X92.725 Y109.800 E4.51087
G1 X92.841 Y109.733 E4.51566
G1 F1800.000
G1 X97.517 Y107.033 E4.69038
G1 F1800.000
G1 X97.575 Y107.000 E4.69277
G1 F1800.000
G1 X97.575 Y106.867 E4.69755
G1 F1800.000
G1 X97.575 Y101.467 E4.87227
G1 F1800.000
G1 X97.575 Y101.400 E4.87466
G1 X97.691 Y101.333 E4.87944
G1 F1800.000
G1 X102.367 Y98.633 E5.05416
G1 F1800.000
G1 X102.425 Y98.600 E5.05655
G1 X102.425 Y98.533 F7800.000
G1 F1800.000
G1 X102.425 Y98.600 E5.05894
G1 X102.540 Y98.667 E5.06373
G1 F1800.000
G1 X107.217 Y101.367 E5.23844
G1 F1800.000
G1 X107.275 Y101.400 E5.24083
G1 X107.275 Y101.467 F7800.000
G1 F1800.000
G1 X107.275 Y101.400 E5.24323
G1 X107.390 Y101.333 E5.24801
G1 F1800.000
G1 X112.067 Y98.633 E5.42273
G1 F1800.000
G1 X112.124 Y98.600 E5.42513
G1 F1800.000
G1 X112.240 Y98.667 E5.42991
G1 F1800.000
G1 X116.916 Y101.367 E5.60462
G1 F1800.000
G1 X116.974 Y101.400 E5.60702
G1 X117.090 Y101.333 E5.61180
G1 F1800.000
G1 X121.766 Y98.633 E5.78652
G1 F1800.000
G1 X121.824 Y98.600 E5.78891
G1 X121.824 Y98.533 F7800.000
G1 F1800.000
G1 X121.824 Y98.600 E5.79130
G1 X121.939 Y98.667 E5.79609
G1 F1800.000
G1 X126.500 Y101.300 E5.96649
G1 X126.649 Y101.414 E5.97255
G1 X126.674 Y101.600 E5.97861
G1 X126.674 Y106.800 E6.14685
G1 X126.649 Y106.986 E6.15291
G1 X126.500 Y107.100 E6.15897
G1 X121.882 Y109.767 E6.33153
G1 F1800.000
G1 X121.824 Y109.800 E6.33392
G1 F1800.000
G1 X121.766 Y109.767 E6.33631
G1 F1800.000
G1 X117.090 Y107.067 E6.51103
G1 F1800.000
G1 X116.974 Y107.000 E6.51582
G1 X116.974 Y106.933 E6.51821
G1 F1800.000
G1 X116.974 Y101.533 E6.69292
G1 F1800.000
G1 X116.974 Y101.400 E6.69771
G1 E4.69771 F2400.00000
G92 E0
G1 X116.974 Y107.000 F7800.000
G1 E2.00000 F2400.00000
G1 F1800.000
G1 X116.916 Y107.033 E2.00239
G1 F1800.000
G1 X112.240 Y109.733 E2.17711
G1 F1800.000
G1 X112.124 Y109.800 E2.18189
G1 X112.067 Y109.767 E2.18428
G1 F1800.000
G1 X107.390 Y107.067 E2.35900
G1 F1800.000
G1 X107.275 Y107.000 E2.36379
G1 F1800.000
G1 X107.217 Y107.033 E2.36618
G1 F1800.000
G1 X102.540 Y109.733 E2.54090
G1 F1800.000
G1 X102.425 Y109.800 E2.54568
G1 X102.367 Y109.767 E2.54807
G1 F1800.000
G1 X97.691 Y107.067 E2.72279
G1 F1800.000
G1 X97.575 Y107.000 E2.72757
G1 E0.72757 F2400.00000
G92 E0
G1 X102.425 Y109.800 F7800.000
G1 E2.00000 F2400.00000
G1 F1800.000
G1 X102.425 Y109.933 E2.00479
G1 F1800.000
G1 X102.425 Y115.333 E2.17950
G1 F1800.000
G1 X102.425 Y115.400 E2.18189
G1 X102.540 Y115.467 E2.18668
G1 F1800.000
G1 X107.217 Y118.167 E2.36139
G1 F1800.000
G1 X107.275 Y118.200 E2.36378
G1 F1800.000
G1 X107.390 Y118.133 E2.36857
G1 F1800.000
G1 X112.067 Y115.433 E2.54329
G1 F1800.000
G1 X112.124 Y115.400 E2.54568
G1 X112.240 Y115.467 E2.55047
G1 F1800.000
G1 X116.916 Y118.167 E2.72518
G1 F1800.000
G1 X116.974 Y118.200 E2.72757
G1 F1800.000
G1 X116.974 Y118.333 E2.73236
G1 F1800.000
G1 X116.974 Y123.733 E2.90707
G1 F1800.000
G1 X116.974 Y123.800 E2.90946
G1 X117.090 Y120.000 E3.04592
G1 F1800.000
G1 X117.147 Y118.100 E3.10742
G1 X121.766 Y115.433 E3.27998
G1 F1800.000
G1 X121.824 Y115.400 E3.28237
G1 X121.882 Y115.433 F7800.000
G1 F1800.000
G1 X121.824 Y115.400 E3.28476
G1 X121.824 Y115.267 E3.28955
G1 F1800.000
G1 X121.824 Y109.867 E3.46426
G1 F1800.000
G1 X121.824 Y109.800 E3.46665
G1 E1.46665 F2400.00000
G92 E0
G1 X121.882 Y115.433 F7800.000
G1 E2.00000 F2400.00000
G1 F1800.000
G1 X126.500 Y118.100 E2.17256
G1 X126.649 Y118.214 E2.17862
G1 X126.674 Y118.400 E2.18468
G1 X126.674 Y123.600 E2.35292
G1 X126.649 Y123.786 E2.35898
G1 X126.500 Y123.900 E2.36504
G1 X121.997 Y126.500 E2.53328
G1 X121.824 Y126.571 E2.53934
G1 X121.651 Y126.500 E2.54540
G1 X117.090 Y123.867 E2.71580
G1 F1800.000
G1 X116.974 Y123.800 E2.72059
G1 F1800.000
G1 X116.916 Y123.833 E2.72298
G1 F1800.000
G1 X112.298 Y126.500 E2.89554
G1 X112.124 Y126.571 E2.90160
G1 X111.951 Y126.500 E2.90766
G1 X107.448 Y123.900 E3.07591
G1 X107.390 Y122.000 E3.13741
G1 F1800.000
G1 X107.275 Y118.200 E3.27388
G1 X107.275 Y118.267 E3.27627
G1 F1800.000
G1 X107.275 Y123.667 E3.45100
G1 F1800.000
G1 X107.275 Y123.800 E3.45579
G1 F1800.000
G1 X107.217 Y123.833 E3.45818
G1 F1800.000
G1 X102.598 Y126.500 E3.63074
G1 X102.425 Y126.571 E3.63680
G1 X102.252 Y126.500 E3.64286
G1 X97.691 Y123.867 E3.81326
G1 F1800.000
G1 X97.575 Y123.800 E3.81804
G1 X97.517 Y123.833 E3.82043
G1 F1800.000
G1 X92.899 Y126.500 E3.99300
G1 X92.725 Y126.571 E3.99906
G1 X92.552 Y126.500 E4.00512
G1 X87.991 Y123.867 E4.17552
G1 F1800.000
G1 X87.876 Y123.800 E4.18030
G1 F1800.000
G1 X87.818 Y123.833 E4.18270
G1 F1800.000
G1 X83.199 Y126.500 E4.35526
G1 X83.026 Y126.571 E4.36132
G1 X82.853 Y126.500 E4.36738
G1 X78.349 Y123.900 E4.53562
G1 X78.201 Y123.786 E4.54168
G1 X78.176 Y123.600 E4.54774
G1 X78.176 Y114.600 E4.83893
G1 F1800.000
G1 X78.176 Y107.000 E5.11172
G1 X78.118 Y107.033 E5.11411
G1 F1800.000
G1 X73.500 Y109.700 E5.28667
G1 X73.351 Y109.814 E5.29273
G1 X73.326 Y110.000 E5.29879
G1 X73.326 Y115.200 E5.46703
G1 X73.351 Y115.386 E5.47309
G1 X73.500 Y115.500 E5.47915
G1 X78.061 Y118.133 E5.64956
G1 F1800.000
G1 X78.176 Y118.200 E5.65434
G1 F1800.000
G1 X78.292 Y118.133 E5.65913
G1 F1800.000
G1 X82.968 Y115.433 E5.83384
G1 F1800.000
G1 X83.026 Y115.400 E5.83624
G1 X83.026 Y115.267 E5.84102
G1 F1800.000
G1 X83.026 Y109.867 E6.01574
G1 F1800.000
G1 X83.026 Y109.800 E6.01813
G1 E4.01813 F2400.00000
G92 E0
G1 X83.026 Y115.400 F7800.000
G1 E2.00000 F2400.00000
G1 F1800.000
G1 X83.141 Y115.467 E2.00479
G1 F1800.000
G1 X87.818 Y118.167 E2.17950
G1 F1800.000
G1 X87.876 Y118.200 E2.18189
G1 X87.876 Y118.333 E2.18668
G1 F1800.000
G1 X87.876 Y123.733 E2.36140
G1 F1800.000
G1 X87.876 Y123.800 E2.36379
G1 E0.36379 F2400.00000
G92 E0
G1 X87.876 Y118.200 F7800.000
G1 E2.00000 F2400.00000
G1 F1800.000
G1 X87.991 Y118.133 E2.00479
G1 F1800.000
G1 X92.668 Y115.433 E2.17950
G1 F1800.000
G1 X92.725 Y115.400 E2.18190
G1 X92.841 Y115.467 E2.18668
G1 F1800.000
G1 X97.517 Y118.167 E2.36140
G1 F1800.000
G1 X97.575 Y118.200 E2.36379
G1 X97.575 Y118.267 F7800.000
G1 F1800.000
G1 X97.575 Y118.200 E2.36618
G1 X97.691 Y118.133 E2.37097
G1 F1800.000
G1 X102.367 Y115.433 E2.54568
G1 F1800.000
G1 X102.425 Y115.400 E2.54807
G1 E0.54807 F2400.00000
G92 E0
G1 X97.575 Y118.267 F7800.000
G1 E2.00000 F2400.00000
G1 F1800.000
G1 X97.575 Y123.667 E2.17471
G1 F1800.000
G1 X97.575 Y123.800 E2.17950
G1 E0.17950 F2400.00000
G92 E0
G1 X92.725 Y115.400 F7800.000
G1 E2.00000 F2400.00000
G1 F1800.000
G1 X92.725 Y115.267 E2.00479
G1 F1800.000
G1 X92.725 Y109.867 E2.17950
G1 F1800.000
G1 X92.725 Y109.800 E2.18189
G1 E0.18189 F2400.00000
G92 E0
G1 X87.876 Y106.933 F7800.000
G1 E2.00000 F2400.00000
G1 F1800.000
G1 X87.876 Y107.000 E2.00239
G1 X87.991 Y103.200 E2.13885
G1 F1800.000
G1 X88.049 Y101.300 E2.20035
G1 X92.668 Y98.633 E2.37291
G1 F1800.000
G1 X92.725 Y98.600 E2.37530
G1 X92.725 Y98.533 F7800.000
G1 F1800.000
G1 X92.725 Y98.600 E2.37770
G1 X92.841 Y98.667 E2.38248
G1 F1800.000
G1 X97.517 Y101.367 E2.55720
G1 F1800.000
G1 X97.575 Y101.400 E2.55959
G1 E0.55959 F2400.00000
G92 E0
G1 X102.425 Y98.533 F7800.000
G1 E2.00000 F2400.00000
G1 F1800.000
G1 X102.425 Y93.133 E2.17471
G1 F1800.000
G1 X102.425 Y93.000 E2.17950
G1 X102.367 Y92.967 F7800.000
G1 F1800.000
G1 X102.425 Y93.000 E2.18189
G1 X102.540 Y92.933 E2.18668
G1 F1800.000
G1 X107.217 Y90.233 E2.36139
G1 F1800.000
G1 X107.275 Y90.200 E2.36378
G1 F1800.000
G1 X107.275 Y90.067 E2.36857
G1 F1800.000
G1 X107.275 Y84.667 E2.54330
G1 F1800.000
G1 X107.275 Y84.600 E2.54569
G1 X107.390 Y88.400 E2.68216
G1 F1800.000
G1 X107.448 Y90.300 E2.74366
G1 X112.067 Y92.967 E2.91622
G1 F1800.000
G1 X112.124 Y93.000 E2.91861
G1 F1800.000
G1 X112.124 Y93.133 E2.92340
G1 F1800.000
G1 X112.124 Y98.533 E3.09811
G1 F1800.000
G1 X112.124 Y98.600 E3.10050
G1 X112.240 Y94.800 E3.23696
G1 F1800.000
G1 X112.298 Y92.900 E3.29846
G1 X116.916 Y90.233 E3.47101
G1 F1800.000
G1 X116.974 Y90.200 E3.47341
G1 F1800.000
G1 X116.974 Y90.067 E3.47819
G1 F1800.000
G1 X116.974 Y84.667 E3.65290
G1 F1800.000
G1 X116.974 Y84.600 E3.65530
G1 X117.090 Y84.533 E3.66008
G1 F1800.000
G1 X121.766 Y81.833 E3.83480
G1 F1800.000
G1 X121.824 Y81.800 E3.83719
G1 F1800.000
G1 X121.824 Y81.733 E3.83958
G1 F1800.000
G1 X121.824 Y76.400 E4.01214
G1 X121.799 Y76.214 E4.01820
G1 X121.651 Y76.100 E4.02426
G1 X117.147 Y73.500 E4.19250
G1 X116.974 Y73.429 E4.19856
G1 X116.801 Y73.500 E4.20462
G1 X112.240 Y76.133 E4.37502
G1 F1800.000
G1 X112.124 Y76.200 E4.37981
G1 X112.067 Y76.167 E4.38220
G1 F1800.000
G1 X107.448 Y73.500 E4.55476
G1 X107.275 Y73.429 E4.56082
G1 X107.101 Y73.500 E4.56688
G1 X102.540 Y76.133 E4.73728
G1 F1800.000
G1 X102.425 Y76.200 E4.74206
G1 F1800.000
G1 X102.367 Y76.167 E4.74446
G1 F1800.000
G1 X97.748 Y73.500 E4.91701
G1 X97.575 Y73.429 E4.92307
G1 X97.402 Y73.500 E4.92913
G1 X92.841 Y76.133 E5.09953
G1 F1800.000
G1 X92.725 Y76.200 E5.10432
G1 X92.668 Y76.167 E5.10671
G1 F1800.000
G1 X88.049 Y73.500 E5.27927
G1 X87.876 Y73.429 E5.28533
G1 X87.702 Y73.500 E5.29139
G1 X83.141 Y76.133 E5.46179
G1 F1800.000
G1 X83.026 Y76.200 E5.46658
G1 F1800.000
G1 X83.026 Y76.267 E5.46897
G1 F1800.000
G1 X83.026 Y81.667 E5.64369
G1 F1800.000
G1 X83.026 Y81.800 E5.64847
G1 X82.968 Y81.833 E5.65086
G1 F1800.000
G1 X78.292 Y84.533 E5.82558
G1 F1800.000
G1 X78.176 Y84.600 E5.83037
G1 E3.83037 F2400.00000
G92 E0
G1 X83.026 Y81.800 F7800.000
G1 E2.00000 F2400.00000
G1 F1800.000
G1 X83.141 Y81.867 E2.00479
G1 F1800.000
G1 X87.818 Y84.567 E2.17950
G1 F1800.000
G1 X87.876 Y84.600 E2.18190
G1 X87.991 Y84.533 E2.18668
G1 F1800.000
G1 X92.668 Y81.833 E2.36140
G1 F1800.000
G1 X92.725 Y81.800 E2.36379
G1 X92.725 Y81.733 F7800.000
G1 F1800.000
G1 X92.725 Y81.800 E2.36618
G1 X92.841 Y81.867 E2.37097
G1 F1800.000
G1 X97.517 Y84.567 E2.54568
G1 F1800.000
G1 X97.575 Y84.600 E2.54808
G1 F1800.000
G1 X97.575 Y84.733 E2.55286
G1 F1800.000
G1 X97.575 Y90.133 E2.72757
G1 F1800.000
G1 X97.575 Y90.200 E2.72997
G1 X97.691 Y86.400 E2.86642
G1 F1800.000
G1 X97.748 Y84.500 E2.92792
G1 X102.367 Y81.833 E3.10048
G1 F1800.000
G1 X102.425 Y81.800 E3.10287
G1 F1800.000
G1 X102.425 Y81.667 E3.10766
G1 F1800.000
G1 X102.425 Y76.267 E3.28237
G1 F1800.000
G1 X102.425 Y76.200 E3.28476
G1 X102.540 Y80.000 E3.42122
G1 F1800.000
G1 X102.598 Y81.900 E3.48272
G1 X107.217 Y84.567 E3.65528
G1 F1800.000
G1 X107.275 Y84.600 E3.65767
G1 F1800.000
G1 X107.390 Y84.533 E3.66245
G1 F1800.000
G1 X112.067 Y81.833 E3.83717
G1 F1800.000
G1 X112.124 Y81.800 E3.83957
G1 X112.240 Y81.867 E3.84435
G1 F1800.000
G1 X116.916 Y84.567 E4.01906
G1 F1800.000
G1 X116.974 Y84.600 E4.02146
G1 E2.02146 F2400.00000
G92 E0
G1 X112.124 Y81.800 F7800.000
G1 E2.00000 F2400.00000
G1 F1800.000
G1 X112.124 Y81.667 E2.00479
G1 F1800.000
G1 X112.124 Y76.267 E2.17950
G1 F1800.000
G1 X112.124 Y76.200 E2.18189
G1 E0.18189 F2400.00000
G92 E0
G1 X121.824 Y81.800 F7800.000
G1 E2.00000 F2400.00000
G1 F1800.000
G1 X121.882 Y81.833 E2.00239
G1 F1800.000
G1 X126.500 Y84.500 E2.17495
G1 X126.649 Y84.614 E2.18101
G1 X126.674 Y84.800 E2.18707
G1 X126.674 Y90.000 E2.35531
G1 X126.649 Y90.186 E2.36137
G1 X126.500 Y90.300 E2.36743
G1 X121.939 Y92.933 E2.53783
G1 F1800.000
G1 X121.824 Y93.000 E2.54262
G1 X121.766 Y92.967 E2.54501
G1 F1800.000
G1 X117.090 Y90.267 E2.71973
G1 F1800.000
G1 X116.974 Y90.200 E2.72451
G1 E0.72451 F2400.00000
G92 E0
G1 X121.824 Y93.000 F7800.000
G1 E2.00000 F2400.00000
G1 F1800.000
G1 X121.824 Y93.133 E2.00479
G1 F1800.000
G1 X121.824 Y98.533 E2.17950
G1 E0.17950 F2400.00000
G92 E0
G1 X107.275 Y101.467 F7800.000
G1 E2.00000 F2400.00000
G1 F1800.000
G1 X107.275 Y106.867 E2.17473
G1 F1800.000
G1 X107.275 Y107.000 E2.17952
G1 E0.17952 F2400.00000
G92 E0
G1 X112.124 Y109.800 F7800.000
G1 E2.00000 F2400.00000
G1 F1800.000
G1 X112.124 Y109.867 E2.00239
G1 F1800.000
G1 X112.124 Y115.267 E2.17710
G1 F1800.000
G1 X112.124 Y115.400 E2.18189
G1 E0.18189 F2400.00000
G92 E0
G1 X102.367 Y92.967 F7800.000
G1 E2.00000 F2400.00000
G1 F1800.000
G1 X97.691 Y90.267 E2.17471
G1 F1800.000
G1 X97.575 Y90.200 E2.17950
G1 F1800.000
G1 X97.517 Y90.233 E2.18189
G1 F1800.000
G1 X92.841 Y92.933 E2.35661
G1 F1800.000
G1 X92.725 Y93.000 E2.36139
G1 X92.668 Y92.967 E2.36378
G1 F1800.000
G1 X87.991 Y90.267 E2.53850
G1 F1800.000
G1 X87.876 Y90.200 E2.54329
G1 X87.818 Y90.233 F7800.000
G1 F1800.000
G1 X87.876 Y90.200 E2.54568
G1 X87.876 Y90.067 E2.55047
G1 F1800.000
G1 X87.876 Y84.667 E2.72518
G1 F1800.000
G1 X87.876 Y84.600 E2.72758
G1 E0.72758 F2400.00000
G92 E0
G1 X92.725 Y81.733 F7800.000
G1 E2.00000 F2400.00000
G1 F1800.000
G1 X92.725 Y76.333 E2.17471
G1 F1800.000
G1 X92.725 Y76.200 E2.17950
G1 E0.17950 F2400.00000
G92 E0
G1 X87.818 Y90.233 F7800.000
G1 E2.00000 F2400.00000
G1 F1800.000
G1 X83.141 Y92.933 E2.17472
G1 F1800.000
G1 X83.026 Y93.000 E2.17950
G1 X82.968 Y92.967 F7800.000
G1 F1800.000
G1 X83.026 Y93.000 E2.18189
G1 X83.026 Y93.133 E2.18668
G1 F1800.000
G1 X83.026 Y98.533 E2.36140
G1 F1800.000
G1 X83.026 Y98.600 E2.36379
G1 X82.968 Y98.633 F7800.000
G1 F1800.000
G1 X83.026 Y98.600 E2.36618
G1 X83.141 Y98.667 E2.37097
G1 F1800.000
G1 X87.818 Y101.367 E2.54568
