; generated by PrusaSlicer 2.6.1+win64 on 2024-04-25 at 14:15:23 UTC

; 

; external perimeters extrusion width = 0.45mm
; perimeters extrusion width = 0.45mm
; infill extrusion width = 0.45mm
; solid infill extrusion width = 0.45mm
; top infill extrusion width = 0.42mm
; first layer extrusion width = 0.50mm

M73 P0 R38
M201 X4000 Y4000 Z200 E2500 ; sets maximum accelerations, mm/sec^2
M203 X300 Y300 Z40 E100 ; sets maximum feedrates, mm / sec
M204 P4000 R1200 T4000 ; sets acceleration (P, T) and retract acceleration (R), mm/sec^2
M205 X8.00 Y8.00 Z2.00 E10.00 ; sets the jerk limits, mm/sec
M205 S0 T0 ; sets the minimum extruding and travel feed rate, mm/sec
;TYPE:Custom
M17 ; enable steppers
M862.1 P0.4 ; nozzle diameter check
M862.3 P "MK4" ; printer model check
M862.5 P2 ; g-code level check
M862.6 P"Input shaper" ; FW feature check
M115 U5.1.2+13478

M555 X72.98 Y69 W54.04 H58

G90 ; use absolute coordinates
M83 ; extruder relative mode

M140 S85 ; set bed temp
M104 T0 S175 ; set extruder temp for bed leveling
M109 T0 R175 ; wait for temp

M84 E ; turn off E motor

G28 ; home all without mesh bed level

G1 X42 Y-4 Z5 F4800

M302 S160 ; lower cold extrusion limit to 160C


G1 E-2 F2400 ; retraction


M84 E ; turn off E motor

G29 P9 X10 Y-4 W32 H4



G0 Z40 F10000

M190 S85 ; wait for bed temp

M107

;
; MBL
;
M84 E ; turn off E motor
G29 P1 ; invalidate mbl & probe print area
G29 P1 X0 Y0 W50 H20 C ; probe near purge place
G29 P3.2 ; interpolate mbl probes
G29 P3.13 ; extrapolate mbl outside probe area
G29 A ; activate mbl

; prepare for purge
M104 S240
G0 X0 Y-4 Z15 F4800 ; move away and ready for the purge
M109 S240

G92 E0
M569 S0 E ; set spreadcycle mode for extruder

;
; Extrude purge line
;
G92 E0 ; reset extruder position
G1 E2 F2400 ; deretraction after the initial one before nozzle cleaning
G0 E7 X15 Z0.2 F500 ; purge
G0 X25 E4 F500 ; purge
G0 X35 E4 F650 ; purge
G0 X45 E4 F800 ; purge
G0 X48 Z0.05 F8000 ; wipe, move close to the bed
G0 X51 Z0.2 F8000 ; wipe, move quickly away from the bed

G92 E0
M221 S100 ; set flow to 100%
G21 ; set units to millimeters
G90 ; use absolute coordinates
M83 ; use relative distances for extrusion
M900 K0.07 ; Filament gcode


M572 S0.055 ; Filament gcode


M142 S36 ; set heatbreak target temp
M107
;LAYER_CHANGE
;Z:0.2
;HEIGHT:0.2
;BEFORE_LAYER_CHANGE
G92 E0.0
;0.2
M201 X4000 Y4000
M74 W0

G1 E-.8 F2100
G1 Z.2 F720
;AFTER_LAYER_CHANGE
;0.2
; printing object Object Group 8 id:0 copy 0
G1 Z.4
M204 T4000
G1 X78.014 Y101.494 F18000
G1 Z.2 F720
G1 E.8 F2100
M204 P500
;TYPE:External perimeter
;WIDTH:0.418139
G1 F2400
G1 X77.973 Y101.47 E.00148
;WIDTH:0.393004
G1 X77.932 Y101.447 E.00137
;WIDTH:0.367871
G1 X73.408 Y98.835 E.14115
;WIDTH:0.391201
G1 X73.176 Y98.687 E.00797
G1 X73.164 Y98.412 E.00797
;WIDTH:0.367871
G1 X73.164 Y93.188 E.14115
;WIDTH:0.391201
G1 X73.176 Y92.913 E.00797
G1 X73.408 Y92.765 E.00797
;WIDTH:0.393006
G1 X75.711 Y91.436 E.0774
;WIDTH:0.418139
G1 X78.014 Y90.106 E.08297
G1 X78.014 Y90.059 E.00147
;WIDTH:0.393004
G1 X78.014 Y87.353 E.07877
;WIDTH:0.418139
G1 X78.014 Y84.694 E.08296
G1 X77.973 Y84.67 E.00148
;WIDTH:0.393004
G1 X77.932 Y84.647 E.00137
;WIDTH:0.367871
G1 X73.408 Y82.035 E.14115
;WIDTH:0.391201
G1 X73.176 Y81.887 E.00797
G1 X73.164 Y81.612 E.00797
;WIDTH:0.367871
G1 X73.164 Y76.388 E.14115
;WIDTH:0.391201
G1 X73.176 Y76.113 E.00797
G1 X73.408 Y75.965 E.00797
;WIDTH:0.367872
G1 X77.932 Y73.353 E.14115
;WIDTH:0.3912
G1 X78.176 Y73.226 E.00797
G1 X78.42 Y73.353 E.00797
;WIDTH:0.393005
G1 X80.723 Y74.683 E.07742
;WIDTH:0.41814
G1 X83.026 Y76.012 E.08296
G1 X83.067 Y75.989 E.00147
;WIDTH:0.393005
G1 X83.107 Y75.965 E.00136
;WIDTH:0.36787
G1 X87.632 Y73.353 E.14117
;WIDTH:0.3912
G1 X87.876 Y73.226 E.00797
G1 X88.119 Y73.353 E.00794
;WIDTH:0.393001
G1 X90.422 Y74.683 E.07742
;WIDTH:0.418133
G1 X92.725 Y76.012 E.08296
G1 X92.766 Y75.989 E.00147
;WIDTH:0.393
G1 X92.807 Y75.965 E.00138
;WIDTH:0.367871
G1 X97.331 Y73.353 E.14115
;WIDTH:0.3912
G1 X97.575 Y73.226 E.00797
G1 X97.819 Y73.353 E.00797
;WIDTH:0.393001
G1 X100.122 Y74.683 E.07742
;WIDTH:0.418133
G1 X102.425 Y76.012 E.08296
G1 X102.465 Y75.989 E.00144
;WIDTH:0.393
G1 X102.506 Y75.965 E.00138
;WIDTH:0.367871
G1 X107.031 Y73.353 E.14117
;WIDTH:0.3912
G1 X107.275 Y73.226 E.00797
G1 X107.518 Y73.353 E.00794
;WIDTH:0.393001
G1 X109.821 Y74.683 E.07742
;WIDTH:0.418133
G1 X112.124 Y76.012 E.08296
G1 X112.165 Y75.989 E.00147
;WIDTH:0.393
G1 X112.206 Y75.965 E.00138
;WIDTH:0.367868
G1 X116.73 Y73.353 E.14115
;WIDTH:0.3912
G1 X116.974 Y73.226 E.00797
G1 X117.218 Y73.353 E.00797
;WIDTH:0.36787
G1 X121.743 Y75.965 E.14117
;WIDTH:0.391192
G1 X121.975 Y76.113 E.00797
G1 X121.986 Y76.388 E.00797
;WIDTH:0.392996
G1 X121.986 Y79.047 E.0774
;WIDTH:0.418133
G1 X121.986 Y81.706 E.08296
G1 X124.289 Y83.036 E.08297
;WIDTH:0.393
G1 X126.592 Y84.365 E.0774
;WIDTH:0.391192
G1 X126.824 Y84.513 E.00797
G1 X126.836 Y84.788 E.00797
;WIDTH:0.367859
G1 X126.836 Y90.012 E.14115
;WIDTH:0.391193
G1 X126.824 Y90.287 E.00797
G1 X126.592 Y90.435 E.00797
;WIDTH:0.393
G1 X124.289 Y91.764 E.0774
;WIDTH:0.418133
G1 X121.986 Y93.094 E.08297
G1 X121.986 Y98.506 E.16885
G1 X124.289 Y99.836 E.08297
;WIDTH:0.393
G1 X126.592 Y101.165 E.0774
;WIDTH:0.391192
G1 X126.824 Y101.313 E.00797
G1 X126.836 Y101.588 E.00797
;WIDTH:0.367859
G1 X126.836 Y106.812 E.14115
;WIDTH:0.391193
G1 X126.824 Y107.087 E.00797
G1 X126.592 Y107.235 E.00797
;WIDTH:0.393
G1 X124.289 Y108.564 E.0774
;WIDTH:0.418133
G1 X121.986 Y109.894 E.08297
G1 X121.986 Y115.306 E.16885
G1 X124.289 Y116.636 E.08297
;WIDTH:0.393
G1 X126.592 Y117.965 E.0774
;WIDTH:0.391192
G1 X126.824 Y118.113 E.00797
G1 X126.824 Y118.213 E.0029
G1 X126.836 Y118.388 E.00508
;WIDTH:0.367859
G1 X126.836 Y123.612 E.14115
;WIDTH:0.391193
G1 X126.824 Y123.887 E.00797
G1 X126.592 Y124.035 E.00797
;WIDTH:0.367868
G1 X122.068 Y126.647 E.14115
;WIDTH:0.3912
G1 X121.824 Y126.774 E.00797
G1 X121.58 Y126.647 E.00797
;WIDTH:0.393003
G1 X119.277 Y125.317 E.07742
;WIDTH:0.418134
G1 X116.974 Y123.988 E.08296
G1 X116.933 Y124.011 E.00147
;WIDTH:0.393001
G1 X116.893 Y124.035 E.00136
;WIDTH:0.36787
G1 X112.368 Y126.647 E.14117
;WIDTH:0.3912
G1 X112.124 Y126.774 E.00797
G1 X111.881 Y126.647 E.00794
;WIDTH:0.367869
G1 X107.356 Y124.035 E.14117
;WIDTH:0.393015
G1 X107.315 Y124.011 E.00138
;WIDTH:0.418162
G1 X107.275 Y123.988 E.00144
G1 X107.234 Y124.011 E.00147
;WIDTH:0.393027
G1 X107.193 Y124.035 E.00138
;WIDTH:0.367892
G1 X102.669 Y126.647 E.14116
;WIDTH:0.391199
G1 X102.425 Y126.774 E.00797
G1 X102.181 Y126.647 E.00797
;WIDTH:0.393002
G1 X99.878 Y125.317 E.07742
;WIDTH:0.418134
G1 X97.575 Y123.988 E.08296
G1 X97.535 Y124.011 E.00144
;WIDTH:0.393001
G1 X97.494 Y124.035 E.00138
;WIDTH:0.367871
G1 X92.969 Y126.647 E.14117
;WIDTH:0.391201
G1 X92.725 Y126.774 E.00797
G1 X92.482 Y126.647 E.00794
;WIDTH:0.393005
G1 X90.179 Y125.317 E.07742
;WIDTH:0.418141
G1 X87.876 Y123.988 E.08296
G1 X85.573 Y125.317 E.08296
;WIDTH:0.393006
G1 X83.27 Y126.647 E.07742
;WIDTH:0.391201
G1 X83.026 Y126.774 E.00797
G1 X82.782 Y126.647 E.00797
;WIDTH:0.36787
G1 X78.257 Y124.035 E.14117
;WIDTH:0.391199
G1 X78.025 Y123.887 E.00797
G1 X78.014 Y123.612 E.00797
;WIDTH:0.393004
G1 X78.014 Y120.953 E.0774
;WIDTH:0.418139
G1 X78.014 Y118.294 E.08296
G1 X77.973 Y118.27 E.00148
;WIDTH:0.393004
G1 X77.932 Y118.247 E.00137
;WIDTH:0.367872
G1 X73.408 Y115.635 E.14115
;WIDTH:0.391201
G1 X73.176 Y115.487 E.00797
G1 X73.164 Y115.212 E.00797
;WIDTH:0.367871
G1 X73.164 Y109.988 E.14115
;WIDTH:0.391201
G1 X73.176 Y109.713 E.00797
G1 X73.408 Y109.565 E.00797
;WIDTH:0.393005
G1 X75.711 Y108.236 E.0774
;WIDTH:0.418139
G1 X78.014 Y106.906 E.08297
G1 X78.014 Y106.859 E.00147
;WIDTH:0.393004
G1 X78.014 Y104.153 E.07877
;WIDTH:0.418139
G1 X78.014 Y101.554 E.08109
M204 P4000
G1 E-.16 F2100
;WIPE_START
G1 F14400
G1 X77.973 Y101.47 E-.01295
G1 X77.932 Y101.447 E-.00651
G1 X74.053 Y99.207 E-.62054
;WIPE_END
G1 Z.4 F720
G1 X117.137 Y118.294 F18000
G1 Z.2 F720
G1 E.8 F2100
M204 P500
;WIDTH:0.418134
G1 F2400
G1 X121.824 Y115.588 E.16885
G1 X124.127 Y116.917 E.08296
;WIDTH:0.393
G1 X126.43 Y118.247 E.07741
;WIDTH:0.391192
G1 X126.499 Y118.301 E.00254
G1 X126.511 Y118.388 E.00254
;WIDTH:0.367859
G1 X126.511 Y123.612 E.14115
;WIDTH:0.391193
G1 X126.499 Y123.699 E.00254
G1 X126.43 Y123.753 E.00254
;WIDTH:0.367868
G1 X121.905 Y126.365 E.14117
;WIDTH:0.3912
G1 X121.824 Y126.399 E.00254
G1 X121.743 Y126.365 E.00254
;WIDTH:0.367871
G1 X117.218 Y123.753 E.14117
;WIDTH:0.393001
G1 X117.177 Y123.73 E.00137
;WIDTH:0.418134
G1 X117.137 Y123.706 E.00146
G1 X117.137 Y118.354 E.16698
M204 P4000
G1 X116.999 Y117.918 F18000
G1 E-.16 F2100
;WIPE_START
G1 F14400
G1 X121.115 Y116.006 E-.64
;WIPE_END
G1 Z.4 F720
G1 X97.738 Y118.294 F18000
G1 Z.2 F720
G1 E.8 F2100
M204 P500
G1 F2400
G1 X100.041 Y116.964 E.08297
;WIDTH:0.393001
G1 X102.384 Y115.611 E.07876
;WIDTH:0.418133
G1 X102.425 Y115.588 E.00147
G1 X104.728 Y116.917 E.08296
;WIDTH:0.393012
G1 X107.072 Y118.27 E.07879
;WIDTH:0.418162
G1 X107.112 Y118.294 E.00146
G1 X107.112 Y120.953 E.08296
;WIDTH:0.393036
G1 X107.112 Y123.612 E.07741
G1 X107.112 Y123.659 E.00137
;WIDTH:0.418162
G1 X107.112 Y123.706 E.00147
G1 X107.072 Y123.73 E.00146
;WIDTH:0.393027
G1 X107.031 Y123.753 E.00137
;WIDTH:0.367892
G1 X102.506 Y126.365 E.14118
;WIDTH:0.391199
G1 X102.425 Y126.399 E.00254
G1 X102.344 Y126.365 E.00254
;WIDTH:0.367869
G1 X97.819 Y123.753 E.14117
;WIDTH:0.393001
G1 X97.778 Y123.73 E.00137
;WIDTH:0.418134
G1 X97.738 Y123.706 E.00146
G1 X97.738 Y118.354 E.16698
M204 P4000
G1 X97.6 Y117.918 F18000
G1 E-.16 F2100
;WIPE_START
G1 F14400
G1 X100.041 Y116.964 E-.37267
G1 X101.712 Y115.999 E-.26733
;WIPE_END
G1 Z.4 F720
G1 X116.812 Y118.294 F18000
G1 Z.2 F720
G1 E.8 F2100
M204 P500
G1 F2400
G1 X116.812 Y120.953 E.08296
;WIDTH:0.392997
G1 X116.812 Y123.659 E.07877
;WIDTH:0.418134
G1 X116.812 Y123.706 E.00147
G1 X114.509 Y125.036 E.08297
;WIDTH:0.393002
G1 X112.206 Y126.365 E.0774
;WIDTH:0.3912
G1 X112.124 Y126.399 E.00257
G1 X112.043 Y126.365 E.00254
;WIDTH:0.367869
G1 X107.518 Y123.753 E.14117
;WIDTH:0.393015
G1 X107.478 Y123.73 E.00134
;WIDTH:0.418162
G1 X107.437 Y123.706 E.00148
G1 X107.437 Y118.294 E.16886
G1 X107.478 Y118.27 E.00148
;WIDTH:0.393014
G1 X107.518 Y118.247 E.00134
;WIDTH:0.393
G1 X109.821 Y116.917 E.07741
;WIDTH:0.418133
G1 X112.124 Y115.588 E.08296
G1 X114.427 Y116.917 E.08296
;WIDTH:0.393001
G1 X116.76 Y118.264 E.07842
M204 P4000
G1 E-.16 F2100
;WIPE_START
G1 F14400
G1 X116.812 Y120.953 E-.37261
G1 X116.812 Y122.883 E-.26739
;WIPE_END
G1 Z.4 F720
G1 X111.962 Y109.894 F18000
G1 Z.2 F720
G1 E.8 F2100
M204 P500
;WIDTH:0.418133
G1 F2400
G1 X111.962 Y112.553 E.08296
;WIDTH:0.392996
G1 X111.962 Y115.259 E.07877
;WIDTH:0.418133
G1 X111.962 Y115.306 E.00147
G1 X109.659 Y116.636 E.08297
;WIDTH:0.393
G1 X107.315 Y117.989 E.07878
;WIDTH:0.418162
G1 X107.275 Y118.012 E.00144
G1 X107.234 Y117.989 E.00147
;WIDTH:0.393027
G1 X107.193 Y117.965 E.00138
;WIDTH:0.367891
G1 X102.669 Y115.353 E.14116
;WIDTH:0.393
G1 X102.628 Y115.33 E.00137
;WIDTH:0.418133
G1 X102.587 Y115.306 E.00148
G1 X102.587 Y115.259 E.00147
;WIDTH:0.392996
G1 X102.587 Y115.212 E.00137
G1 X102.587 Y112.553 E.0774
;WIDTH:0.418133
G1 X102.587 Y109.894 E.08296
G1 X104.89 Y108.564 E.08297
;WIDTH:0.393013
G1 X107.234 Y107.211 E.07879
;WIDTH:0.418162
G1 X107.275 Y107.188 E.00147
G1 X107.315 Y107.211 E.00144
;WIDTH:0.393015
G1 X107.356 Y107.235 E.00138
;WIDTH:0.367867
G1 X111.881 Y109.847 E.14117
;WIDTH:0.393
G1 X111.91 Y109.864 E.00098
M204 P4000
G1 E-.16 F2100
;WIPE_START
G1 F14400
G1 X111.962 Y112.553 E-.37261
G1 X111.962 Y114.483 E-.26739
;WIPE_END
G1 Z.4 F720
G1 X92.888 Y109.894 F18000
G1 Z.2 F720
G1 E.8 F2100
M204 P500
;WIDTH:0.418133
G1 F2400
G1 X95.191 Y108.564 E.08297
;WIDTH:0.393
G1 X97.535 Y107.211 E.07878
;WIDTH:0.418134
G1 X97.575 Y107.188 E.00144
G1 X99.878 Y108.517 E.08296
;WIDTH:0.393001
G1 X102.222 Y109.87 E.07878
;WIDTH:0.418133
G1 X102.262 Y109.894 E.00146
G1 X102.262 Y112.553 E.08296
;WIDTH:0.392996
G1 X102.262 Y115.259 E.07877
;WIDTH:0.418133
G1 X102.262 Y115.306 E.00147
G1 X99.959 Y116.636 E.08297
;WIDTH:0.392999
G1 X97.616 Y117.989 E.07876
;WIDTH:0.418134
G1 X97.575 Y118.012 E.00147
G1 X95.272 Y116.683 E.08296
;WIDTH:0.393001
G1 X92.928 Y115.33 E.07878
;WIDTH:0.418134
G1 X92.888 Y115.306 E.00146
G1 X92.888 Y112.647 E.08296
;WIDTH:0.392997
G1 X92.888 Y109.954 E.07839
M204 P4000
G1 E-.16 F2100
;WIPE_START
G1 F14400
G1 X95.191 Y108.564 E-.37267
G1 X96.862 Y107.599 E-.26733
;WIPE_END
G1 Z.4 F720
G1 X97.413 Y118.294 F18000
G1 Z.2 F720
G1 E.8 F2100
M204 P500
;WIDTH:0.418134
G1 F2400
G1 X97.413 Y120.953 E.08296
;WIDTH:0.392997
G1 X97.413 Y123.659 E.07877
;WIDTH:0.418134
G1 X97.413 Y123.706 E.00147
G1 X95.11 Y125.036 E.08297
;WIDTH:0.393003
M73 P1 R38
G1 X92.807 Y126.365 E.0774
;WIDTH:0.391201
G1 X92.725 Y126.399 E.00257
G1 X92.644 Y126.365 E.00254
;WIDTH:0.393005
G1 X90.341 Y125.036 E.0774
;WIDTH:0.418141
G1 X88.038 Y123.706 E.08297
G1 X88.038 Y118.294 E.16885
G1 X90.341 Y116.964 E.08297
;WIDTH:0.393005
G1 X92.685 Y115.611 E.07878
;WIDTH:0.418134
G1 X92.725 Y115.588 E.00144
G1 X95.028 Y116.917 E.08296
;WIDTH:0.393001
G1 X97.361 Y118.264 E.07842
M204 P4000
G1 E-.16 F2100
;WIPE_START
G1 F14400
G1 X97.413 Y120.953 E-.37261
G1 X97.413 Y122.883 E-.26739
;WIPE_END
G1 Z.4 F720
G1 X92.563 Y109.894 F18000
G1 Z.2 F720
G1 E.8 F2100
M204 P500
;WIDTH:0.418133
G1 F2400
G1 X92.563 Y112.553 E.08296
;WIDTH:0.392997
G1 X92.563 Y115.259 E.07877
;WIDTH:0.418134
G1 X92.563 Y115.306 E.00147
G1 X90.26 Y116.636 E.08297
;WIDTH:0.393003
G1 X87.916 Y117.989 E.07878
;WIDTH:0.418142
G1 X87.876 Y118.012 E.00144
G1 X85.573 Y116.683 E.08296
;WIDTH:0.393006
G1 X83.229 Y115.33 E.07878
;WIDTH:0.41814
G1 X83.188 Y115.306 E.00148
G1 X83.188 Y109.894 E.16885
G1 X87.876 Y107.188 E.16888
;WIDTH:0.418142
G1 X90.179 Y108.517 E.08296
;WIDTH:0.393005
G1 X92.511 Y109.864 E.07839
M204 P4000
G1 X92.725 Y109.612 F18000
M204 P500
;WIDTH:0.418133
G1 F2400
G1 X90.422 Y108.283 E.08296
;WIDTH:0.393003
G1 X88.119 Y106.953 E.07742
;WIDTH:0.393007
G1 X88.079 Y106.93 E.00134
;WIDTH:0.418142
G1 X88.038 Y106.906 E.00148
G1 X88.038 Y101.494 E.16885
G1 X90.341 Y100.164 E.08297
;WIDTH:0.393005
G1 X92.685 Y98.811 E.07878
;WIDTH:0.418134
G1 X92.725 Y98.788 E.00144
G1 X95.028 Y100.117 E.08296
;WIDTH:0.393001
G1 X97.372 Y101.47 E.07878
;WIDTH:0.418134
G1 X97.413 Y101.494 E.00148
G1 X97.413 Y104.153 E.08296
;WIDTH:0.392997
G1 X97.413 Y106.859 E.07877
;WIDTH:0.418134
G1 X97.413 Y106.906 E.00147
G1 X95.11 Y108.236 E.08297
;WIDTH:0.393
G1 X92.777 Y109.582 E.0784
M204 P4000
G1 E-.16 F2100
;WIPE_START
G1 F14400
G1 X90.422 Y108.283 E-.37261
G1 X88.751 Y107.318 E-.26739
;WIPE_END
G1 Z.4 F720
G1 X83.026 Y109.612 F18000
G1 Z.2 F720
G1 E.8 F2100
M204 P500
;WIDTH:0.41814
G1 F2400
G1 X80.723 Y108.283 E.08296
;WIDTH:0.393005
G1 X78.379 Y106.93 E.07878
;WIDTH:0.418139
G1 X78.339 Y106.906 E.00146
G1 X78.339 Y101.494 E.16885
G1 X83.026 Y98.788 E.16885
G1 X85.329 Y100.117 E.08296
;WIDTH:0.393005
G1 X87.673 Y101.47 E.07878
;WIDTH:0.418142
G1 X87.713 Y101.494 E.00146
G1 X87.713 Y104.153 E.08296
;WIDTH:0.393009
G1 X87.713 Y106.859 E.07877
;WIDTH:0.418142
G1 X87.713 Y106.906 E.00147
G1 X85.41 Y108.236 E.08297
;WIDTH:0.393006
G1 X83.078 Y109.582 E.07838
M204 P4000
G1 E-.16 F2100
;WIPE_START
G1 F14400
G1 X80.723 Y108.283 E-.37261
G1 X79.051 Y107.318 E-.26739
;WIPE_END
G1 Z.4 F720
G1 X87.713 Y118.294 F18000
G1 Z.2 F720
G1 E.8 F2100
M204 P500
;WIDTH:0.418142
G1 F2400
G1 X87.713 Y120.953 E.08296
;WIDTH:0.393009
G1 X87.713 Y123.659 E.07877
;WIDTH:0.418141
G1 X87.713 Y123.706 E.00147
G1 X85.41 Y125.036 E.08297
;WIDTH:0.393006
G1 X83.107 Y126.365 E.0774
;WIDTH:0.391201
G1 X83.026 Y126.399 E.00254
G1 X82.945 Y126.365 E.00254
;WIDTH:0.36787
G1 X78.42 Y123.753 E.14117
;WIDTH:0.391199
G1 X78.35 Y123.699 E.00256
G1 X78.339 Y123.612 E.00254
;WIDTH:0.393004
G1 X78.339 Y120.953 E.0774
;WIDTH:0.418139
G1 X78.339 Y118.294 E.08296
G1 X80.642 Y116.964 E.08297
;WIDTH:0.393005
G1 X82.945 Y115.635 E.0774
;WIDTH:0.393005
G1 X82.985 Y115.611 E.00136
;WIDTH:0.41814
